; generated by Slic3r 1.0.1-dev on 2014-02-16 at 17:02:41

; Joe Racette  2014

; perimeters extrusion width = 0.35mm
; infill extrusion width = 0.39mm
; solid infill extrusion width = 0.39mm
; top infill extrusion width = 0.39mm

G21 ; set units to millimeters
M107
M190 S115 ; wait for bed temperature to be reached
M104 S232 ; set temperature
G28 ; home all axes
G1 Z5 F5000 ; lift nozzle
M117 ..... Printing .....
M109 S232 ; wait for temperature to be reached
G90 ; use absolute coordinates
G92 E0
M82 ; use absolute distances for extrusion
G1 F1800.000 E-1.00000
G92 E0
G1 Z0.350 F6000.000
G1 X104.851 Y22.696 F6000.000
G1 E1.00000 F1800.000
G1 X106.435 Y21.086 E1.06988 F540
G1 X108.089 Y19.547 E1.13977
G1 X109.809 Y18.083 E1.20965
G1 X111.592 Y16.697 E1.27953
G1 X113.434 Y15.391 E1.34942
G1 X115.333 Y14.168 E1.41930
G1 X117.284 Y13.029 E1.48919
G1 X119.283 Y11.979 E1.55907
G1 X121.327 Y11.018 E1.62895
G1 X123.411 Y10.148 E1.69883
G1 X125.532 Y9.371 E1.76873
G1 X127.685 Y8.689 E1.83860
G1 X129.867 Y8.102 E1.90849
G1 X132.072 Y7.613 E1.97837
G1 X134.296 Y7.222 E2.04826
G1 X136.535 Y6.929 E2.11813
G1 X138.031 Y6.796 E2.16459
G1 X138.786 Y6.736 E2.18802
G1 X141.043 Y6.643 E2.25791
G1 X143.301 Y6.649 E2.32779
G1 X145.557 Y6.755 E2.39768
G1 X147.806 Y6.962 E2.46756
G1 X150.044 Y7.267 E2.53744
G1 X152.266 Y7.671 E2.60733
G1 X154.469 Y8.173 E2.67721
G1 X156.646 Y8.772 E2.74709
G1 X158.796 Y9.466 E2.81698
G1 X160.912 Y10.255 E2.88687
G1 X162.991 Y11.137 E2.95675
G1 X165.029 Y12.110 E3.02663
G1 X167.023 Y13.172 E3.09652
G1 X168.967 Y14.322 E3.16640
G1 X170.859 Y15.556 E3.23628
G1 X172.694 Y16.872 E3.30617
G1 X174.469 Y18.269 E3.37605
G1 X176.181 Y19.743 E3.44594
G1 X177.825 Y21.290 E3.51582
G1 X179.400 Y22.910 E3.58570
G1 X180.901 Y24.597 E3.65559
G1 X182.327 Y26.349 E3.72547
G1 X183.673 Y28.162 E3.79536
G1 X184.938 Y30.033 E3.86524
G1 X186.119 Y31.959 E3.93513
G1 X187.214 Y33.934 E4.00501
G1 X188.220 Y35.956 E4.07489
G1 X189.136 Y38.021 E4.14478
G1 X189.959 Y40.124 E4.21466
G1 X190.689 Y42.261 E4.28454
G1 X191.324 Y44.429 E4.35443
G1 X191.862 Y46.623 E4.42432
G1 X192.302 Y48.838 E4.49420
G1 X192.644 Y51.071 E4.56408
G1 X192.887 Y53.316 E4.63396
G1 X193.030 Y55.570 E4.70385
G1 X193.075 Y57.652 E4.76828
G1 X193.497 Y152.655 E7.70782
G1 X193.419 Y155.014 E7.78085
G1 X193.206 Y157.364 E7.85386
G1 X192.859 Y159.698 E7.92689
G1 X192.380 Y162.009 E7.99991
G1 X191.770 Y164.289 E8.07293
G1 X191.030 Y166.530 E8.14595
G1 X190.164 Y168.725 E8.21898
G1 X189.174 Y170.868 E8.29200
G1 X188.063 Y172.950 E8.36502
G1 X186.835 Y174.965 E8.43804
G1 X185.494 Y176.907 E8.51107
G1 X184.044 Y178.769 E8.58409
G1 X182.490 Y180.546 E8.65711
G1 X180.838 Y182.231 E8.73013
G1 X179.092 Y183.819 E8.80316
G1 X177.258 Y185.304 E8.87618
G1 X175.342 Y186.683 E8.94920
G1 X173.351 Y187.949 E9.02222
G1 X171.291 Y189.101 E9.09525
G1 X169.169 Y190.132 E9.16826
G1 X166.990 Y191.041 E9.24129
G1 X164.764 Y191.824 E9.31432
G1 X162.497 Y192.478 E9.38733
G1 X160.195 Y193.002 E9.46036
G1 X157.868 Y193.394 E9.53338
G1 X155.522 Y193.652 E9.60640
G1 X153.176 Y193.776 E9.67909
G1 X56.022 Y193.931 E12.68519
G1 X53.721 Y193.870 E12.75640
G1 X51.425 Y193.704 E12.82762
G1 X49.140 Y193.432 E12.89883
G1 X46.869 Y193.054 E12.97005
G1 X44.619 Y192.572 E13.04126
G1 X42.393 Y191.987 E13.11248
G1 X40.196 Y191.299 E13.18369
G1 X38.034 Y190.511 E13.25491
G1 X35.910 Y189.624 E13.32612
G1 X33.829 Y188.639 E13.39734
G1 X31.797 Y187.560 E13.46855
G1 X29.816 Y186.387 E13.53977
G1 X27.891 Y185.125 E13.61099
G1 X26.027 Y183.775 E13.68220
G1 X24.228 Y182.340 E13.75341
G1 X22.496 Y180.824 E13.82464
G1 X20.836 Y179.230 E13.89584
G1 X19.252 Y177.560 E13.96707
G1 X17.746 Y175.819 E14.03828
G1 X16.323 Y174.011 E14.10949
G1 X14.984 Y172.138 E14.18071
G1 X13.734 Y170.206 E14.25193
G1 X12.574 Y168.218 E14.32314
G1 X11.506 Y166.178 E14.39436
G1 X10.535 Y164.092 E14.46558
G1 X9.661 Y161.963 E14.53679
G1 X8.886 Y159.796 E14.60800
G1 X8.212 Y157.595 E14.67922
G1 X7.640 Y155.365 E14.75044
G1 X7.172 Y153.112 E14.82165
G1 X6.808 Y150.839 E14.89286
G1 X6.550 Y148.552 E14.96408
G1 X6.398 Y146.256 E15.03530
G1 X6.352 Y143.954 E15.10651
G1 X6.412 Y141.653 E15.17773
G1 X6.578 Y139.358 E15.24894
G1 X6.850 Y137.072 E15.32016
G1 X7.228 Y134.802 E15.39137
G1 X7.710 Y132.552 E15.46258
G1 X8.295 Y130.325 E15.53381
G1 X8.983 Y128.129 E15.60502
G1 X9.771 Y125.967 E15.67623
G1 X10.658 Y123.843 E15.74745
G1 X11.643 Y121.762 E15.81867
G1 X12.722 Y119.730 E15.88988
G1 X13.895 Y117.749 E15.96110
G1 X15.157 Y115.824 E16.03232
G1 X16.507 Y113.960 E16.10352
G1 X17.942 Y112.160 E16.17474
G1 X19.458 Y110.428 E16.24597
G1 X20.881 Y108.939 E16.30970
G1 X104.815 Y22.733 E20.03248
G1 F1800.000 E19.03248
G92 E0
G1 X70.388 Y108.434 F6000.000
G1 E1.00000 F1800.000
G1 X72.299 Y109.256 E1.06435 F540
G1 X74.162 Y110.180 E1.12870
G1 X75.972 Y111.204 E1.19305
G1 X77.724 Y112.324 E1.25740
G1 X79.414 Y113.537 E1.32175
G1 X81.034 Y114.840 E1.38609
G1 X82.583 Y116.229 E1.45044
G1 X84.053 Y117.699 E1.51479
G1 X85.442 Y119.248 E1.57914
G1 X86.745 Y120.868 E1.64349
G1 X87.958 Y122.558 E1.70784
G1 X89.078 Y124.310 E1.77219
G1 X90.102 Y126.120 E1.83654
G1 X91.026 Y127.983 E1.90089
G1 X91.848 Y129.894 E1.96524
G1 X92.565 Y131.846 E2.02959
G1 X93.175 Y133.834 E2.09393
G1 X93.677 Y135.852 E2.15828
G1 X94.069 Y137.895 E2.22263
G1 X94.350 Y139.956 E2.28698
G1 X94.519 Y142.028 E2.35133
G1 X94.575 Y144.107 E2.41568
G1 X94.519 Y146.186 E2.48003
G1 X94.350 Y148.259 E2.54438
G1 X94.069 Y150.320 E2.60873
G1 X93.677 Y152.362 E2.67308
G1 X93.175 Y154.381 E2.73743
G1 X92.565 Y156.369 E2.80178
G1 X91.848 Y158.321 E2.86612
G1 X91.026 Y160.231 E2.93047
G1 X90.102 Y162.094 E2.99482
G1 X89.078 Y163.905 E3.05917
G1 X87.958 Y165.657 E3.12352
G1 X86.745 Y167.346 E3.18787
G1 X85.442 Y168.967 E3.25222
G1 X84.053 Y170.515 E3.31657
G1 X82.583 Y171.986 E3.38092
G1 X81.034 Y173.375 E3.44527
G1 X79.414 Y174.678 E3.50962
G1 X77.724 Y175.891 E3.57397
G1 X75.972 Y177.011 E3.63831
G1 X74.162 Y178.035 E3.70266
G1 X72.299 Y178.959 E3.76701
G1 X70.388 Y179.780 E3.83136
G1 X68.436 Y180.498 E3.89571
G1 X66.448 Y181.108 E3.96006
G1 X64.430 Y181.610 E4.02441
G1 X62.387 Y182.002 E4.08876
G1 X60.326 Y182.283 E4.15311
G1 X58.254 Y182.451 E4.21746
G1 X56.175 Y182.508 E4.28181
G1 X54.096 Y182.451 E4.34615
G1 X52.023 Y182.283 E4.41050
G1 X49.962 Y182.002 E4.47485
G1 X47.920 Y181.610 E4.53920
G1 X45.901 Y181.108 E4.60355
G1 X43.913 Y180.498 E4.66790
G1 X41.961 Y179.780 E4.73225
G1 X40.051 Y178.959 E4.79660
G1 X38.188 Y178.035 E4.86095
G1 X36.377 Y177.011 E4.92530
G1 X34.625 Y175.891 E4.98965
G1 X32.936 Y174.678 E5.05400
G1 X31.315 Y173.375 E5.11834
G1 X29.767 Y171.986 E5.18269
G1 X28.296 Y170.515 E5.24704
G1 X26.907 Y168.967 E5.31139
G1 X25.604 Y167.346 E5.37574
G1 X24.391 Y165.657 E5.44009
G1 X23.271 Y163.905 E5.50444
G1 X22.247 Y162.094 E5.56879
G1 X21.323 Y160.231 E5.63314
G1 X20.502 Y158.321 E5.69749
G1 X19.784 Y156.369 E5.76183
G1 X19.174 Y154.381 E5.82618
G1 X18.672 Y152.362 E5.89053
G1 X18.280 Y150.320 E5.95488
G1 X17.999 Y148.259 E6.01923
G1 X17.831 Y146.186 E6.08358
G1 X17.774 Y144.107 E6.14793
G1 X17.831 Y142.028 E6.21228
G1 X17.999 Y139.956 E6.27663
G1 X18.280 Y137.895 E6.34098
G1 X18.672 Y135.852 E6.40533
G1 X19.174 Y133.834 E6.46968
G1 X19.784 Y131.846 E6.53403
G1 X20.502 Y129.894 E6.59837
G1 X21.323 Y127.983 E6.66272
G1 X22.247 Y126.120 E6.72707
G1 X23.271 Y124.310 E6.79142
G1 X24.391 Y122.558 E6.85577
G1 X25.604 Y120.868 E6.92012
G1 X26.907 Y119.248 E6.98447
G1 X28.296 Y117.699 E7.04882
G1 X29.767 Y116.229 E7.11317
G1 X31.315 Y114.840 E7.17752
G1 X32.936 Y113.537 E7.24186
G1 X34.625 Y112.324 E7.30622
G1 X36.377 Y111.204 E7.37056
G1 X38.188 Y110.180 E7.43491
G1 X40.051 Y109.256 E7.49926
G1 X41.961 Y108.434 E7.56361
G1 X43.913 Y107.717 E7.62796
G1 X45.901 Y107.107 E7.69231
G1 X47.920 Y106.605 E7.75666
G1 X49.962 Y106.213 E7.82101
G1 X52.023 Y105.932 E7.88536
G1 X54.096 Y105.763 E7.94971
G1 X56.175 Y105.707 E8.01406
G1 X58.254 Y105.763 E8.07840
G1 X60.326 Y105.932 E8.14275
G1 X62.387 Y106.213 E8.20710
G1 X64.430 Y106.605 E8.27145
G1 X66.448 Y107.107 E8.33580
G1 X68.436 Y107.717 E8.40015
G1 X70.339 Y108.416 E8.46288
G1 X70.157 Y109.015 F6000.000
G1 X72.036 Y109.823 E8.52618 F540
G1 X73.869 Y110.733 E8.58948
G1 X75.650 Y111.739 E8.65278
G1 X77.374 Y112.841 E8.71608
G1 X79.035 Y114.035 E8.77938
G1 X80.630 Y115.316 E8.84268
G1 X82.153 Y116.683 E8.90599
G1 X83.599 Y118.129 E8.96929
G1 X84.966 Y119.652 E9.03259
G1 X86.247 Y121.247 E9.09589
G1 X87.441 Y122.908 E9.15919
G1 X88.543 Y124.632 E9.22249
G1 X89.549 Y126.413 E9.28579
G1 X90.459 Y128.246 E9.34910
G1 X91.267 Y130.125 E9.41240
G1 X91.972 Y132.046 E9.47570
G1 X92.573 Y134.001 E9.53900
G1 X93.067 Y135.987 E9.60230
G1 X93.452 Y137.996 E9.66560
G1 X93.728 Y140.023 E9.72891
G1 X93.894 Y142.062 E9.79221
G1 X93.950 Y144.107 E9.85551
G1 X93.894 Y146.152 E9.91881
G1 X93.728 Y148.192 E9.98211
G1 X93.452 Y150.219 E10.04541
G1 X93.067 Y152.228 E10.10872
G1 X92.573 Y154.213 E10.17202
G1 X91.972 Y156.169 E10.23532
G1 X91.267 Y158.089 E10.29862
G1 X90.459 Y159.969 E10.36192
G1 X89.549 Y161.802 E10.42522
G1 X88.543 Y163.583 E10.48853
G1 X87.441 Y165.306 E10.55183
G1 X86.247 Y166.968 E10.61513
G1 X84.966 Y168.563 E10.67843
G1 X83.599 Y170.085 E10.74173
G1 X82.153 Y171.532 E10.80503
G1 X80.630 Y172.898 E10.86834
G1 X79.035 Y174.180 E10.93164
G1 X77.374 Y175.374 E10.99494
G1 X75.650 Y176.475 E11.05824
G1 X73.869 Y177.482 E11.12154
G1 X72.036 Y178.391 E11.18484
G1 X70.157 Y179.200 E11.24814
G1 X68.236 Y179.905 E11.31145
G1 X66.281 Y180.506 E11.37475
G1 X64.295 Y180.999 E11.43805
G1 X62.286 Y181.385 E11.50135
G1 X60.259 Y181.661 E11.56465
G1 X58.220 Y181.827 E11.62795
G1 X56.175 Y181.883 E11.69126
G1 X54.130 Y181.827 E11.75456
G1 X52.090 Y181.661 E11.81786
G1 X50.063 Y181.385 E11.88116
G1 X48.054 Y180.999 E11.94446
G1 X46.069 Y180.506 E12.00776
G1 X44.113 Y179.905 E12.07107
G1 X42.193 Y179.200 E12.13437
G1 X40.313 Y178.391 E12.19767
G1 X38.480 Y177.482 E12.26097
G1 X36.699 Y176.475 E12.32427
G1 X34.976 Y175.374 E12.38757
G1 X33.314 Y174.180 E12.45088
G1 X31.719 Y172.898 E12.51418
G1 X30.197 Y171.532 E12.57748
G1 X28.750 Y170.085 E12.64078
G1 X27.384 Y168.563 E12.70408
G1 X26.102 Y166.968 E12.76738
G1 X24.908 Y165.306 E12.83068
G1 X23.807 Y163.583 E12.89399
G1 X22.800 Y161.802 E12.95729
G1 X21.891 Y159.969 E13.02059
G1 X21.082 Y158.089 E13.08389
G1 X20.377 Y156.169 E13.14719
G1 X19.776 Y154.213 E13.21049
G1 X19.283 Y152.228 E13.27380
G1 X18.897 Y150.219 E13.33710
G1 X18.621 Y148.192 E13.40040
G1 X18.455 Y146.152 E13.46370
G1 X18.399 Y144.107 E13.52700
G1 X18.455 Y142.062 E13.59030
G1 X18.621 Y140.023 E13.65361
G1 X18.897 Y137.996 E13.71691
G1 X19.283 Y135.987 E13.78021
G1 X19.776 Y134.001 E13.84351
G1 X20.377 Y132.046 E13.90681
G1 X21.082 Y130.125 E13.97011
G1 X21.891 Y128.246 E14.03341
G1 X22.800 Y126.413 E14.09672
G1 X23.807 Y124.632 E14.16002
G1 X24.908 Y122.908 E14.22332
G1 X26.102 Y121.247 E14.28662
G1 X27.384 Y119.652 E14.34992
G1 X28.750 Y118.129 E14.41322
G1 X30.197 Y116.683 E14.47653
G1 X31.719 Y115.316 E14.53983
G1 X33.314 Y114.035 E14.60313
G1 X34.976 Y112.841 E14.66643
G1 X36.699 Y111.739 E14.72973
G1 X38.480 Y110.733 E14.79303
G1 X40.313 Y109.823 E14.85634
G1 X42.193 Y109.015 E14.91964
G1 X44.113 Y108.310 E14.98294
G1 X46.069 Y107.709 E15.04624
G1 X48.054 Y107.215 E15.10954
G1 X50.063 Y106.830 E15.17284
G1 X52.090 Y106.554 E15.23615
G1 X54.130 Y106.388 E15.29945
G1 X56.175 Y106.332 E15.36275
G1 X58.220 Y106.388 E15.42605
G1 X60.259 Y106.554 E15.48935
G1 X62.286 Y106.830 E15.55265
G1 X64.295 Y107.215 E15.61596
G1 X66.281 Y107.709 E15.67926
G1 X68.236 Y108.310 E15.74256
G1 X70.107 Y108.997 E15.80424
G1 X69.925 Y109.596 F6000.000
G1 X71.774 Y110.391 E15.86649 F378
G1 X73.576 Y111.285 E15.92874
G1 X75.328 Y112.275 E15.99100
G1 X77.023 Y113.359 E16.05325
G1 X78.657 Y114.532 E16.11551
G1 X80.225 Y115.793 E16.17776
G1 X81.723 Y117.137 E16.24001
G1 X83.145 Y118.559 E16.30227
G1 X84.489 Y120.057 E16.36452
G1 X85.750 Y121.625 E16.42678
G1 X86.923 Y123.259 E16.48903
G1 X88.007 Y124.954 E16.55128
G1 X88.997 Y126.706 E16.61354
G1 X89.891 Y128.508 E16.67579
G1 X90.686 Y130.357 E16.73804
G1 X91.380 Y132.245 E16.80030
G1 X91.971 Y134.169 E16.86255
G1 X92.456 Y136.121 E16.92481
G1 X92.835 Y138.097 E16.98706
G1 X93.107 Y140.091 E17.04932
G1 X93.270 Y142.096 E17.11157
G1 X93.325 Y144.107 E17.17382
G1 X93.270 Y146.119 E17.23608
G1 X93.107 Y148.124 E17.29833
G1 X92.835 Y150.118 E17.36059
G1 X92.456 Y152.094 E17.42284
G1 X91.971 Y154.046 E17.48509
G1 X91.380 Y155.969 E17.54735
G1 X90.686 Y157.858 E17.60960
G1 X89.891 Y159.706 E17.67186
G1 X88.997 Y161.509 E17.73411
G1 X88.007 Y163.260 E17.79637
G1 X86.923 Y164.956 E17.85862
G1 X85.750 Y166.590 E17.92087
G1 X84.489 Y168.158 E17.98313
G1 X83.145 Y169.655 E18.04538
G1 X81.723 Y171.078 E18.10763
G1 X80.225 Y172.422 E18.16989
G1 X78.657 Y173.682 E18.23214
G1 X77.023 Y174.856 E18.29440
G1 X75.328 Y175.940 E18.35665
G1 X73.576 Y176.930 E18.41891
G1 X71.774 Y177.824 E18.48116
G1 X69.925 Y178.619 E18.54341
G1 X68.037 Y179.313 E18.60567
G1 X66.113 Y179.903 E18.66792
G1 X64.161 Y180.389 E18.73018
G1 X62.185 Y180.768 E18.79243
G1 X60.191 Y181.040 E18.85468
G1 X58.186 Y181.203 E18.91694
G1 X56.175 Y181.258 E18.97919
G1 X54.163 Y181.203 E19.04145
G1 X52.158 Y181.040 E19.10370
G1 X50.164 Y180.768 E19.16595
G1 X48.188 Y180.389 E19.22821
G1 X46.236 Y179.903 E19.29046
G1 X44.313 Y179.313 E19.35272
G1 X42.424 Y178.619 E19.41497
G1 X40.576 Y177.824 E19.47722
G1 X38.773 Y176.930 E19.53948
G1 X37.022 Y175.940 E19.60173
G1 X35.326 Y174.856 E19.66399
G1 X33.692 Y173.682 E19.72624
G1 X32.124 Y172.422 E19.78849
G1 X30.627 Y171.078 E19.85075
G1 X29.204 Y169.655 E19.91300
G1 X27.860 Y168.158 E19.97526
G1 X26.600 Y166.590 E20.03751
G1 X25.426 Y164.956 E20.09977
G1 X24.342 Y163.260 E20.16202
G1 X23.352 Y161.509 E20.22427
G1 X22.458 Y159.706 E20.28653
G1 X21.663 Y157.858 E20.34878
G1 X20.969 Y155.969 E20.41103
G1 X20.379 Y154.046 E20.47329
G1 X19.893 Y152.094 E20.53554
G1 X19.514 Y150.118 E20.59780
G1 X19.242 Y148.124 E20.66005
G1 X19.079 Y146.119 E20.72231
G1 X19.024 Y144.107 E20.78456
G1 X19.079 Y142.096 E20.84681
G1 X19.242 Y140.091 E20.90907
G1 X19.514 Y138.097 E20.97132
G1 X19.893 Y136.121 E21.03358
G1 X20.379 Y134.169 E21.09583
G1 X20.969 Y132.245 E21.15808
G1 X21.663 Y130.357 E21.22034
G1 X22.458 Y128.508 E21.28259
G1 X23.352 Y126.706 E21.34485
G1 X24.342 Y124.954 E21.40710
G1 X25.426 Y123.259 E21.46935
G1 X26.600 Y121.625 E21.53161
G1 X27.860 Y120.057 E21.59386
G1 X29.204 Y118.559 E21.65612
G1 X30.627 Y117.137 E21.71837
G1 X32.124 Y115.793 E21.78063
G1 X33.692 Y114.532 E21.84288
G1 X35.326 Y113.359 E21.90513
G1 X37.022 Y112.275 E21.96739
G1 X38.773 Y111.285 E22.02964
G1 X40.576 Y110.391 E22.09190
G1 X42.424 Y109.596 E22.15415
G1 X44.313 Y108.902 E22.21640
G1 X46.236 Y108.311 E22.27866
G1 X48.188 Y107.826 E22.34091
G1 X50.164 Y107.447 E22.40316
G1 X52.158 Y107.175 E22.46542
G1 X54.163 Y107.012 E22.52767
G1 X56.175 Y106.957 E22.58993
G1 X58.186 Y107.012 E22.65218
G1 X60.191 Y107.175 E22.71444
G1 X62.185 Y107.447 E22.77669
G1 X64.161 Y107.826 E22.83894
G1 X66.113 Y108.311 E22.90120
G1 X68.037 Y108.902 E22.96345
G1 X69.876 Y109.578 E23.02408
G1 X70.202 Y109.381 F6000.000
G1 X71.202 Y105.317 F6000.000
G1 X72.978 Y106.052 E23.08354 F540
G1 X74.717 Y106.869 E23.14300
G1 X76.417 Y107.765 E23.20246
G1 X78.074 Y108.739 E23.26193
G1 X79.684 Y109.788 E23.32139
G1 X81.244 Y110.910 E23.38085
G1 X82.751 Y112.103 E23.44031
G1 X84.200 Y113.365 E23.49977
G1 X85.590 Y114.692 E23.55923
G1 X86.917 Y116.082 E23.61869
G1 X88.179 Y117.531 E23.67815
G1 X89.372 Y119.038 E23.73761
G1 X90.494 Y120.598 E23.79708
G1 X91.544 Y122.208 E23.85654
G1 X92.517 Y123.865 E23.91600
G1 X93.413 Y125.565 E23.97546
G1 X94.230 Y127.304 E24.03492
G1 X94.965 Y129.080 E24.09438
G1 X95.618 Y130.887 E24.15384
G1 X96.186 Y132.723 E24.21330
G1 X96.669 Y134.583 E24.27276
G1 X97.066 Y136.463 E24.33222
G1 X97.375 Y138.360 E24.39169
G1 X97.597 Y140.269 E24.45115
G1 X97.730 Y142.186 E24.51061
G1 X97.774 Y144.107 E24.57007
G1 X97.730 Y146.029 E24.62953
