; generated by Slic3r 1.0.1-dev on 2014-02-22 at 08:28:16

; Joe Racette  2014

; perimeters extrusion width = 0.35mm
; infill extrusion width = 0.39mm
; solid infill extrusion width = 0.39mm
; top infill extrusion width = 0.39mm

G21 ; set units to millimeters
M107 ; disable fan
M190 S115 ; wait for bed temperature to be reached
M104 S232 ; set temperature
G28 ; home all axes
G1 Z5 F5000 ; lift nozzle
M117 ..... Printing .....
M109 S232 ; wait for temperature to be reached
G90 ; use absolute coordinates
M83 ; use relative distances for extrusion
G1 F1800.000 E-1.00000 ; retract
G1 Z0.350 F6000.000 ; move to next layer (0)
G1 X64.949 Y64.732 F6000.000 ; move to first skirt point
G1 E1.00000 F1800.000 ; compensate retraction
G1 X66.615 Y63.151 E0.07108 F540 ; skirt
G1 X68.352 Y61.649 E0.07107 ; skirt
G1 X70.157 Y60.228 E0.07107 ; skirt
G1 X72.026 Y58.892 E0.07108 ; skirt
G1 X73.954 Y57.644 E0.07108 ; skirt
G1 X75.938 Y56.486 E0.07107 ; skirt
G1 X77.973 Y55.422 E0.07107 ; skirt
G1 X80.056 Y54.452 E0.07107 ; skirt
G1 X82.181 Y53.579 E0.07109 ; skirt
G1 X84.343 Y52.806 E0.07106 ; skirt
G1 X86.540 Y52.133 E0.07108 ; skirt
G1 X88.765 Y51.563 E0.07108 ; skirt
G1 X91.014 Y51.095 E0.07106 ; skirt
G1 X93.282 Y50.733 E0.07108 ; skirt
G1 X95.564 Y50.475 E0.07106 ; skirt
G1 X97.856 Y50.323 E0.07107 ; skirt
G1 X100.153 Y50.277 E0.07107 ; skirt
G1 X102.449 Y50.337 E0.07108 ; skirt
G1 X104.740 Y50.503 E0.07106 ; skirt
G1 X107.021 Y50.775 E0.07108 ; skirt
G1 X109.287 Y51.152 E0.07106 ; skirt
G1 X111.533 Y51.633 E0.07108 ; skirt
G1 X113.755 Y52.217 E0.07108 ; skirt
G1 X115.946 Y52.903 E0.07106 ; skirt
G1 X118.105 Y53.690 E0.07108 ; skirt
G1 X120.224 Y54.575 E0.07107 ; skirt
G1 X122.300 Y55.558 E0.07106 ; skirt
G1 X124.329 Y56.635 E0.07108 ; skirt
G1 X126.306 Y57.805 E0.07107 ; skirt
G1 X128.227 Y59.065 E0.07108 ; skirt
G1 X130.087 Y60.412 E0.07107 ; skirt
G1 X131.883 Y61.844 E0.07107 ; skirt
G1 X133.611 Y63.357 E0.07108 ; skirt
G1 X135.268 Y64.949 E0.07107 ; skirt
G1 X136.849 Y66.615 E0.07108 ; skirt
G1 X138.351 Y68.352 E0.07107 ; skirt
G1 X139.772 Y70.157 E0.07107 ; skirt
G1 X141.108 Y72.026 E0.07108 ; skirt
G1 X142.356 Y73.954 E0.07108 ; skirt
G1 X143.514 Y75.938 E0.07107 ; skirt
G1 X144.578 Y77.973 E0.07107 ; skirt
G1 X145.548 Y80.056 E0.07107 ; skirt
G1 X146.421 Y82.181 E0.07109 ; skirt
G1 X147.194 Y84.343 E0.07106 ; skirt
G1 X147.867 Y86.540 E0.07108 ; skirt
G1 X148.437 Y88.765 E0.07108 ; skirt
G1 X148.905 Y91.014 E0.07106 ; skirt
G1 X149.267 Y93.282 E0.07108 ; skirt
G1 X149.525 Y95.564 E0.07106 ; skirt
G1 X149.677 Y97.856 E0.07108 ; skirt
G1 X149.723 Y100.153 E0.07108 ; skirt
G1 X149.663 Y102.449 E0.07107 ; skirt
G1 X149.497 Y104.740 E0.07106 ; skirt
G1 X149.225 Y107.021 E0.07108 ; skirt
G1 X148.848 Y109.287 E0.07106 ; skirt
G1 X148.367 Y111.533 E0.07108 ; skirt
G1 X147.783 Y113.755 E0.07108 ; skirt
G1 X147.097 Y115.946 E0.07106 ; skirt
G1 X146.310 Y118.105 E0.07108 ; skirt
G1 X145.425 Y120.224 E0.07107 ; skirt
G1 X144.442 Y122.300 E0.07107 ; skirt
G1 X143.365 Y124.329 E0.07108 ; skirt
G1 X142.195 Y126.306 E0.07107 ; skirt
G1 X140.935 Y128.227 E0.07108 ; skirt
G1 X139.588 Y130.087 E0.07107 ; skirt
G1 X138.156 Y131.883 E0.07107 ; skirt
G1 X136.643 Y133.611 E0.07108 ; skirt
G1 X135.051 Y135.268 E0.07107 ; skirt
G1 X133.385 Y136.849 E0.07108 ; skirt
G1 X131.648 Y138.351 E0.07107 ; skirt
G1 X129.843 Y139.772 E0.07107 ; skirt
G1 X127.974 Y141.108 E0.07108 ; skirt
G1 X126.046 Y142.356 E0.07108 ; skirt
G1 X124.062 Y143.514 E0.07107 ; skirt
G1 X122.027 Y144.578 E0.07107 ; skirt
G1 X119.944 Y145.548 E0.07107 ; skirt
G1 X117.819 Y146.421 E0.07109 ; skirt
G1 X115.657 Y147.194 E0.07106 ; skirt
G1 X113.460 Y147.867 E0.07108 ; skirt
G1 X111.235 Y148.437 E0.07108 ; skirt
G1 X108.986 Y148.905 E0.07106 ; skirt
G1 X106.718 Y149.267 E0.07108 ; skirt
G1 X104.436 Y149.525 E0.07106 ; skirt
G1 X102.144 Y149.677 E0.07108 ; skirt
G1 X99.847 Y149.723 E0.07107 ; skirt
G1 X97.551 Y149.663 E0.07108 ; skirt
G1 X95.260 Y149.497 E0.07106 ; skirt
G1 X92.979 Y149.225 E0.07108 ; skirt
G1 X90.713 Y148.848 E0.07106 ; skirt
G1 X88.467 Y148.367 E0.07108 ; skirt
G1 X86.245 Y147.783 E0.07108 ; skirt
G1 X84.054 Y147.097 E0.07106 ; skirt
G1 X81.895 Y146.310 E0.07108 ; skirt
G1 X79.776 Y145.425 E0.07107 ; skirt
G1 X77.700 Y144.442 E0.07107 ; skirt
G1 X75.671 Y143.365 E0.07108 ; skirt
G1 X73.694 Y142.195 E0.07107 ; skirt
G1 X71.773 Y140.935 E0.07108 ; skirt
G1 X69.913 Y139.588 E0.07107 ; skirt
G1 X68.117 Y138.156 E0.07107 ; skirt
G1 X66.389 Y136.643 E0.07108 ; skirt
G1 X64.732 Y135.051 E0.07107 ; skirt
G1 X63.151 Y133.385 E0.07108 ; skirt
G1 X61.649 Y131.648 E0.07107 ; skirt
G1 X60.228 Y129.843 E0.07107 ; skirt
G1 X58.892 Y127.974 E0.07108 ; skirt
G1 X57.644 Y126.046 E0.07108 ; skirt
G1 X56.486 Y124.062 E0.07107 ; skirt
G1 X55.422 Y122.027 E0.07107 ; skirt
G1 X54.452 Y119.944 E0.07107 ; skirt
G1 X53.579 Y117.819 E0.07109 ; skirt
G1 X52.806 Y115.657 E0.07106 ; skirt
G1 X52.133 Y113.460 E0.07108 ; skirt
G1 X51.563 Y111.235 E0.07108 ; skirt
G1 X51.095 Y108.986 E0.07106 ; skirt
G1 X50.733 Y106.718 E0.07108 ; skirt
G1 X50.475 Y104.436 E0.07106 ; skirt
G1 X50.323 Y102.144 E0.07108 ; skirt
G1 X50.277 Y99.847 E0.07107 ; skirt
G1 X50.337 Y97.551 E0.07108 ; skirt
G1 X50.503 Y95.260 E0.07106 ; skirt
G1 X50.775 Y92.979 E0.07108 ; skirt
G1 X51.152 Y90.713 E0.07106 ; skirt
G1 X51.633 Y88.467 E0.07108 ; skirt
G1 X52.217 Y86.245 E0.07108 ; skirt
G1 X52.903 Y84.054 E0.07106 ; skirt
G1 X53.690 Y81.895 E0.07108 ; skirt
G1 X54.575 Y79.776 E0.07107 ; skirt
G1 X55.558 Y77.700 E0.07106 ; skirt
G1 X56.635 Y75.671 E0.07108 ; skirt
G1 X57.805 Y73.694 E0.07107 ; skirt
G1 X59.065 Y71.773 E0.07108 ; skirt
G1 X60.412 Y69.913 E0.07107 ; skirt
G1 X61.844 Y68.117 E0.07107 ; skirt
G1 X63.357 Y66.389 E0.07108 ; skirt
G1 X64.912 Y64.770 E0.06944 ; skirt
G1 F1800.000 E-1.00000 ; retract
G1 X73.523 Y72.049 F6000.000 ; move to first perimeter point
G1 E1.00000 F1800.000 ; compensate retraction
G1 X75.075 Y70.656 E0.06452 F540 ; perimeter
G1 X76.701 Y69.350 E0.06452 ; perimeter
G1 X78.394 Y68.134 E0.06452 ; perimeter
G1 X80.151 Y67.011 E0.06452 ; perimeter
G1 X81.966 Y65.984 E0.06452 ; perimeter
G1 X83.834 Y65.058 E0.06452 ; perimeter
G1 X85.750 Y64.234 E0.06452 ; perimeter
G1 X87.707 Y63.515 E0.06452 ; perimeter
G1 X89.700 Y62.903 E0.06452 ; perimeter
G1 X91.724 Y62.400 E0.06452 ; perimeter
G1 X93.771 Y62.007 E0.06452 ; perimeter
G1 X95.837 Y61.725 E0.06452 ; perimeter
G1 X97.916 Y61.556 E0.06452 ; perimeter
G1 X100.000 Y61.500 E0.06452 ; perimeter
G1 X102.084 Y61.556 E0.06452 ; perimeter
G1 X104.163 Y61.725 E0.06452 ; perimeter
G1 X106.229 Y62.007 E0.06452 ; perimeter
G1 X108.276 Y62.400 E0.06452 ; perimeter
G1 X110.300 Y62.903 E0.06452 ; perimeter
G1 X112.293 Y63.515 E0.06452 ; perimeter
G1 X114.250 Y64.234 E0.06452 ; perimeter
G1 X116.166 Y65.058 E0.06452 ; perimeter
G1 X118.034 Y65.984 E0.06452 ; perimeter
G1 X119.849 Y67.011 E0.06452 ; perimeter
G1 X121.606 Y68.134 E0.06452 ; perimeter
G1 X123.299 Y69.350 E0.06452 ; perimeter
G1 X124.925 Y70.656 E0.06452 ; perimeter
G1 X126.477 Y72.049 E0.06452 ; perimeter
G1 X127.951 Y73.523 E0.06451 ; perimeter
G1 X129.344 Y75.075 E0.06452 ; perimeter
G1 X130.650 Y76.701 E0.06452 ; perimeter
G1 X131.866 Y78.394 E0.06452 ; perimeter
G1 X132.989 Y80.151 E0.06452 ; perimeter
G1 X134.016 Y81.966 E0.06452 ; perimeter
G1 X134.942 Y83.834 E0.06452 ; perimeter
G1 X135.766 Y85.750 E0.06452 ; perimeter
G1 X136.485 Y87.707 E0.06452 ; perimeter
G1 X137.097 Y89.700 E0.06452 ; perimeter
G1 X137.600 Y91.724 E0.06452 ; perimeter
G1 X137.993 Y93.771 E0.06452 ; perimeter
G1 X138.275 Y95.837 E0.06452 ; perimeter
G1 X138.444 Y97.916 E0.06452 ; perimeter
G1 X138.500 Y100.000 E0.06452 ; perimeter
G1 X138.444 Y102.084 E0.06452 ; perimeter
G1 X138.275 Y104.163 E0.06452 ; perimeter
G1 X137.993 Y106.229 E0.06452 ; perimeter
G1 X137.600 Y108.276 E0.06452 ; perimeter
G1 X137.097 Y110.300 E0.06452 ; perimeter
G1 X136.485 Y112.293 E0.06452 ; perimeter
G1 X135.766 Y114.250 E0.06452 ; perimeter
G1 X134.942 Y116.166 E0.06452 ; perimeter
G1 X134.016 Y118.034 E0.06452 ; perimeter
G1 X132.989 Y119.849 E0.06452 ; perimeter
G1 X131.866 Y121.606 E0.06452 ; perimeter
G1 X130.650 Y123.299 E0.06452 ; perimeter
G1 X129.344 Y124.925 E0.06452 ; perimeter
G1 X127.951 Y126.477 E0.06452 ; perimeter
G1 X126.477 Y127.951 E0.06451 ; perimeter
G1 X124.925 Y129.344 E0.06452 ; perimeter
G1 X123.299 Y130.650 E0.06452 ; perimeter
G1 X121.606 Y131.866 E0.06452 ; perimeter
G1 X119.849 Y132.989 E0.06452 ; perimeter
G1 X118.034 Y134.016 E0.06452 ; perimeter
G1 X116.166 Y134.942 E0.06452 ; perimeter
G1 X114.250 Y135.766 E0.06452 ; perimeter
G1 X112.293 Y136.485 E0.06452 ; perimeter
G1 X110.300 Y137.097 E0.06452 ; perimeter
G1 X108.276 Y137.600 E0.06452 ; perimeter
G1 X106.229 Y137.993 E0.06452 ; perimeter
G1 X104.163 Y138.275 E0.06452 ; perimeter
G1 X102.084 Y138.444 E0.06452 ; perimeter
G1 X100.000 Y138.500 E0.06452 ; perimeter
G1 X97.916 Y138.444 E0.06452 ; perimeter
G1 X95.837 Y138.275 E0.06452 ; perimeter
G1 X93.771 Y137.993 E0.06452 ; perimeter
G1 X91.724 Y137.600 E0.06452 ; perimeter
G1 X89.700 Y137.097 E0.06452 ; perimeter
G1 X87.707 Y136.485 E0.06452 ; perimeter
G1 X85.750 Y135.766 E0.06452 ; perimeter
G1 X83.834 Y134.942 E0.06452 ; perimeter
G1 X81.966 Y134.016 E0.06452 ; perimeter
G1 X80.151 Y132.989 E0.06452 ; perimeter
G1 X78.394 Y131.866 E0.06452 ; perimeter
G1 X76.701 Y130.650 E0.06452 ; perimeter
G1 X75.075 Y129.344 E0.06452 ; perimeter
G1 X73.523 Y127.951 E0.06452 ; perimeter
G1 X72.049 Y126.477 E0.06451 ; perimeter
G1 X70.656 Y124.925 E0.06452 ; perimeter
G1 X69.350 Y123.299 E0.06452 ; perimeter
G1 X68.134 Y121.606 E0.06452 ; perimeter
G1 X67.011 Y119.849 E0.06452 ; perimeter
G1 X65.984 Y118.034 E0.06452 ; perimeter
G1 X65.058 Y116.166 E0.06452 ; perimeter
G1 X64.234 Y114.250 E0.06452 ; perimeter
G1 X63.515 Y112.293 E0.06452 ; perimeter
G1 X62.903 Y110.300 E0.06452 ; perimeter
G1 X62.400 Y108.276 E0.06452 ; perimeter
G1 X62.007 Y106.229 E0.06452 ; perimeter
G1 X61.725 Y104.163 E0.06452 ; perimeter
G1 X61.556 Y102.084 E0.06452 ; perimeter
G1 X61.500 Y100.000 E0.06452 ; perimeter
G1 X61.556 Y97.916 E0.06452 ; perimeter
G1 X61.725 Y95.837 E0.06452 ; perimeter
G1 X62.007 Y93.771 E0.06452 ; perimeter
G1 X62.400 Y91.724 E0.06452 ; perimeter
G1 X62.903 Y89.700 E0.06452 ; perimeter
G1 X63.515 Y87.707 E0.06452 ; perimeter
G1 X64.234 Y85.750 E0.06452 ; perimeter
G1 X65.058 Y83.834 E0.06452 ; perimeter
G1 X65.984 Y81.966 E0.06452 ; perimeter
G1 X67.011 Y80.151 E0.06452 ; perimeter
G1 X68.134 Y78.394 E0.06452 ; perimeter
G1 X69.350 Y76.701 E0.06452 ; perimeter
G1 X70.656 Y75.075 E0.06452 ; perimeter
G1 X72.049 Y73.523 E0.06452 ; perimeter
G1 X73.486 Y72.086 E0.06289 ; perimeter
G1 X73.953 Y72.503 F6000.000 ; move to first perimeter point
G1 X75.480 Y71.133 E0.06347 F540 ; perimeter
G1 X77.079 Y69.848 E0.06347 ; perimeter
G1 X78.745 Y68.651 E0.06347 ; perimeter
G1 X80.473 Y67.546 E0.06347 ; perimeter
G1 X82.259 Y66.537 E0.06347 ; perimeter
G1 X84.097 Y65.625 E0.06347 ; perimeter
G1 X85.981 Y64.815 E0.06347 ; perimeter
G1 X87.906 Y64.107 E0.06347 ; perimeter
G1 X89.867 Y63.505 E0.06347 ; perimeter
G1 X91.858 Y63.010 E0.06347 ; perimeter
G1 X93.872 Y62.624 E0.06347 ; perimeter
G1 X95.905 Y62.347 E0.06347 ; perimeter
G1 X97.949 Y62.180 E0.06347 ; perimeter
G1 X100.000 Y62.125 E0.06347 ; perimeter
G1 X102.051 Y62.180 E0.06347 ; perimeter
G1 X104.095 Y62.347 E0.06347 ; perimeter
G1 X106.128 Y62.624 E0.06347 ; perimeter
G1 X108.142 Y63.010 E0.06347 ; perimeter
G1 X110.133 Y63.505 E0.06347 ; perimeter
G1 X112.094 Y64.107 E0.06347 ; perimeter
G1 X114.019 Y64.815 E0.06347 ; perimeter
G1 X115.903 Y65.625 E0.06347 ; perimeter
G1 X117.741 Y66.537 E0.06347 ; perimeter
G1 X119.527 Y67.546 E0.06347 ; perimeter
G1 X121.255 Y68.651 E0.06347 ; perimeter
G1 X122.921 Y69.848 E0.06347 ; perimeter
G1 X124.520 Y71.133 E0.06347 ; perimeter
G1 X126.047 Y72.503 E0.06347 ; perimeter
G1 X127.497 Y73.953 E0.06347 ; perimeter
G1 X128.867 Y75.480 E0.06347 ; perimeter
G1 X130.152 Y77.079 E0.06347 ; perimeter
G1 X131.349 Y78.745 E0.06347 ; perimeter
G1 X132.454 Y80.473 E0.06347 ; perimeter
G1 X133.463 Y82.259 E0.06347 ; perimeter
G1 X134.375 Y84.097 E0.06347 ; perimeter
G1 X135.185 Y85.981 E0.06347 ; perimeter
G1 X135.893 Y87.906 E0.06347 ; perimeter
G1 X136.495 Y89.867 E0.06347 ; perimeter
G1 X136.990 Y91.858 E0.06347 ; perimeter
G1 X137.376 Y93.872 E0.06347 ; perimeter
G1 X137.653 Y95.905 E0.06347 ; perimeter
G1 X137.820 Y97.949 E0.06347 ; perimeter
G1 X137.875 Y100.000 E0.06347 ; perimeter
G1 X137.820 Y102.051 E0.06347 ; perimeter
G1 X137.653 Y104.095 E0.06347 ; perimeter
G1 X137.376 Y106.128 E0.06347 ; perimeter
G1 X136.990 Y108.142 E0.06347 ; perimeter
G1 X136.495 Y110.133 E0.06347 ; perimeter
G1 X135.893 Y112.094 E0.06347 ; perimeter
G1 X135.185 Y114.019 E0.06347 ; perimeter
G1 X134.375 Y115.903 E0.06347 ; perimeter
G1 X133.463 Y117.741 E0.06347 ; perimeter
G1 X132.454 Y119.527 E0.06347 ; perimeter
G1 X131.349 Y121.255 E0.06347 ; perimeter
G1 X130.152 Y122.921 E0.06347 ; perimeter
G1 X128.867 Y124.520 E0.06347 ; perimeter
G1 X127.497 Y126.047 E0.06347 ; perimeter
G1 X126.047 Y127.497 E0.06347 ; perimeter
G1 X124.520 Y128.867 E0.06347 ; perimeter
G1 X122.921 Y130.152 E0.06347 ; perimeter
G1 X121.255 Y131.349 E0.06347 ; perimeter
G1 X119.527 Y132.454 E0.06347 ; perimeter
G1 X117.741 Y133.463 E0.06347 ; perimeter
G1 X115.903 Y134.375 E0.06347 ; perimeter
G1 X114.019 Y135.185 E0.06347 ; perimeter
G1 X112.094 Y135.893 E0.06347 ; perimeter
G1 X110.133 Y136.495 E0.06347 ; perimeter
G1 X108.142 Y136.990 E0.06347 ; perimeter
G1 X106.128 Y137.376 E0.06347 ; perimeter
G1 X104.095 Y137.653 E0.06347 ; perimeter
G1 X102.051 Y137.820 E0.06347 ; perimeter
G1 X100.000 Y137.875 E0.06347 ; perimeter
G1 X97.949 Y137.820 E0.06347 ; perimeter
G1 X95.905 Y137.653 E0.06347 ; perimeter
G1 X93.872 Y137.376 E0.06347 ; perimeter
G1 X91.858 Y136.990 E0.06347 ; perimeter
G1 X89.867 Y136.495 E0.06347 ; perimeter
G1 X87.906 Y135.893 E0.06347 ; perimeter
G1 X85.981 Y135.185 E0.06347 ; perimeter
G1 X84.097 Y134.375 E0.06347 ; perimeter
G1 X82.259 Y133.463 E0.06347 ; perimeter
G1 X80.473 Y132.454 E0.06347 ; perimeter
G1 X78.745 Y131.349 E0.06347 ; perimeter
G1 X77.079 Y130.152 E0.06347 ; perimeter
G1 X75.480 Y128.867 E0.06347 ; perimeter
G1 X73.953 Y127.497 E0.06347 ; perimeter
G1 X72.503 Y126.047 E0.06347 ; perimeter
G1 X71.133 Y124.520 E0.06347 ; perimeter
G1 X69.848 Y122.921 E0.06347 ; perimeter
G1 X68.651 Y121.255 E0.06347 ; perimeter
G1 X67.546 Y119.527 E0.06347 ; perimeter
G1 X66.537 Y117.741 E0.06347 ; perimeter
G1 X65.625 Y115.903 E0.06347 ; perimeter
G1 X64.815 Y114.019 E0.06347 ; perimeter
G1 X64.107 Y112.094 E0.06347 ; perimeter
G1 X63.505 Y110.133 E0.06347 ; perimeter
G1 X63.010 Y108.142 E0.06347 ; perimeter
G1 X62.624 Y106.128 E0.06347 ; perimeter
G1 X62.347 Y104.095 E0.06347 ; perimeter
G1 X62.180 Y102.051 E0.06347 ; perimeter
G1 X62.125 Y100.000 E0.06347 ; perimeter
G1 X62.180 Y97.949 E0.06347 ; perimeter
G1 X62.347 Y95.905 E0.06347 ; perimeter
G1 X62.624 Y93.872 E0.06347 ; perimeter
G1 X63.010 Y91.858 E0.06347 ; perimeter
G1 X63.505 Y89.867 E0.06347 ; perimeter
G1 X64.107 Y87.906 E0.06347 ; perimeter
G1 X64.815 Y85.981 E0.06347 ; perimeter
G1 X65.625 Y84.097 E0.06347 ; perimeter
G1 X66.537 Y82.259 E0.06347 ; perimeter
G1 X67.546 Y80.473 E0.06347 ; perimeter
G1 X68.651 Y78.745 E0.06347 ; perimeter
G1 X69.848 Y77.079 E0.06347 ; perimeter
G1 X71.133 Y75.480 E0.06347 ; perimeter
G1 X72.503 Y73.953 E0.06347 ; perimeter
G1 X73.916 Y72.540 E0.06184 ; perimeter
G1 X74.383 Y72.957 F6000.000 ; move to first perimeter point
G1 X75.885 Y71.609 E0.06242 F378 ; perimeter
G1 X77.457 Y70.345 E0.06242 ; perimeter
G1 X79.096 Y69.169 E0.06242 ; perimeter
G1 X80.796 Y68.082 E0.06242 ; perimeter
G1 X82.552 Y67.089 E0.06242 ; perimeter
G1 X84.359 Y66.193 E0.06242 ; perimeter
G1 X86.212 Y65.396 E0.06242 ; perimeter
G1 X88.106 Y64.700 E0.06242 ; perimeter
G1 X90.035 Y64.108 E0.06242 ; perimeter
G1 X91.992 Y63.621 E0.06242 ; perimeter
