; generated by Slic3r 1.0.1-dev on 2014-02-23 at 13:16:25

; Joe Racette  2014

; perimeters extrusion width = 0.35mm
; infill extrusion width = 0.39mm
; solid infill extrusion width = 0.39mm
; top infill extrusion width = 0.39mm

G21 ; set units to millimeters
M107
M190 S115 ; wait for bed temperature to be reached
M104 S232 ; set temperature
G28 ; home all axes
G1 Z5 F5000 ; lift nozzle
M117 ..... Printing .....
M109 S232 ; wait for temperature to be reached
G90 ; use absolute coordinates
G92 E0
M82 ; use absolute distances for extrusion
G1 F1800.000 E-1.00000
G92 E0
G1 Z0.350 F6000.000
G1 X33.239 Y34.646 F6000.000
G1 E1.00000 F1800.000
G1 X34.926 Y32.975 E1.07348 F540
G1 X36.708 Y31.405 E1.14695
G1 X38.577 Y29.941 E1.22042
G1 X40.529 Y28.588 E1.29389
G1 X42.556 Y27.351 E1.36738
G1 X44.651 Y26.234 E1.44084
G1 X46.808 Y25.240 E1.51432
G1 X49.019 Y24.374 E1.58780
G1 X51.277 Y23.638 E1.66126
G1 X53.573 Y23.034 E1.73474
G1 X55.901 Y22.565 E1.80821
G1 X58.253 Y22.231 E1.88170
G1 X60.619 Y22.036 E1.95516
G1 X62.800 Y21.975 E2.02268
G1 X137.393 Y21.978 E4.33068
G1 X139.766 Y22.058 E4.40414
G1 X142.131 Y22.276 E4.47763
G1 X144.478 Y22.632 E4.55110
G1 X146.802 Y23.123 E4.62457
G1 X149.092 Y23.748 E4.69804
G1 X151.343 Y24.506 E4.77152
G1 X153.546 Y25.393 E4.84500
G1 X155.693 Y26.406 E4.91846
G1 X157.778 Y27.543 E4.99194
G1 X159.793 Y28.800 E5.06542
G1 X161.732 Y30.171 E5.13889
G1 X163.587 Y31.652 E5.21235
G1 X165.354 Y33.239 E5.28584
G1 X167.025 Y34.927 E5.35932
G1 X168.595 Y36.708 E5.43278
G1 X170.059 Y38.577 E5.50625
G1 X171.412 Y40.529 E5.57973
G1 X172.649 Y42.556 E5.65321
G1 X173.766 Y44.651 E5.72668
G1 X174.760 Y46.808 E5.80015
G1 X175.626 Y49.019 E5.87363
G1 X176.362 Y51.277 E5.94710
G1 X176.966 Y53.573 E6.02057
G1 X177.435 Y55.901 E6.09404
G1 X177.768 Y58.252 E6.16753
G1 X177.964 Y60.619 E6.24099
G1 X178.025 Y62.800 E6.30851
G1 X178.022 Y137.393 E8.61651
G1 X177.942 Y139.766 E8.68997
G1 X177.724 Y142.131 E8.76346
G1 X177.368 Y144.478 E8.83693
G1 X176.877 Y146.802 E8.91041
G1 X176.252 Y149.092 E8.98387
G1 X175.494 Y151.343 E9.05736
G1 X174.607 Y153.546 E9.13083
G1 X173.594 Y155.693 E9.20429
G1 X172.457 Y157.778 E9.27778
G1 X171.200 Y159.793 E9.35125
G1 X169.829 Y161.732 E9.42472
G1 X168.348 Y163.587 E9.49819
G1 X166.761 Y165.354 E9.57167
G1 X165.073 Y167.025 E9.64515
G1 X163.292 Y168.595 E9.71862
G1 X161.423 Y170.059 E9.79209
G1 X159.471 Y171.412 E9.86557
G1 X157.444 Y172.649 E9.93905
G1 X155.349 Y173.766 E10.01251
G1 X153.192 Y174.760 E10.08599
G1 X150.981 Y175.626 E10.15947
G1 X148.723 Y176.362 E10.23294
G1 X146.427 Y176.966 E10.30641
G1 X144.099 Y177.435 E10.37988
G1 X141.747 Y177.768 E10.45337
G1 X139.381 Y177.964 E10.52683
G1 X137.200 Y178.025 E10.59435
G1 X62.607 Y178.022 E12.90235
G1 X60.234 Y177.942 E12.97581
G1 X57.869 Y177.724 E13.04930
G1 X55.522 Y177.368 E13.12277
G1 X53.198 Y176.877 E13.19624
G1 X50.908 Y176.252 E13.26971
G1 X48.657 Y175.494 E13.34319
G1 X46.454 Y174.607 E13.41667
G1 X44.307 Y173.594 E13.49013
G1 X42.222 Y172.457 E13.56361
G1 X40.207 Y171.200 E13.63709
G1 X38.268 Y169.829 E13.71056
G1 X36.413 Y168.348 E13.78402
G1 X34.646 Y166.761 E13.85751
G1 X32.975 Y165.073 E13.93099
G1 X31.405 Y163.292 E14.00445
G1 X29.941 Y161.423 E14.07793
G1 X28.588 Y159.471 E14.15140
G1 X27.351 Y157.444 E14.22488
G1 X26.234 Y155.349 E14.29835
G1 X25.240 Y153.192 E14.37182
G1 X24.374 Y150.981 E14.44530
G1 X23.638 Y148.723 E14.51877
G1 X23.034 Y146.427 E14.59224
G1 X22.565 Y144.099 E14.66571
G1 X22.231 Y141.747 E14.73920
G1 X22.036 Y139.381 E14.81266
G1 X21.975 Y137.200 E14.88018
G1 X21.978 Y62.607 E17.18818
G1 X22.058 Y60.234 E17.26165
G1 X22.276 Y57.869 E17.33514
G1 X22.632 Y55.522 E17.40860
G1 X23.123 Y53.198 E17.48208
G1 X23.748 Y50.908 E17.55554
G1 X24.506 Y48.657 E17.62903
G1 X25.393 Y46.454 E17.70250
G1 X26.406 Y44.307 E17.77596
G1 X27.543 Y42.222 E17.84945
G1 X28.800 Y40.207 E17.92292
G1 X30.171 Y38.268 E17.99640
G1 X31.652 Y36.413 E18.06986
G1 X33.204 Y34.685 E18.14172
G1 F1800.000 E17.14172
G92 E0
G1 X56.385 Y141.700 F6000.000
G1 E1.00000 F1800.000
G1 X75.559 Y141.700 E1.59328 F540
G1 X76.272 Y142.541 E1.62740
G1 X93.957 Y127.577 E2.34421
G1 X94.521 Y129.682 E2.41163
G1 X94.904 Y131.539 E2.47030
G1 X95.179 Y133.415 E2.52898
G1 X95.344 Y135.304 E2.58765
G1 X95.400 Y137.200 E2.64632
G1 X95.344 Y139.096 E2.70500
G1 X95.179 Y140.985 E2.76367
G1 X94.904 Y142.861 E2.82234
G1 X94.521 Y144.718 E2.88102
G1 X94.030 Y146.550 E2.93969
G1 X93.434 Y148.350 E2.99837
G1 X92.733 Y150.112 E3.05704
G1 X91.932 Y151.831 E3.11571
G1 X91.032 Y153.500 E3.17439
G1 X90.037 Y155.114 E3.23306
G1 X88.949 Y156.667 E3.29174
G1 X87.773 Y158.155 E3.35041
G1 X86.512 Y159.571 E3.40909
G1 X85.171 Y160.912 E3.46776
G1 X83.755 Y162.173 E3.52643
G1 X82.267 Y163.349 E3.58511
G1 X80.714 Y164.437 E3.64378
G1 X79.100 Y165.432 E3.70245
G1 X77.431 Y166.332 E3.76113
G1 X75.712 Y167.133 E3.81980
G1 X73.950 Y167.834 E3.87847
G1 X72.150 Y168.430 E3.93715
G1 X70.318 Y168.921 E3.99582
G1 X68.461 Y169.304 E4.05450
G1 X66.585 Y169.579 E4.11317
G1 X64.696 Y169.744 E4.17184
G1 X62.800 Y169.800 E4.23052
G1 X60.904 Y169.744 E4.28919
G1 X59.015 Y169.579 E4.34787
G1 X57.139 Y169.304 E4.40654
G1 X55.282 Y168.921 E4.46521
G1 X53.450 Y168.430 E4.52389
G1 X51.650 Y167.834 E4.58256
G1 X49.888 Y167.133 E4.64123
G1 X48.169 Y166.332 E4.69991
G1 X46.500 Y165.432 E4.75858
G1 X44.886 Y164.437 E4.81726
G1 X43.333 Y163.349 E4.87593
G1 X41.845 Y162.173 E4.93461
G1 X40.429 Y160.912 E4.99328
G1 X39.088 Y159.571 E5.05195
G1 X37.827 Y158.155 E5.11063
G1 X36.651 Y156.667 E5.16930
G1 X35.563 Y155.114 E5.22798
G1 X34.568 Y153.500 E5.28665
G1 X34.137 Y152.700 E5.31477
G1 X34.997 Y152.700 E5.34140
G1 X39.680 Y157.563 E5.55028
G1 X54.960 Y142.849 E6.20661
G1 X55.189 Y143.052 E6.21609
G1 X56.350 Y141.739 E6.27032
G1 F1800.000 E5.27032
G92 E0
G1 X94.246 Y126.514 F6000.000
G1 E1.00000 F1800.000
G1 X94.629 Y127.671 E1.03770 F540
G1 X95.129 Y129.538 E1.09750
G1 X95.520 Y131.431 E1.15730
G1 X95.800 Y133.343 E1.21710
G1 X95.968 Y135.268 E1.27690
G1 X96.025 Y137.200 E1.33670
G1 X95.968 Y139.132 E1.39650
G1 X95.800 Y141.057 E1.45630
G1 X95.520 Y142.969 E1.51610
G1 X95.129 Y144.862 E1.57590
G1 X94.629 Y146.729 E1.63570
G1 X94.021 Y148.564 E1.69550
G1 X93.307 Y150.360 E1.75529
G1 X92.491 Y152.111 E1.81509
G1 X91.573 Y153.812 E1.87489
G1 X90.559 Y155.457 E1.93469
G1 X89.450 Y157.040 E1.99449
G1 X88.252 Y158.556 E2.05429
G1 X86.967 Y160.000 E2.11409
G1 X85.600 Y161.367 E2.17389
G1 X84.156 Y162.652 E2.23369
G1 X82.640 Y163.850 E2.29349
G1 X81.057 Y164.959 E2.35329
G1 X79.412 Y165.973 E2.41308
G1 X77.711 Y166.891 E2.47288
G1 X75.960 Y167.707 E2.53268
G1 X74.164 Y168.421 E2.59248
G1 X72.329 Y169.029 E2.65228
G1 X70.462 Y169.529 E2.71208
G1 X68.569 Y169.920 E2.77188
G1 X66.657 Y170.200 E2.83168
G1 X64.732 Y170.368 E2.89148
G1 X62.800 Y170.425 E2.95128
G1 X60.868 Y170.368 E3.01108
G1 X58.943 Y170.200 E3.07087
G1 X57.031 Y169.920 E3.13067
G1 X55.138 Y169.529 E3.19047
G1 X53.271 Y169.029 E3.25027
G1 X51.436 Y168.421 E3.31007
G1 X49.640 Y167.707 E3.36987
G1 X47.889 Y166.891 E3.42967
G1 X46.188 Y165.973 E3.48947
G1 X44.543 Y164.959 E3.54927
G1 X42.960 Y163.850 E3.60907
G1 X41.444 Y162.652 E3.66886
G1 X40.000 Y161.367 E3.72866
G1 X38.633 Y160.000 E3.78846
G1 X37.348 Y158.556 E3.84826
G1 X36.150 Y157.040 E3.90806
G1 X35.041 Y155.457 E3.96786
G1 X34.027 Y153.812 E4.02766
G1 X33.090 Y152.075 E4.08873
G1 X35.263 Y152.075 E4.15598
G1 X39.697 Y156.679 E4.35375
G1 X54.942 Y141.999 E5.00859
G1 X55.135 Y142.170 E5.01658
G1 X56.103 Y141.075 E5.06180
G1 X75.849 Y141.075 E5.67276
G1 X76.345 Y141.661 E5.69651
G1 X94.206 Y126.548 E6.42043
G1 X94.548 Y125.440 F6000.000
G1 X95.228 Y127.492 E6.48731 F378
G1 X95.737 Y129.394 E6.54824
G1 X96.136 Y131.322 E6.60916
G1 X96.421 Y133.270 E6.67008
G1 X96.593 Y135.232 E6.73101
G1 X96.650 Y137.200 E6.79193
G1 X96.593 Y139.168 E6.85286
G1 X96.421 Y141.130 E6.91378
G1 X96.136 Y143.078 E6.97471
G1 X95.737 Y145.006 E7.03563
G1 X95.228 Y146.908 E7.09655
G1 X94.608 Y148.777 E7.15748
G1 X93.881 Y150.607 E7.21840
G1 X93.049 Y152.392 E7.27933
G1 X92.115 Y154.125 E7.34025
G1 X91.081 Y155.801 E7.40117
G1 X89.952 Y157.414 E7.46210
G1 X88.730 Y158.958 E7.52302
G1 X87.422 Y160.429 E7.58395
G1 X86.029 Y161.822 E7.64487
G1 X84.558 Y163.130 E7.70580
G1 X83.014 Y164.352 E7.76672
G1 X81.401 Y165.481 E7.82765
G1 X79.725 Y166.515 E7.88857
G1 X77.992 Y167.449 E7.94949
G1 X76.207 Y168.281 E8.01042
G1 X74.377 Y169.008 E8.07134
G1 X72.508 Y169.628 E8.13227
G1 X70.606 Y170.137 E8.19319
G1 X68.678 Y170.536 E8.25411
G1 X66.730 Y170.821 E8.31504
G1 X64.768 Y170.993 E8.37596
G1 X62.800 Y171.050 E8.43689
G1 X60.832 Y170.993 E8.49781
G1 X58.870 Y170.821 E8.55874
G1 X56.922 Y170.536 E8.61966
G1 X54.994 Y170.137 E8.68058
G1 X53.092 Y169.628 E8.74151
G1 X51.223 Y169.008 E8.80243
G1 X49.393 Y168.281 E8.86336
G1 X47.608 Y167.449 E8.92428
G1 X45.875 Y166.515 E8.98521
G1 X44.199 Y165.481 E9.04613
G1 X42.586 Y164.352 E9.10705
G1 X41.042 Y163.130 E9.16798
G1 X39.571 Y161.822 E9.22890
G1 X38.178 Y160.429 E9.28983
G1 X36.870 Y158.958 E9.35075
G1 X35.648 Y157.414 E9.41168
G1 X34.519 Y155.801 E9.47260
G1 X33.485 Y154.125 E9.53352
G1 X32.551 Y152.392 E9.59445
G1 X32.112 Y151.450 E9.62660
G1 X35.529 Y151.450 E9.73234
G1 X39.713 Y155.795 E9.91899
G1 X54.924 Y141.148 E10.57235
G1 X55.081 Y141.288 E10.57885
G1 X55.822 Y140.450 E10.61345
G1 X76.139 Y140.450 E11.24208
G1 X76.418 Y140.780 E11.25547
G1 X94.508 Y125.474 E11.98867
G1 X94.521 Y125.789 F6000.000
G1 X89.957 Y119.173 F6000.000
G1 X73.970 Y132.700 E12.63665 F540
G1 X65.498 Y132.700 E12.89877
G1 X73.163 Y125.320 E13.22798
G1 X66.920 Y118.837 E13.50643
G1 X54.701 Y130.604 E14.03132
G1 X41.411 Y118.848 E14.58031
G1 X35.448 Y125.589 E14.85877
G1 X48.197 Y136.867 E15.38544
G1 X41.101 Y143.700 E15.69026
G1 X30.869 Y143.700 E16.00685
G1 X30.696 Y142.861 E16.03337
G1 X30.421 Y140.985 E16.09204
G1 X30.256 Y139.096 E16.15072
G1 X30.200 Y137.200 E16.20939
G1 X30.256 Y135.304 E16.26807
G1 X30.421 Y133.415 E16.32674
G1 X30.696 Y131.539 E16.38541
G1 X31.079 Y129.682 E16.44409
G1 X31.570 Y127.850 E16.50276
G1 X32.166 Y126.050 E16.56144
G1 X32.867 Y124.288 E16.62011
G1 X33.668 Y122.569 E16.67878
G1 X34.568 Y120.900 E16.73746
G1 X35.563 Y119.286 E16.79613
G1 X36.651 Y117.733 E16.85480
G1 X37.827 Y116.245 E16.91348
G1 X39.088 Y114.829 E16.97215
G1 X40.429 Y113.488 E17.03083
G1 X41.845 Y112.227 E17.08950
G1 X43.333 Y111.051 E17.14818
G1 X44.886 Y109.963 E17.20685
G1 X46.500 Y108.968 E17.26552
G1 X48.169 Y108.068 E17.32420
G1 X49.888 Y107.267 E17.38287
G1 X51.650 Y106.566 E17.44154
G1 X53.450 Y105.970 E17.50022
G1 X55.282 Y105.479 E17.55889
G1 X57.139 Y105.096 E17.61757
G1 X59.015 Y104.821 E17.67624
G1 X60.904 Y104.656 E17.73491
G1 X62.800 Y104.600 E17.79359
G1 X64.696 Y104.656 E17.85226
G1 X66.585 Y104.821 E17.91094
G1 X68.461 Y105.096 E17.96961
G1 X70.318 Y105.479 E18.02828
G1 X72.150 Y105.970 E18.08696
G1 X73.950 Y106.566 E18.14563
G1 X75.712 Y107.267 E18.20430
G1 X77.431 Y108.068 E18.26298
G1 X79.100 Y108.968 E18.32165
G1 X80.714 Y109.963 E18.38033
G1 X82.267 Y111.051 E18.43900
G1 X83.755 Y112.227 E18.49767
G1 X85.171 Y113.488 E18.55635
G1 X86.512 Y114.829 E18.61502
G1 X87.773 Y116.245 E18.67370
G1 X88.949 Y117.733 E18.73237
G1 X89.927 Y119.130 E18.78513
G1 X91.151 Y119.902 F6000.000
G1 X90.681 Y120.243 E18.80307 F540
G1 X90.255 Y119.739 E18.82349
G1 X74.199 Y133.325 E19.47428
G1 X63.949 Y133.325 E19.79143
G1 X72.279 Y125.303 E20.14925
G1 X66.903 Y119.721 E20.38904
G1 X54.719 Y131.455 E20.91244
G1 X41.465 Y119.730 E21.45995
G1 X36.330 Y125.535 E21.69974
G1 X49.118 Y136.847 E22.22802
G1 X41.353 Y144.325 E22.56158
G1 X31.925 Y144.325 E22.85329
G1 X31.925 Y147.938 E22.96507
G1 X31.400 Y148.023 E22.98154
G1 X30.971 Y146.729 E23.02371
G1 X30.471 Y144.862 E23.08351
G1 X30.080 Y142.969 E23.14330
G1 X29.800 Y141.057 E23.20310
G1 X29.632 Y139.132 E23.26290
G1 X29.575 Y137.200 E23.32270
G1 X29.632 Y135.268 E23.38250
G1 X29.800 Y133.343 E23.44230
G1 X30.080 Y131.431 E23.50210
G1 X30.471 Y129.538 E23.56190
G1 X30.971 Y127.671 E23.62170
G1 X31.579 Y125.836 E23.68150
G1 X32.293 Y124.040 E23.74129
G1 X33.109 Y122.289 E23.80109
G1 X34.027 Y120.588 E23.86089
G1 X35.041 Y118.943 E23.92069
G1 X36.150 Y117.360 E23.98049
G1 X37.348 Y115.844 E24.04029
G1 X38.633 Y114.400 E24.10009
G1 X40.000 Y113.033 E24.15989
G1 X41.444 Y111.748 E24.21969
G1 X42.960 Y110.550 E24.27949
G1 X44.543 Y109.441 E24.33929
G1 X46.188 Y108.427 E24.39909
G1 X47.889 Y107.509 E24.45888
G1 X49.640 Y106.693 E24.51868
G1 X51.436 Y105.979 E24.57848
G1 X53.271 Y105.371 E24.63828
G1 X55.138 Y104.871 E24.69808
G1 X57.031 Y104.480 E24.75788
G1 X58.943 Y104.200 E24.81768
G1 X60.868 Y104.032 E24.87748
G1 X62.800 Y103.975 E24.93728
G1 X64.732 Y104.032 E24.99708
G1 X66.657 Y104.200 E25.05688
G1 X68.569 Y104.480 E25.11667
G1 X70.462 Y104.871 E25.17647
G1 X72.329 Y105.371 E25.23627
G1 X74.164 Y105.979 E25.29607
G1 X75.960 Y106.693 E25.35587
G1 X77.711 Y107.509 E25.41567
G1 X79.412 Y108.427 E25.47547
G1 X81.057 Y109.441 E25.53527
G1 X82.640 Y110.550 E25.59507
G1 X84.156 Y111.748 E25.65487
G1 X85.600 Y113.033 E25.71467
G1 X86.967 Y114.400 E25.77446
G1 X88.252 Y115.844 E25.83426
G1 X89.450 Y117.360 E25.89406
G1 X90.559 Y118.943 E25.95386
G1 X91.123 Y119.858 E25.98712
G1 X92.115 Y120.275 F6000.000
G1 X93.049 Y122.008 E26.04805 F378
G1 X93.881 Y123.793 E26.10897
G1 X94.172 Y124.524 E26.13332
G1 X93.717 Y124.797 E26.14975
G1 X90.182 Y120.620 E26.31908
G1 X74.428 Y133.950 E26.95762
G1 X62.399 Y133.950 E27.32981
G1 X71.395 Y125.287 E27.71625
G1 X66.887 Y120.605 E27.91737
G1 X54.737 Y132.305 E28.43928
G1 X41.519 Y120.612 E28.98530
G1 X37.212 Y125.481 E29.18642
G1 X50.039 Y136.828 E29.71631
G1 X41.605 Y144.950 E30.07861
G1 X32.550 Y144.950 E30.35879
G1 X32.550 Y151.232 E30.55315
G1 X32.060 Y151.340 E30.56867
G1 X31.719 Y150.607 E30.59370
G1 X30.992 Y148.777 E30.65462
G1 X30.372 Y146.908 E30.71554
G1 X29.863 Y145.006 E30.77647
G1 X29.464 Y143.078 E30.83739
G1 X29.179 Y141.130 E30.89832
G1 X29.007 Y139.168 E30.95924
G1 X28.950 Y137.200 E31.02017
G1 X29.007 Y135.232 E31.08109
G1 X29.179 Y133.270 E31.14201
G1 X29.464 Y131.322 E31.20294
G1 X29.863 Y129.394 E31.26386
G1 X30.372 Y127.492 E31.32479
G1 X30.992 Y125.623 E31.38571
G1 X31.719 Y123.793 E31.44663
G1 X32.551 Y122.008 E31.50756
G1 X33.485 Y120.275 E31.56848
G1 X34.519 Y118.599 E31.62941
G1 X35.648 Y116.986 E31.69033
G1 X36.870 Y115.442 E31.75126
G1 X38.178 Y113.971 E31.81218
G1 X39.571 Y112.578 E31.87311
G1 X41.042 Y111.270 E31.93403
G1 X42.586 Y110.048 E31.99495
G1 X44.199 Y108.919 E32.05588
G1 X45.875 Y107.885 E32.11680
G1 X47.608 Y106.951 E32.17773
G1 X49.393 Y106.119 E32.23865
G1 X51.223 Y105.392 E32.29958
G1 X53.092 Y104.772 E32.36050
G1 X54.994 Y104.263 E32.42142
G1 X56.922 Y103.864 E32.48235
G1 X58.870 Y103.579 E32.54327
G1 X60.832 Y103.407 E32.60420
G1 X62.800 Y103.350 E32.66512
G1 X64.768 Y103.407 E32.72605
G1 X66.730 Y103.579 E32.78697
G1 X68.678 Y103.864 E32.84789
G1 X70.606 Y104.263 E32.90882
G1 X72.508 Y104.772 E32.96974
G1 X74.377 Y105.392 E33.03067
G1 X76.207 Y106.119 E33.09159
G1 X77.992 Y106.951 E33.15251
G1 X79.725 Y107.885 E33.21344
G1 X81.401 Y108.919 E33.27436
G1 X83.014 Y110.048 E33.33529
G1 X84.558 Y111.270 E33.39621
G1 X86.029 Y112.578 E33.45714
G1 X87.422 Y113.971 E33.51806
G1 X88.730 Y115.442 E33.57899
G1 X89.952 Y116.986 E33.63991
G1 X91.081 Y118.599 E33.70083
G1 X92.087 Y120.230 E33.76013
G1 X91.937 Y120.576 F6000.000
G1 F1800.000 E32.76013
G92 E0
G1 X93.690 Y128.370 F6000.000
G1 E1.00000 F1800.000
G1 X93.732 Y128.413 E1.00119 F1080
G1 X94.057 Y129.625 E1.02599
G1 X93.209 Y128.777 E1.04969
G1 X92.729 Y129.183 E1.06213
G1 X94.300 Y130.755 E1.10605
G1 X94.513 Y131.855 E1.12820
G1 X92.248 Y129.590 E1.19150
G1 X91.768 Y129.997 E1.20395
G1 X94.665 Y132.894 E1.28494
G1 X94.787 Y133.903 E1.30503
G1 X91.287 Y130.403 E1.40287
G1 X90.807 Y130.810 E1.41532
G1 X94.872 Y134.875 E1.52897
G1 X94.926 Y135.816 E1.54760
G1 X90.326 Y131.216 E1.67619
G1 X89.846 Y131.623 E1.68863
G1 X94.953 Y136.730 E1.83140
G1 X94.954 Y137.619 E1.84896
G1 X89.365 Y132.030 E2.00520
