; generated by Slic3r 1.0.1-dev on 2014-02-25 at 22:05:12

; Joe Racette  2014

; perimeters extrusion width = 0.35mm
; infill extrusion width = 0.39mm
; solid infill extrusion width = 0.39mm
; top infill extrusion width = 0.39mm

G21 ; set units to millimeters
M107
M190 S115 ; wait for bed temperature to be reached
M104 S232 ; set temperature
G28 ; home all axes
G1 Z5 F5000 ; lift nozzle
M117 ..... Printing .....
M109 S232 ; wait for temperature to be reached
G90 ; use absolute coordinates
G92 E0
M82 ; use absolute distances for extrusion
G1 F1800.000 E-1.00000
G92 E0
G1 Z0.350 F6000.000
G1 X20.920 Y20.802 F6000.000
G1 E1.00000 F1800.000
G1 X22.484 Y19.314 E1.06679 F540
G1 X24.115 Y17.900 E1.13357
G1 X25.809 Y16.563 E1.20035
G1 X27.564 Y15.306 E1.26714
G1 X29.374 Y14.130 E1.33393
G1 X31.237 Y13.040 E1.40071
G1 X33.148 Y12.037 E1.46750
G1 X35.104 Y11.123 E1.53428
G1 X37.100 Y10.301 E1.60107
G1 X39.131 Y9.572 E1.66785
G1 X41.194 Y8.937 E1.73464
G1 X43.284 Y8.398 E1.80143
G1 X45.397 Y7.956 E1.86821
G1 X47.528 Y7.613 E1.93500
G1 X49.672 Y7.368 E2.00178
G1 X51.826 Y7.222 E2.06857
G1 X53.900 Y7.175 E2.13276
G1 X146.184 Y7.176 E4.98814
G1 X148.342 Y7.230 E5.05493
G1 X150.494 Y7.383 E5.12171
G1 X152.638 Y7.636 E5.18850
G1 X154.768 Y7.987 E5.25528
G1 X156.879 Y8.436 E5.32207
G1 X158.967 Y8.983 E5.38886
G1 X161.028 Y9.625 E5.45564
G1 X163.057 Y10.361 E5.52243
G1 X165.049 Y11.191 E5.58921
G1 X167.002 Y12.112 E5.65599
G1 X168.909 Y13.122 E5.72278
G1 X170.768 Y14.219 E5.78957
G1 X172.575 Y15.400 E5.85635
G1 X174.324 Y16.664 E5.92314
G1 X176.014 Y18.007 E5.98992
G1 X177.640 Y19.427 E6.05671
G1 X179.198 Y20.920 E6.12349
G1 X180.686 Y22.484 E6.19028
G1 X182.100 Y24.115 E6.25707
G1 X183.437 Y25.809 E6.32385
G1 X184.694 Y27.564 E6.39063
G1 X185.870 Y29.374 E6.45742
G1 X186.960 Y31.237 E6.52421
G1 X187.963 Y33.148 E6.59099
G1 X188.877 Y35.104 E6.65777
G1 X189.699 Y37.100 E6.72457
G1 X190.428 Y39.131 E6.79134
G1 X191.063 Y41.194 E6.85813
G1 X191.602 Y43.284 E6.92492
G1 X192.044 Y45.397 E6.99170
G1 X192.387 Y47.528 E7.05849
G1 X192.632 Y49.672 E7.12527
G1 X192.778 Y51.826 E7.19206
G1 X192.825 Y53.900 E7.25625
G1 X192.824 Y146.184 E10.11164
G1 X192.770 Y148.342 E10.17842
G1 X192.617 Y150.494 E10.24520
G1 X192.364 Y152.638 E10.31199
G1 X192.013 Y154.768 E10.37877
G1 X191.564 Y156.879 E10.44556
G1 X191.017 Y158.967 E10.51235
G1 X190.375 Y161.028 E10.57913
G1 X189.639 Y163.057 E10.64592
G1 X188.809 Y165.049 E10.71270
G1 X187.888 Y167.002 E10.77949
G1 X186.878 Y168.909 E10.84627
G1 X185.781 Y170.768 E10.91306
G1 X184.600 Y172.575 E10.97985
G1 X183.336 Y174.324 E11.04663
G1 X181.993 Y176.014 E11.11341
G1 X180.573 Y177.640 E11.18020
G1 X179.080 Y179.198 E11.24698
G1 X177.516 Y180.686 E11.31377
G1 X175.885 Y182.100 E11.38056
G1 X174.191 Y183.437 E11.44734
G1 X172.436 Y184.694 E11.51413
G1 X170.626 Y185.870 E11.58091
G1 X168.763 Y186.960 E11.64770
G1 X166.852 Y187.963 E11.71448
G1 X164.896 Y188.877 E11.78126
G1 X162.900 Y189.699 E11.84806
G1 X160.869 Y190.428 E11.91484
G1 X158.806 Y191.063 E11.98162
G1 X156.716 Y191.602 E12.04841
G1 X154.603 Y192.044 E12.11519
G1 X152.472 Y192.387 E12.18198
G1 X150.328 Y192.632 E12.24876
G1 X148.174 Y192.778 E12.31555
G1 X146.100 Y192.825 E12.37975
G1 X53.816 Y192.824 E15.23513
G1 X51.658 Y192.770 E15.30191
G1 X49.506 Y192.617 E15.36869
G1 X47.362 Y192.364 E15.43549
G1 X45.232 Y192.013 E15.50226
G1 X43.121 Y191.564 E15.56905
G1 X41.033 Y191.017 E15.63584
G1 X38.972 Y190.375 E15.70262
G1 X36.943 Y189.639 E15.76941
G1 X34.951 Y188.809 E15.83620
G1 X32.998 Y187.888 E15.90298
G1 X31.091 Y186.878 E15.96977
G1 X29.232 Y185.781 E16.03655
G1 X27.425 Y184.600 E16.10334
G1 X25.676 Y183.336 E16.17012
G1 X23.986 Y181.993 E16.23691
G1 X22.360 Y180.573 E16.30369
G1 X20.802 Y179.080 E16.37048
G1 X19.314 Y177.516 E16.43726
G1 X17.900 Y175.885 E16.50405
G1 X16.563 Y174.191 E16.57083
G1 X15.306 Y172.436 E16.63762
G1 X14.130 Y170.626 E16.70441
G1 X13.040 Y168.763 E16.77119
G1 X12.037 Y166.852 E16.83797
G1 X11.123 Y164.896 E16.90476
G1 X10.301 Y162.900 E16.97155
G1 X9.572 Y160.869 E17.03833
G1 X8.937 Y158.806 E17.10512
G1 X8.398 Y156.716 E17.17190
G1 X7.956 Y154.603 E17.23868
G1 X7.613 Y152.472 E17.30547
G1 X7.368 Y150.328 E17.37226
G1 X7.222 Y148.174 E17.43904
G1 X7.175 Y146.100 E17.50324
G1 X7.176 Y53.816 E20.35862
G1 X7.230 Y51.658 E20.42541
G1 X7.383 Y49.506 E20.49219
G1 X7.636 Y47.362 E20.55898
G1 X7.987 Y45.232 E20.62576
G1 X8.436 Y43.121 E20.69255
G1 X8.983 Y41.033 E20.75933
G1 X9.625 Y38.972 E20.82611
G1 X10.361 Y36.943 E20.89290
G1 X11.191 Y34.951 E20.95969
G1 X12.112 Y32.998 E21.02647
G1 X13.122 Y31.091 E21.09326
G1 X14.219 Y29.232 E21.16004
G1 X15.400 Y27.425 E21.22683
G1 X16.664 Y25.676 E21.29361
G1 X18.007 Y23.986 E21.36040
G1 X19.427 Y22.360 E21.42719
G1 X20.884 Y20.840 E21.49234
G1 F1800.000 E20.49234
G92 E0
G1 X43.433 Y108.401 F6000.000
G1 E1.00000 F1800.000
G1 X45.489 Y107.889 E1.06556 F540
G1 X47.570 Y107.490 E1.13113
G1 X49.670 Y107.204 E1.19669
G1 X51.782 Y107.032 E1.26226
G1 X53.900 Y106.975 E1.32782
G1 X56.018 Y107.032 E1.39339
G1 X58.130 Y107.204 E1.45895
G1 X60.230 Y107.490 E1.52451
G1 X62.311 Y107.889 E1.59008
G1 X64.367 Y108.401 E1.65564
G1 X66.393 Y109.023 E1.72121
G1 X68.382 Y109.753 E1.78677
G1 X70.328 Y110.591 E1.85234
G1 X72.227 Y111.532 E1.91790
G1 X74.071 Y112.575 E1.98346
G1 X75.857 Y113.716 E2.04903
G1 X77.578 Y114.952 E2.11459
G1 X79.229 Y116.280 E2.18016
G1 X80.807 Y117.695 E2.24572
G1 X82.305 Y119.193 E2.31128
G1 X83.720 Y120.771 E2.37685
G1 X85.048 Y122.422 E2.44242
G1 X86.284 Y124.143 E2.50798
G1 X87.425 Y125.929 E2.57354
G1 X88.468 Y127.773 E2.63911
G1 X89.409 Y129.672 E2.70467
G1 X90.247 Y131.618 E2.77023
G1 X90.977 Y133.607 E2.83580
G1 X91.599 Y135.633 E2.90136
G1 X92.111 Y137.689 E2.96693
G1 X92.510 Y139.770 E3.03249
G1 X92.796 Y141.870 E3.09806
G1 X92.968 Y143.982 E3.16362
G1 X93.025 Y146.100 E3.22919
G1 X92.968 Y148.218 E3.29475
G1 X92.796 Y150.330 E3.36031
G1 X92.510 Y152.430 E3.42588
G1 X92.111 Y154.511 E3.49144
G1 X91.599 Y156.567 E3.55701
G1 X90.977 Y158.593 E3.62257
G1 X90.247 Y160.582 E3.68814
G1 X89.409 Y162.528 E3.75370
G1 X88.468 Y164.427 E3.81926
G1 X87.425 Y166.271 E3.88483
G1 X86.284 Y168.057 E3.95039
G1 X85.048 Y169.778 E4.01596
G1 X83.720 Y171.429 E4.08152
G1 X82.305 Y173.007 E4.14709
G1 X80.807 Y174.505 E4.21265
G1 X79.229 Y175.920 E4.27821
G1 X77.578 Y177.248 E4.34378
G1 X75.857 Y178.484 E4.40934
G1 X74.071 Y179.625 E4.47491
G1 X72.227 Y180.668 E4.54047
G1 X70.328 Y181.609 E4.60604
G1 X68.382 Y182.447 E4.67160
G1 X66.393 Y183.177 E4.73716
G1 X64.367 Y183.799 E4.80273
G1 X62.311 Y184.311 E4.86829
G1 X60.230 Y184.710 E4.93386
G1 X58.130 Y184.996 E4.99942
G1 X56.018 Y185.168 E5.06498
G1 X53.900 Y185.225 E5.13055
G1 X51.782 Y185.168 E5.19611
G1 X49.670 Y184.996 E5.26168
G1 X47.570 Y184.710 E5.32724
G1 X45.489 Y184.311 E5.39281
G1 X43.433 Y183.799 E5.45837
G1 X41.407 Y183.177 E5.52393
G1 X39.418 Y182.447 E5.58950
G1 X37.472 Y181.609 E5.65506
G1 X35.573 Y180.668 E5.72063
G1 X33.729 Y179.625 E5.78619
G1 X31.943 Y178.484 E5.85176
G1 X30.222 Y177.248 E5.91732
G1 X28.571 Y175.920 E5.98288
G1 X26.993 Y174.505 E6.04845
G1 X25.495 Y173.007 E6.11401
G1 X24.080 Y171.429 E6.17958
G1 X22.752 Y169.778 E6.24514
G1 X21.516 Y168.057 E6.31071
G1 X20.375 Y166.271 E6.37627
G1 X19.332 Y164.427 E6.44183
G1 X18.391 Y162.528 E6.50740
G1 X17.553 Y160.582 E6.57296
G1 X16.823 Y158.593 E6.63853
G1 X16.201 Y156.567 E6.70409
G1 X15.689 Y154.511 E6.76966
G1 X15.290 Y152.430 E6.83522
G1 X15.004 Y150.330 E6.90078
G1 X14.832 Y148.218 E6.96635
G1 X14.775 Y146.100 E7.03191
G1 X14.832 Y143.982 E7.09748
G1 X15.004 Y141.870 E7.16304
G1 X15.290 Y139.770 E7.22861
G1 X15.689 Y137.689 E7.29417
G1 X16.201 Y135.633 E7.35973
G1 X16.823 Y133.607 E7.42530
G1 X17.553 Y131.618 E7.49086
G1 X18.391 Y129.672 E7.55643
G1 X19.332 Y127.773 E7.62199
G1 X20.375 Y125.929 E7.68756
G1 X21.516 Y124.143 E7.75312
G1 X22.752 Y122.422 E7.81868
G1 X24.080 Y120.771 E7.88425
G1 X25.495 Y119.193 E7.94981
G1 X26.993 Y117.695 E8.01537
G1 X28.571 Y116.280 E8.08094
G1 X30.222 Y114.952 E8.14651
G1 X31.943 Y113.716 E8.21207
G1 X33.729 Y112.575 E8.27763
G1 X35.573 Y111.532 E8.34320
G1 X37.472 Y110.591 E8.40876
G1 X39.418 Y109.753 E8.47433
G1 X41.407 Y109.023 E8.53989
G1 X43.383 Y108.416 E8.60383
G1 X43.600 Y109.003 F6000.000
G1 X45.624 Y108.500 E8.66835 F540
G1 X47.671 Y108.107 E8.73286
G1 X49.737 Y107.825 E8.79738
G1 X51.816 Y107.656 E8.86190
G1 X53.900 Y107.600 E8.92641
G1 X55.984 Y107.656 E8.99093
G1 X58.063 Y107.825 E9.05545
G1 X60.129 Y108.107 E9.11996
G1 X62.176 Y108.500 E9.18448
G1 X64.200 Y109.003 E9.24900
G1 X66.193 Y109.615 E9.31351
G1 X68.150 Y110.334 E9.37803
G1 X70.066 Y111.158 E9.44255
G1 X71.934 Y112.084 E9.50707
G1 X73.749 Y113.111 E9.57158
G1 X75.506 Y114.234 E9.63610
G1 X77.199 Y115.450 E9.70061
G1 X78.825 Y116.756 E9.76513
G1 X80.377 Y118.149 E9.82965
G1 X81.851 Y119.623 E9.89416
G1 X83.244 Y121.175 E9.95868
G1 X84.550 Y122.801 E10.02320
G1 X85.766 Y124.494 E10.08771
G1 X86.889 Y126.251 E10.15223
G1 X87.916 Y128.066 E10.21675
G1 X88.842 Y129.934 E10.28127
G1 X89.666 Y131.850 E10.34578
G1 X90.385 Y133.807 E10.41030
G1 X90.997 Y135.800 E10.47481
G1 X91.500 Y137.824 E10.53933
G1 X91.893 Y139.871 E10.60385
G1 X92.175 Y141.937 E10.66837
G1 X92.344 Y144.016 E10.73288
G1 X92.400 Y146.100 E10.79740
G1 X92.344 Y148.184 E10.86192
G1 X92.175 Y150.263 E10.92643
G1 X91.893 Y152.329 E10.99095
G1 X91.500 Y154.376 E11.05547
G1 X90.997 Y156.400 E11.11998
G1 X90.385 Y158.393 E11.18450
G1 X89.666 Y160.350 E11.24902
G1 X88.842 Y162.266 E11.31353
G1 X87.916 Y164.134 E11.37805
G1 X86.889 Y165.949 E11.44257
G1 X85.766 Y167.706 E11.50708
G1 X84.550 Y169.399 E11.57160
G1 X83.244 Y171.025 E11.63612
G1 X81.851 Y172.577 E11.70063
G1 X80.377 Y174.051 E11.76515
G1 X78.825 Y175.444 E11.82967
G1 X77.199 Y176.750 E11.89418
G1 X75.506 Y177.966 E11.95870
G1 X73.749 Y179.089 E12.02322
G1 X71.934 Y180.116 E12.08773
G1 X70.066 Y181.042 E12.15225
G1 X68.150 Y181.866 E12.21677
G1 X66.193 Y182.585 E12.28128
G1 X64.200 Y183.197 E12.34580
G1 X62.176 Y183.700 E12.41032
G1 X60.129 Y184.093 E12.47483
G1 X58.063 Y184.375 E12.53935
G1 X55.984 Y184.544 E12.60387
G1 X53.900 Y184.600 E12.66838
G1 X51.816 Y184.544 E12.73290
G1 X49.737 Y184.375 E12.79742
G1 X47.671 Y184.093 E12.86193
G1 X45.624 Y183.700 E12.92645
G1 X43.600 Y183.197 E12.99097
G1 X41.607 Y182.585 E13.05548
G1 X39.650 Y181.866 E13.12000
G1 X37.734 Y181.042 E13.18452
G1 X35.866 Y180.116 E13.24904
G1 X34.051 Y179.089 E13.31355
G1 X32.294 Y177.966 E13.37807
G1 X30.601 Y176.750 E13.44258
G1 X28.975 Y175.444 E13.50710
G1 X27.423 Y174.051 E13.57162
G1 X25.949 Y172.577 E13.63613
G1 X24.556 Y171.025 E13.70065
G1 X23.250 Y169.399 E13.76517
G1 X22.034 Y167.706 E13.82968
G1 X20.911 Y165.949 E13.89420
G1 X19.884 Y164.134 E13.95872
G1 X18.958 Y162.266 E14.02324
G1 X18.134 Y160.350 E14.08775
G1 X17.415 Y158.393 E14.15227
G1 X16.803 Y156.400 E14.21678
G1 X16.300 Y154.376 E14.28130
G1 X15.907 Y152.329 E14.34582
G1 X15.625 Y150.263 E14.41034
G1 X15.456 Y148.184 E14.47485
G1 X15.400 Y146.100 E14.53937
G1 X15.456 Y144.016 E14.60389
G1 X15.625 Y141.937 E14.66840
G1 X15.907 Y139.871 E14.73292
G1 X16.300 Y137.824 E14.79744
G1 X16.803 Y135.800 E14.86195
G1 X17.415 Y133.807 E14.92647
G1 X18.134 Y131.850 E14.99099
G1 X18.958 Y129.934 E15.05550
G1 X19.884 Y128.066 E15.12002
G1 X20.911 Y126.251 E15.18454
G1 X22.034 Y124.494 E15.24905
G1 X23.250 Y122.801 E15.31357
G1 X24.556 Y121.175 E15.37809
G1 X25.949 Y119.623 E15.44260
G1 X27.423 Y118.149 E15.50712
G1 X28.975 Y116.756 E15.57164
G1 X30.601 Y115.450 E15.63615
G1 X32.294 Y114.234 E15.70067
G1 X34.051 Y113.111 E15.76519
G1 X35.866 Y112.084 E15.82970
G1 X37.734 Y111.158 E15.89422
G1 X39.650 Y110.334 E15.95874
G1 X41.607 Y109.615 E16.02325
G1 X43.550 Y109.018 E16.08615
G1 X43.767 Y109.605 F6000.000
G1 X45.758 Y109.110 E16.14961 F540
G1 X47.772 Y108.724 E16.21308
G1 X49.805 Y108.447 E16.27655
G1 X51.849 Y108.280 E16.34002
G1 X53.900 Y108.225 E16.40349
G1 X55.951 Y108.280 E16.46696
G1 X57.995 Y108.447 E16.53043
G1 X60.028 Y108.724 E16.59390
G1 X62.042 Y109.110 E16.65737
G1 X64.033 Y109.605 E16.72084
G1 X65.994 Y110.207 E16.78431
G1 X67.919 Y110.915 E16.84778
G1 X69.803 Y111.725 E16.91125
G1 X71.641 Y112.637 E16.97472
G1 X73.427 Y113.646 E17.03818
G1 X75.155 Y114.751 E17.10165
G1 X76.821 Y115.948 E17.16512
G1 X78.420 Y117.233 E17.22859
G1 X79.947 Y118.603 E17.29206
G1 X81.397 Y120.053 E17.35553
G1 X82.767 Y121.580 E17.41900
G1 X84.052 Y123.179 E17.48247
G1 X85.249 Y124.845 E17.54594
G1 X86.354 Y126.573 E17.60941
G1 X87.363 Y128.359 E17.67287
G1 X88.275 Y130.197 E17.73634
G1 X89.085 Y132.081 E17.79981
G1 X89.793 Y134.006 E17.86328
G1 X90.395 Y135.967 E17.92675
G1 X90.890 Y137.958 E17.99022
G1 X91.276 Y139.972 E18.05369
G1 X91.553 Y142.005 E18.11716
G1 X91.720 Y144.049 E18.18063
G1 X91.775 Y146.100 E18.24410
G1 X91.720 Y148.151 E18.30757
G1 X91.553 Y150.195 E18.37104
G1 X91.276 Y152.228 E18.43451
G1 X90.890 Y154.242 E18.49797
G1 X90.395 Y156.233 E18.56144
G1 X89.793 Y158.194 E18.62491
G1 X89.085 Y160.119 E18.68838
G1 X88.275 Y162.003 E18.75185
G1 X87.363 Y163.841 E18.81532
G1 X86.354 Y165.627 E18.87879
G1 X85.249 Y167.355 E18.94226
G1 X84.052 Y169.021 E19.00573
G1 X82.767 Y170.620 E19.06920
G1 X81.397 Y172.147 E19.13267
G1 X79.947 Y173.597 E19.19613
G1 X78.420 Y174.967 E19.25960
G1 X76.821 Y176.252 E19.32307
G1 X75.155 Y177.449 E19.38654
G1 X73.427 Y178.554 E19.45001
G1 X71.641 Y179.563 E19.51348
G1 X69.803 Y180.475 E19.57695
G1 X67.919 Y181.285 E19.64042
G1 X65.994 Y181.993 E19.70389
G1 X64.033 Y182.595 E19.76736
G1 X62.042 Y183.090 E19.83083
G1 X60.028 Y183.476 E19.89430
G1 X57.995 Y183.753 E19.95777
G1 X55.951 Y183.920 E20.02124
G1 X53.900 Y183.975 E20.08470
G1 X51.849 Y183.920 E20.14817
G1 X49.805 Y183.753 E20.21164
G1 X47.772 Y183.476 E20.27511
G1 X45.758 Y183.090 E20.33858
G1 X43.767 Y182.595 E20.40205
G1 X41.806 Y181.993 E20.46552
G1 X39.881 Y181.285 E20.52899
G1 X37.997 Y180.475 E20.59246
G1 X36.159 Y179.563 E20.65593
G1 X34.373 Y178.554 E20.71940
G1 X32.645 Y177.449 E20.78287
G1 X30.979 Y176.252 E20.84633
G1 X29.380 Y174.967 E20.90980
G1 X27.853 Y173.597 E20.97327
G1 X26.403 Y172.147 E21.03674
G1 X25.033 Y170.620 E21.10021
G1 X23.748 Y169.021 E21.16368
G1 X22.551 Y167.355 E21.22715
G1 X21.446 Y165.627 E21.29062
G1 X20.437 Y163.841 E21.35409
G1 X19.525 Y162.003 E21.41756
G1 X18.715 Y160.119 E21.48103
G1 X18.007 Y158.194 E21.54450
G1 X17.405 Y156.233 E21.60796
G1 X16.910 Y154.242 E21.67143
G1 X16.524 Y152.228 E21.73490
G1 X16.247 Y150.195 E21.79837
G1 X16.080 Y148.151 E21.86184
G1 X16.025 Y146.100 E21.92531
G1 X16.080 Y144.049 E21.98878
G1 X16.247 Y142.005 E22.05225
G1 X16.524 Y139.972 E22.11572
G1 X16.910 Y137.958 E22.17919
G1 X17.405 Y135.967 E22.24266
G1 X18.007 Y134.006 E22.30613
G1 X18.715 Y132.081 E22.36960
G1 X19.525 Y130.197 E22.43306
G1 X20.437 Y128.359 E22.49653
G1 X21.446 Y126.573 E22.56000
G1 X22.551 Y124.845 E22.62347
G1 X23.748 Y123.179 E22.68694
G1 X25.033 Y121.580 E22.75041
G1 X26.403 Y120.053 E22.81388
G1 X27.853 Y118.603 E22.87735
G1 X29.380 Y117.233 E22.94082
G1 X30.979 Y115.948 E23.00429
G1 X32.645 Y114.751 E23.06776
G1 X34.373 Y113.646 E23.13123
G1 X36.159 Y112.637 E23.19469
G1 X37.997 Y111.725 E23.25816
G1 X39.881 Y110.915 E23.32163
G1 X41.806 Y110.207 E23.38510
G1 X43.717 Y109.621 E23.44695
G1 X43.935 Y110.208 F6000.000
G1 X45.892 Y109.721 E23.50937 F378
G1 X47.874 Y109.341 E23.57179
G1 X49.873 Y109.068 E23.63421
G1 X51.883 Y108.904 E23.69663
G1 X53.900 Y108.850 E23.75906
G1 X55.917 Y108.904 E23.82148
G1 X57.927 Y109.068 E23.88390
G1 X59.926 Y109.341 E23.94632
G1 X61.908 Y109.721 E24.00874
G1 X63.865 Y110.208 E24.07116
G1 X65.794 Y110.800 E24.13358
G1 X67.688 Y111.496 E24.19601
G1 X69.541 Y112.293 E24.25843
G1 X71.348 Y113.189 E24.32085
G1 X73.104 Y114.182 E24.38327
G1 X74.804 Y115.269 E24.44569
G1 X76.443 Y116.445 E24.50811
G1 X78.015 Y117.709 E24.57054
G1 X79.517 Y119.057 E24.63296
G1 X80.943 Y120.483 E24.69538
G1 X82.291 Y121.985 E24.75780
G1 X83.555 Y123.557 E24.82022
G1 X84.732 Y125.196 E24.88264
G1 X85.818 Y126.896 E24.94507
