; GCode by Repsnapper, Tue, 02/18/2014

; Startcode
; GCode generated by RepSnapper:
;   Model by Joe Racette 2014
; http://reprap.org/wiki/RepSnapper_Manual:Introduction
G21             ; metric is good!
G90             ; absolute positioning
M83            ; Relative E Code
T0                ; select extruder
;  Get the heating started asap
M117 ..... Preheat ......
M104 S200.0     ; set extruder temperature (220 PLA / 230 ABS)
M140 S100.0     ; bed heater temperature (50 PLA / 110 ABS)
; 
G28                        ; go home - because who knows where the extruder is now
G92 E0                  ; set extruder home
;      
;   Set the actual temperatures
;   - set long term temps on "Next Layer" tab
;   - remember to comment Layer 0 temps in "Result" tab after gcode is built
;   - bed takes longer to heat up so start first
;   - start with bed temperature hot (60 PLA / 115 ABS)
;   - after first layer temp can drop (50 PLA / 110 ABS)
M190 S115        ; bed heater temperature 
;
;   - start with extruder temperature hot (225 PLA / 232 ABS)
;   - after first layer temp can drop (220 PLA / 230 ABS)
M109 S232.0     ; set  / wait for extruder  to reach temp
;
M117 ..... Printing .....
; G1 X20 Y20 F500 ; move away from 0.0, to use the same reset for each layer
; End Startcode

G21 ; Millimeters
G90 ; Absolute Pos
M82 ; Absolute E Code

; Layerchange GCode
; Comment this out for Layer 0 !!
; M104 S230.0     ; set extruder temperature (220 PLA / 230 ABS)
; M140 S110.0        ; bed heater temperature (50 PLA / 110 ABS); End Layerchange GCode

; Layer S0 ; Layer at Z=0.3094 No=0, thickn=0.26, 1 skins, 8 polys, 3 shells, 8 fullfill polys, 0 bridge polys, 0 skin fullfill polys, 0 support polys, infill:  normal 0, full 30, support 0, skinfills 0
; Skirt
G1 X24.8356 Y18.7257 Z0.3094 E0.00000 F4800 ;  Z-Change
G1 X18.9212 Y24.7086 E0.13649 F1200
G1 X18.7162 Y24.9416 E0.14153
G1 X18.5394 Y25.1968 E0.14656
G1 X14.3585 Y32.0484 E0.27678
G1 X14.2123 Y32.3222 E0.28182
G1 X14.0984 Y32.6110 E0.28686
G1 X11.6104 Y40.1635 E0.41586
G1 X11.5282 Y40.4632 E0.42091
G1 X11.4766 Y40.7697 E0.42595
G1 X10.7469 Y47.0082 E0.52785
G1 X10.0001 Y137.9112 E2.00271
G1 X10.4449 Y144.2801 E2.10629
G1 X11.7519 Y150.4792 E2.20908
G1 X13.9567 Y156.5749 E2.31425
G1 X18.0791 Y163.9605 E2.45147
G1 X23.4539 Y170.4390 E2.58804
G1 X28.3346 Y174.6916 E2.69307
G1 X35.4898 Y179.1263 E2.82964
G1 X41.4688 Y181.6074 E2.93467
G1 X47.6972 Y183.2179 E3.03904
G1 X56.0640 Y183.9908 E3.17536
G1 X148.2075 Y183.5859 E4.67031
G1 X154.3287 Y182.9733 E4.77012
G1 X154.6360 Y182.9268 E4.77516
G1 X154.9370 Y182.8495 E4.78020
G1 X162.6476 Y180.4508 E4.91121
G1 X162.9382 Y180.3416 E4.91625
G1 X163.2142 Y180.1996 E4.92128
G1 X170.1277 Y176.1219 E5.05150
G1 X170.3855 Y175.9490 E5.05654
G1 X170.6218 Y175.7477 E5.06158
G1 X176.4203 Y170.1979 E5.19180
G1 X176.6318 Y169.9707 E5.19683
G1 X176.8157 Y169.7206 E5.20187
G1 X181.2145 Y162.9487 E5.33288
G1 X181.3684 Y162.6791 E5.33792
G1 X181.4902 Y162.3935 E5.34295
G1 X184.1923 Y154.8873 E5.47239
G1 X184.2805 Y154.5896 E5.47742
G1 X184.3340 Y154.2838 E5.48246
G1 X185.2957 Y146.0036 E5.61770
G1 X184.2039 Y54.0401 E7.10982
G1 X183.7983 Y49.6623 E7.18115
G1 X182.4986 Y43.5116 E7.28314
G1 X180.2939 Y37.4159 E7.38831
G1 X176.1715 Y30.0303 E7.52554
G1 X170.7966 Y23.5518 E7.66211
G1 X165.9159 Y19.2991 E7.76713
G1 X158.7607 Y14.8644 E7.90371
G1 X152.7817 Y12.3834 E8.00873
G1 X146.5534 Y10.7729 E8.11310
G1 X138.1345 Y10.0000 E8.25027
G1 X48.8140 Y10.4826 E9.69942
G1 X42.6704 Y10.9338 E9.79937
G1 X42.3619 Y10.9721 E9.80441
G1 X42.0590 Y11.0415 E9.80945
G1 X34.2887 Y13.2384 E9.94046
G1 X33.9942 Y13.3378 E9.94550
G1 X33.7111 Y13.4661 E9.95054
G1 X28.3682 Y16.2177 E10.04805
G1 X25.0900 Y18.5451 E10.11327
G1 X24.9665 Y18.7456 E10.11709
; Shell
G1 X25.0463 Y18.9633 F4800 ;  Move Only (0.23 mm)
G1 X25.1678 Y19.1609 ;  Move Only (0.23 mm)
G1 X26.9342 Y21.4745 ;  Move Only (2.9 mm)
G1 X25.4379 Y22.7507 E10.14329 F1200
G1 X26.9342 Y21.4745 F4800 ;  Move Only (2 mm)
G1 X25.4379 Y22.7507 E10.16949 F1200
G1 X24.0160 Y24.1126 E10.19572
G1 X22.6763 Y25.5520 E10.22192
G1 X21.4223 Y27.0666 E10.24812
G1 X20.2548 Y28.6540 E10.27437
G1 X19.1826 Y30.3033 E10.30058
G1 X18.2069 Y32.0121 E10.32679
G1 X17.3317 Y33.7741 E10.35300
G1 X17.1754 Y34.1401 E10.35831
G1 X17.2137 Y34.2610 E10.36000
G1 X17.2694 Y34.3324 E10.36120
G1 X17.3208 Y34.3785 E10.36212
G1 X17.3786 Y34.3693 E10.36290
G1 X19.7357 Y31.5838 E10.41152
G1 X19.9479 Y31.4744 E10.41470
G1 X20.1640 Y31.5677 E10.41783
G1 X20.3577 Y31.7014 E10.42097
G1 X35.5052 Y44.5188 E10.68532
G1 X35.7624 Y44.6683 E10.68929
G1 X36.0554 Y44.7203 E10.69325
G1 X48.0817 E10.85347
G1 X48.1760 Y44.6567 E10.85499
G1 X48.2219 Y44.5999 E10.85596
G1 X48.2495 Y44.5530 E10.85669
G1 X48.2390 Y44.5039 E10.85736
G1 X39.8073 Y36.3847 E11.01330
G1 X39.7118 Y36.1659 E11.01648
G1 X39.8188 Y35.9563 E11.01962
G1 X39.9647 Y35.7716 E11.02275
G1 X44.0255 Y31.5548 E11.10074
G1 X44.2443 Y31.4593 E11.10393
G1 X44.4539 Y31.5663 E11.10706
G1 X44.6386 Y31.7122 E11.11020
G1 X56.1730 Y42.8198 E11.32353
G1 X56.4003 Y42.9142 E11.32681
G1 X56.6196 Y42.8097 E11.33005
G1 X56.8158 Y42.6664 E11.33329
G1 X69.3880 Y31.5448 E11.55691
G1 X69.6138 Y31.4671 E11.56009
G1 X69.8142 Y31.5905 E11.56323
G1 X69.9867 Y31.7506 E11.56636
G1 X73.8655 Y36.1352 E11.64435
G1 X73.9432 Y36.3610 E11.64754
G1 X73.8198 Y36.5614 E11.65067
G1 X73.6597 Y36.7338 E11.65381
G1 X61.4856 Y47.5036 E11.87035
G1 X61.3885 Y47.7132 E11.87343
G1 X61.4964 Y47.9133 E11.87646
G1 X61.6430 Y48.0870 E11.87949
G1 X69.3454 Y55.5041 E12.02195
G1 X69.5927 Y55.6644 E12.02587
G1 X69.8821 Y55.7205 E12.02980
G1 X78.3780 E12.14299
G1 X78.5986 Y55.8119 E12.14617
G1 X78.6669 Y56.0371 E12.14930
G1 X78.6900 Y56.2713 E12.15244
G1 Y62.1253 E12.23043
G1 X78.5986 Y62.3459 E12.23361
G1 X78.3734 Y62.4142 E12.23675
G1 X78.1392 Y62.4373 E12.23988
G1 X75.9169 E12.26949
G1 X75.6301 Y62.4962 E12.27339
G1 X75.3994 Y62.6745 E12.27727
G1 X75.1879 Y62.8753 E12.28116
G1 X71.6380 Y66.6035 E12.34974
G1 X71.4201 Y66.6998 E12.35292
G1 X71.2109 Y66.5932 E12.35604
G1 X71.0265 Y66.4478 E12.35917
G1 X56.2798 Y52.2471 E12.63192
G1 X56.1814 Y52.2450 E12.63323
G1 X56.1129 Y52.2701 E12.63420
G1 X56.0647 Y52.2988 E12.63495
G1 X56.0204 Y52.2961 E12.63554
G1 X55.4675 Y51.6710 E12.64666
G1 X55.2333 Y51.4984 E12.65054
G1 X54.9472 Y51.4526 E12.65440
G1 X54.6578 Y51.4373 E12.65826
G1 X34.2768 E12.92978
G1 X34.0647 Y51.4841 E12.93268
G1 X33.9894 Y51.5415 E12.93394
G1 X33.8129 Y51.7093 E12.93718
G1 X33.6231 Y51.7251 E12.93972
G1 X16.3000 Y37.0674 E13.24204
G1 X16.1261 Y37.0284 E13.24441
G1 X16.1016 Y37.0509 E13.24486
G1 X15.9877 Y37.2221 E13.24760
G1 X15.9198 Y37.3568 E13.24961
G1 X15.8915 Y37.4354 E13.25072
G1 X15.3323 Y39.3217 E13.27693
G1 X14.8825 Y41.2376 E13.30315
G1 X14.5443 Y43.1759 E13.32936
G1 X14.2956 Y45.5136 E13.36068
G1 X14.2044 Y47.0941 E13.38177
G1 Y49.0638 E13.40802
G1 X14.3174 Y51.0240 E13.43417
G1 X14.5441 Y52.9819 E13.46043
G1 X14.8825 Y54.9202 E13.48665
G1 X15.3323 Y56.8360 E13.51286
G1 X15.8915 Y58.7225 E13.53908
G1 X16.5587 Y60.5735 E13.56529
G1 X17.3319 Y62.3846 E13.59153
G1 X18.2072 Y64.1464 E13.61774
G1 X19.1819 Y65.8533 E13.64392
G1 X20.2548 Y67.5038 E13.67015
G1 X21.4217 Y69.0906 E13.69639
G1 X22.6770 Y70.6061 E13.72261
G1 X24.0160 Y72.0452 E13.74879
G1 X25.4379 Y73.4071 E13.77503
G1 X26.9353 Y74.6839 E13.80124
G1 X28.5012 Y75.8707 E13.82742
G1 X30.1397 Y76.9700 E13.85371
G1 X31.8310 Y77.9679 E13.87987
G1 X33.5815 Y78.8697 E13.90610
G1 X35.3788 Y79.6677 E13.93230
G1 X37.2221 Y80.3622 E13.95854
G1 X39.1014 Y80.9489 E13.98477
G1 X41.0074 Y81.4254 E14.01095
G1 X42.9411 Y81.7920 E14.03717
G1 X44.8942 Y82.0466 E14.06341
G1 X46.8550 Y82.1882 E14.08960
G1 X48.8230 Y82.2166 E14.11582
G1 X50.7907 Y82.1314 E14.14206
G1 X52.7473 Y81.9334 E14.16826
G1 X54.6906 Y81.6229 E14.19448
G1 X56.6116 Y81.2009 E14.22068
G1 X58.5076 Y80.6683 E14.24692
G1 X60.3661 Y80.0288 E14.27310
G1 X62.1877 Y79.2819 E14.29933
G1 X63.9628 Y78.4316 E14.32555
G1 X65.6852 Y77.4809 E14.35176
G1 X67.3516 Y76.4313 E14.37800
G1 X68.9505 Y75.2907 E14.40417
G1 X70.4866 Y74.0552 E14.43043
G1 X71.9467 Y72.7355 E14.45665
G1 X73.3255 Y71.3368 E14.48282
G1 X74.6258 Y69.8558 E14.50907
G1 X75.8368 Y68.3045 E14.53529
G1 X76.9556 Y66.6877 E14.56149
G1 X77.9799 Y65.0078 E14.58770
G1 X78.9063 Y63.2714 E14.61392
G1 X79.7312 Y61.4837 E14.64015
G1 X80.4518 Y59.6510 E14.66639
G1 X81.0637 Y57.7857 E14.69254
G1 X81.5694 Y55.8798 E14.71881
G1 X81.9635 Y53.9533 E14.74501
G1 X82.2460 Y52.0062 E14.77122
G1 X82.4159 Y50.0456 E14.79744
G1 X82.4730 Y48.0785 E14.82366
G1 X82.4159 Y46.1121 E14.84986
G1 X82.2459 Y44.1508 E14.87609
G1 X81.9635 Y42.2048 E14.90229
G1 X81.5692 Y40.2773 E14.92850
G1 X81.0637 Y38.3720 E14.95476
G1 X80.4515 Y36.5060 E14.98093
G1 X79.7312 Y34.6741 E15.00715
G1 X78.9051 Y32.8843 E15.03341
G1 X77.9808 Y31.1512 E15.05958
G1 X76.9561 Y29.4713 E15.08580
G1 X75.8354 Y27.8514 E15.11204
G1 X74.6257 Y26.3020 E15.13823
G1 X73.3255 Y24.8209 E15.16448
G1 X71.9467 Y23.4221 E15.19065
G1 X70.4859 Y22.1019 E15.21688
G1 X68.9505 Y20.8669 E15.24313
G1 X67.3516 Y19.7265 E15.26930
G1 X65.6852 Y18.6769 E15.29554
G1 X63.9626 Y17.7263 E15.32175
G1 X62.1864 Y16.8753 E15.34799
G1 X60.3676 Y16.1295 E15.37418
G1 X58.5076 Y15.4893 E15.40038
G1 X56.6116 Y14.9569 E15.42662
G1 X54.6906 Y14.5350 E15.45282
G1 X52.7473 Y14.2243 E15.47904
G1 X50.7907 Y14.0262 E15.50524
G1 X48.8230 Y13.9412 E15.53148
G1 X46.8550 Y13.9694 E15.55770
G1 X44.8925 Y14.1114 E15.58392
G1 X42.9428 Y14.3656 E15.61011
G1 X41.0070 Y14.7325 E15.63636
G1 X39.1017 Y15.2086 E15.66252
G1 X37.2216 Y15.7958 E15.68876
G1 X35.3788 Y16.4900 E15.71500
G1 X33.5815 Y17.2882 E15.74120
G1 X31.8310 Y18.1897 E15.76743
G1 X30.1397 Y19.1878 E15.79359
G1 X28.5024 Y20.2862 E15.81986
G1 X26.9342 Y21.4745 E15.84607
G1 X27.1288 Y21.7180 F4800 ;  Move Only (0.31 mm)
G1 X26.9342 Y21.4745 ;  Move Only (0.31 mm)
G1 X27.0032 Y21.7060 ;  Move Only (0.24 mm)
G1 X26.8734 Y21.9058 E15.84925 F1200
G1 X26.7079 Y22.0771 E15.85242
G1 X25.6462 Y22.9827 E15.87101
G1 X24.2382 Y24.3313 E15.89699
G1 X22.9110 Y25.7571 E15.92294
G1 X21.6685 Y27.2578 E15.94890
G1 X20.5103 Y28.8324 E15.97494
G1 X19.4492 Y30.4651 E16.00088
G1 X18.5762 Y31.9940 E16.02433
G1 X18.6045 Y32.1201 E16.02606
G1 X18.6576 Y32.1992 E16.02733
G1 X18.7088 Y32.2514 E16.02830
G1 X18.7687 Y32.2437 E16.02910
G1 X19.6991 Y31.1441 E16.04829
G1 X19.9113 Y31.0347 E16.05148
G1 X20.1274 Y31.1280 E16.05461
G1 X20.3211 Y31.2617 E16.05775
G1 X35.6192 Y44.2068 E16.32473
G1 X35.8764 Y44.3563 E16.32870
G1 X36.1694 Y44.4083 E16.33266
G1 X47.3085 E16.48106
G1 X47.4028 Y44.3447 E16.48258
G1 X47.4487 Y44.2879 E16.48355
G1 X47.4763 Y44.2410 E16.48428
G1 X47.4658 Y44.1919 E16.48494
G1 X39.3662 Y36.3928 E16.63474
G1 X39.2707 Y36.1740 E16.63792
G1 X39.3777 Y35.9644 E16.64106
G1 X39.5236 Y35.7797 E16.64420
G1 X44.0170 Y31.1137 E16.73050
G1 X44.2358 Y31.0182 E16.73368
G1 X44.4454 Y31.1252 E16.73681
G1 X44.6301 Y31.2711 E16.73995
G1 X56.1818 Y42.3956 E16.95361
G1 X56.4091 Y42.4900 E16.95689
G1 X56.6284 Y42.3855 E16.96012
G1 X56.8246 Y42.2422 E16.96336
G1 X69.4149 Y31.1045 E17.18731
G1 X69.6407 Y31.0268 E17.19049
G1 X69.8411 Y31.1502 E17.19362
G1 X70.0135 Y31.3103 E17.19676
G1 X74.3053 Y36.1619 E17.28306
G1 X74.3830 Y36.3877 E17.28624
G1 X74.2596 Y36.5881 E17.28937
G1 X74.0995 Y36.7606 E17.29251
G1 X61.9449 Y47.5132 E17.50871
G1 X61.8478 Y47.7228 E17.51179
G1 X61.9557 Y47.9229 E17.51481
G1 X62.1023 Y48.0966 E17.51784
G1 X69.4706 Y55.1921 E17.65412
G1 X69.7179 Y55.3524 E17.65805
G1 X70.0073 Y55.4085 E17.66198
G1 X78.6896 E17.77765
G1 X78.9102 Y55.4999 E17.78083
G1 X78.9785 Y55.7251 E17.78396
G1 X79.0016 Y55.9593 E17.78710
G1 Y61.6157 E17.86246
G1 X79.0791 Y61.7121 E17.86410
G1 X79.1516 Y61.7570 E17.86524
G1 X79.2116 Y61.7814 E17.86610
G1 X79.2604 Y61.7557 E17.86684
G1 X80.1583 Y59.5444 E17.89863
G1 X80.7638 Y57.6981 E17.92452
G1 X81.2659 Y55.8066 E17.95059
G1 X81.6560 Y53.9002 E17.97652
G1 X81.9360 Y51.9679 E18.00253
G1 X82.1041 Y50.0287 E18.02846
G1 X82.1609 Y48.0779 E18.05446
G1 X82.1041 Y46.1287 E18.08044
G1 X81.9359 Y44.1878 E18.10640
G1 X81.6560 Y42.2579 E18.13238
G1 X81.2652 Y40.3488 E18.15834
G1 X80.7638 Y38.4593 E18.18438
G1 X80.1576 Y36.6113 E18.21029
G1 X79.4439 Y34.7957 E18.23628
G1 X78.6263 Y33.0243 E18.26228
G1 X77.7094 Y31.3048 E18.28824
G1 X76.6946 Y29.6414 E18.31420
G1 X75.5827 Y28.0344 E18.34023
G1 X74.3860 Y26.5017 E18.36614
G1 X73.0968 Y25.0328 E18.39217
G1 X71.7312 Y23.6480 E18.41809
G1 X70.2829 Y22.3389 E18.44409
G1 X68.7609 Y21.1146 E18.47012
G1 X67.1777 Y19.9855 E18.49602
G1 X65.5276 Y18.9459 E18.52201
G1 X63.8198 Y18.0037 E18.54799
G1 X62.0580 Y17.1595 E18.57402
G1 X60.2574 Y16.4212 E18.59995
G1 X58.4151 Y15.7872 E18.62590
G1 X56.5346 Y15.2590 E18.65193
G1 X54.6326 Y14.8414 E18.67787
G1 X52.7066 Y14.5334 E18.70385
G1 X50.7693 Y14.3371 E18.72980
G1 X48.8183 Y14.2531 E18.75581
G1 X46.8685 Y14.2810 E18.78179
G1 X44.9237 Y14.4219 E18.80777
G1 X42.9905 Y14.6739 E18.83374
G1 X41.0733 Y15.0370 E18.85974
G1 X39.1871 Y15.5085 E18.88564
G1 X37.3232 Y16.0906 E18.91166
G1 X35.4980 Y16.7781 E18.93764
G1 X33.7146 Y17.5700 E18.96364
G1 X31.9807 Y18.4631 E18.98962
G1 X30.3073 Y19.4505 E19.01551
G1 X28.6834 Y20.5401 E19.04156
G1 X27.2471 Y21.6284 E19.06557
G1 X27.1909 Y21.7258 E19.06707
G1 X27.2003 Y21.7592 F4800 ;  Move Only (0.035 mm)
G1 X27.2512 Y21.8586 ;  Move Only (0.11 mm)
G1 X27.2952 Y21.9267 ;  Move Only (0.081 mm)
G1 X27.2890 Y21.9908 E19.06750 F1440
G1 X25.8554 Y23.2139 E19.09260 F1200
G1 X24.4597 Y24.5508 E19.11835
G1 X23.1446 Y25.9632 E19.14406
G1 X21.9154 Y27.4478 E19.16974
G1 X20.7660 Y29.0108 E19.19559
G1 X20.0057 Y30.1807 E19.21417
G1 X19.9523 Y30.4251 E19.21751
G1 X20.0914 Y30.6295 E19.22080
G1 X20.2649 Y30.8055 E19.22409
G1 X35.7333 Y43.8947 E19.49405
G1 X35.9905 Y44.0442 E19.49802
G1 X36.2835 Y44.0962 E19.50198
G1 X46.5354 E19.63856
G1 X46.6297 Y44.0326 E19.64008
G1 X46.6756 Y43.9758 E19.64105
G1 X46.7032 Y43.9289 E19.64178
G1 X46.6927 Y43.8798 E19.64244
G1 X38.9253 Y36.4009 E19.78610
G1 X38.8297 Y36.1821 E19.78928
G1 X38.9367 Y35.9725 E19.79241
G1 X39.0826 Y35.7878 E19.79555
G1 X44.0084 Y30.6725 E19.89016
G1 X44.2272 Y30.5770 E19.89334
G1 X44.4368 Y30.6840 E19.89647
G1 X44.6215 Y30.8299 E19.89961
G1 X56.1906 Y41.9713 E20.11359
G1 X56.4179 Y42.0657 E20.11687
G1 X56.6372 Y41.9612 E20.12011
G1 X56.8334 Y41.8179 E20.12334
G1 X69.4417 Y30.6642 E20.34761
G1 X69.6675 Y30.5865 E20.35079
G1 X69.8679 Y30.7099 E20.35393
G1 X70.0403 Y30.8700 E20.35706
G1 X74.7453 Y36.1887 E20.45167
G1 X74.8230 Y36.4145 E20.45485
G1 X74.6996 Y36.6149 E20.45799
G1 X74.5395 Y36.7874 E20.46112
G1 X62.4045 Y47.5229 E20.67698
G1 X62.3074 Y47.7325 E20.68005
G1 X62.4153 Y47.9326 E20.68308
G1 X62.5619 Y48.1063 E20.68611
G1 X69.5959 Y54.8802 E20.81621
G1 X69.8432 Y55.0405 E20.82014
G1 X70.1326 Y55.0966 E20.82406
G1 X79.0013 E20.94222
G1 X79.2219 Y55.1880 E20.94540
G1 X79.2902 Y55.4132 E20.94853
G1 X79.3133 Y55.6474 E20.95167
G1 Y60.0036 E21.00971
G1 X79.3926 Y60.0998 E21.01137
G1 X79.4674 Y60.1443 E21.01253
G1 X79.5292 Y60.1679 E21.01341
G1 X79.5793 Y60.1407 E21.01417
G1 X79.8653 Y59.4360 E21.02430
G1 X80.4642 Y57.6104 E21.04990
G1 X80.9624 Y55.7338 E21.07576
G1 X81.3486 Y53.8463 E21.10143
G1 X81.6261 Y51.9298 E21.12723
G1 X81.7924 Y50.0117 E21.15288
G1 X81.8488 Y48.0774 E21.17866
G1 X81.7924 Y46.1454 E21.20441
G1 X81.6260 Y44.2248 E21.23009
G1 X81.3486 Y42.3112 E21.25585
G1 X80.9613 Y40.4201 E21.28157
G1 X80.4642 Y38.5465 E21.30740
G1 X79.8638 Y36.7166 E21.33305
G1 X79.1571 Y34.9188 E21.35879
G1 X78.3468 Y33.1630 E21.38455
G1 X77.4384 Y31.4592 E21.41028
G1 X76.4321 Y29.8099 E21.43602
G1 X75.3311 Y28.2191 E21.46179
G1 X74.1449 Y26.6996 E21.48747
G1 X72.8696 Y25.2465 E21.51323
G1 X71.5150 Y23.8730 E21.53893
G1 X70.0797 Y22.5758 E21.56470
G1 X68.5713 Y21.3620 E21.59050
G1 X67.0048 Y20.2450 E21.61613
G1 X65.3693 Y19.2148 E21.64188
G1 X63.6771 Y18.2811 E21.66763
G1 X61.9293 Y17.4436 E21.69345
G1 X60.1478 Y16.7130 E21.71910
G1 X58.3229 Y16.0851 E21.74481
G1 X56.4573 Y15.5611 E21.77063
G1 X54.5746 Y15.1478 E21.79631
G1 X52.6659 Y14.8426 E21.82206
G1 X50.7478 Y14.6480 E21.84775
G1 X48.8136 Y14.5650 E21.87354
G1 X46.8819 Y14.5926 E21.89928
G1 X44.9546 Y14.7322 E21.92502
G1 X43.0395 Y14.9818 E21.95075
G1 X41.1388 Y15.3416 E21.97652
G1 X39.2719 Y15.8085 E22.00216
G1 X37.4249 Y16.3854 E22.02794
G1 X35.6172 Y17.0662 E22.05368
G1 X33.8477 Y17.8519 E22.07947
G1 X32.1302 Y18.7365 E22.10521
G1 X30.4748 Y19.7133 E22.13081
G1 X28.8642 Y20.7941 E22.15666
G1 X27.5597 Y21.7824 E21.30594 F540 ; AbsE -0.8725 (-4.80/-0.12 mm/s) 
G1 X27.3381 Y21.8419 E21.18152 ; AbsE -0.1275 (-5.00/-0.12 mm/s) 
G1 X27.2736 Y21.8057 F4800 ;  Move Only (0.074 mm)
G1 X27.0409 Y21.6082 ;  Move Only (0.31 mm)
G1 X27.0705 Y21.3712 ;  Move Only (0.24 mm)
G1 X28.5024 Y20.2862 ;  Move Only (1.8 mm)
G1 X30.1397 Y19.1878 ;  Move Only (2 mm)
G1 X31.8310 Y18.1897 ;  Move Only (2 mm)
G1 X33.5815 Y17.2882 ;  Move Only (2 mm)
G1 X35.3788 Y16.4900 ;  Move Only (2 mm)
G1 X37.2216 Y15.7958 ;  Move Only (2 mm)
G1 X39.1017 Y15.2086 ;  Move Only (2 mm)
G1 X41.0070 Y14.7325 ;  Move Only (2 mm)
G1 X42.9428 Y14.3656 ;  Move Only (2 mm)
G1 X44.8925 Y14.1114 ;  Move Only (2 mm)
G1 X46.8550 Y13.9694 ;  Move Only (2 mm)
G1 X48.8230 Y13.9412 ;  Move Only (2 mm)
G1 X50.7907 Y14.0262 ;  Move Only (2 mm)
G1 X52.7473 Y14.2243 ;  Move Only (2 mm)
G1 X54.6906 Y14.5350 ;  Move Only (2 mm)
G1 X56.6116 Y14.9569 ;  Move Only (2 mm)
G1 X58.5076 Y15.4893 ;  Move Only (2 mm)
G1 X60.3676 Y16.1295 ;  Move Only (2 mm)
G1 X62.1864 Y16.8753 ;  Move Only (2 mm)
G1 X63.9626 Y17.7263 ;  Move Only (2 mm)
G1 X65.6852 Y18.6769 ;  Move Only (2 mm)
G1 X67.3516 Y19.7265 ;  Move Only (2 mm)
G1 X68.9505 Y20.8669 ;  Move Only (2 mm)
G1 X70.4859 Y22.1019 ;  Move Only (2 mm)
G1 X71.9467 Y23.4221 ;  Move Only (2 mm)
G1 X73.3255 Y24.8209 ;  Move Only (2 mm)
G1 X74.6257 Y26.3020 ;  Move Only (2 mm)
G1 X75.8354 Y27.8514 ;  Move Only (2 mm)
G1 X76.9561 Y29.4713 ;  Move Only (2 mm)
G1 X77.9808 Y31.1512 ;  Move Only (2 mm)
G1 X78.9051 Y32.8843 ;  Move Only (2 mm)
G1 X79.7312 Y34.6741 ;  Move Only (2 mm)
G1 X80.4515 Y36.5060 ;  Move Only (2 mm)
G1 X81.0637 Y38.3720 ;  Move Only (2 mm)
G1 X81.5692 Y40.2773 ;  Move Only (2 mm)
G1 X81.9635 Y42.2048 ;  Move Only (2 mm)
G1 X82.2459 Y44.1508 ;  Move Only (2 mm)
G1 X82.4159 Y46.1121 ;  Move Only (2 mm)
G1 X82.4730 Y48.0785 ;  Move Only (2 mm)
G1 X82.4159 Y50.0456 ;  Move Only (2 mm)
G1 X82.2460 Y52.0062 ;  Move Only (2 mm)
G1 X81.9635 Y53.9533 ;  Move Only (2 mm)
G1 X81.5694 Y55.8798 ;  Move Only (2 mm)
G1 X81.0637 Y57.7857 ;  Move Only (2 mm)
G1 X80.4518 Y59.6510 ;  Move Only (2 mm)
G1 X79.7312 Y61.4837 ;  Move Only (2 mm)
G1 X78.9063 Y63.2714 ;  Move Only (2 mm)
G1 X77.9799 Y65.0078 ;  Move Only (2 mm)
G1 X76.9556 Y66.6877 ;  Move Only (2 mm)
G1 X75.8368 Y68.3045 ;  Move Only (2 mm)
G1 X74.6258 Y69.8558 ;  Move Only (2 mm)
G1 X73.3255 Y71.3368 ;  Move Only (2 mm)
G1 X71.9467 Y72.7355 ;  Move Only (2 mm)
G1 X70.4866 Y74.0552 ;  Move Only (2 mm)
G1 X68.9505 Y75.2907 ;  Move Only (2 mm)
G1 X67.3516 Y76.4313 ;  Move Only (2 mm)
G1 X65.6852 Y77.4809 ;  Move Only (2 mm)
G1 X63.9628 Y78.4316 ;  Move Only (2 mm)
G1 X62.1877 Y79.2819 ;  Move Only (2 mm)
G1 X60.3661 Y80.0288 ;  Move Only (2 mm)
G1 X58.5076 Y80.6683 ;  Move Only (2 mm)
G1 X56.6116 Y81.2009 ;  Move Only (2 mm)
G1 X54.6906 Y81.6229 ;  Move Only (2 mm)
G1 X52.7473 Y81.9334 ;  Move Only (2 mm)
G1 X50.7907 Y82.1314 ;  Move Only (2 mm)
G1 X48.8230 Y82.2166 ;  Move Only (2 mm)
G1 X46.8550 Y82.1882 ;  Move Only (2 mm)
G1 X44.8942 Y82.0466 ;  Move Only (2 mm)
G1 X42.9411 Y81.7920 ;  Move Only (2 mm)
G1 X41.0074 Y81.4254 ;  Move Only (2 mm)
G1 X39.1014 Y80.9489 ;  Move Only (2 mm)
G1 X37.2221 Y80.3622 ;  Move Only (2 mm)
G1 X35.3788 Y79.6677 ;  Move Only (2 mm)
G1 X33.5815 Y78.8697 ;  Move Only (2 mm)
G1 X31.8310 Y77.9679 ;  Move Only (2 mm)
G1 X30.1397 Y76.9700 ;  Move Only (2 mm)
G1 X28.5012 Y75.8707 ;  Move Only (2 mm)
G1 X26.9353 Y74.6839 ;  Move Only (2 mm)
G1 X25.4379 Y73.4071 ;  Move Only (2 mm)
G1 X24.0160 Y72.0452 ;  Move Only (2 mm)
G1 X22.6770 Y70.6061 ;  Move Only (2 mm)
G1 X21.4217 Y69.0906 ;  Move Only (2 mm)
G1 X20.2548 Y67.5038 ;  Move Only (2 mm)
G1 X19.1819 Y65.8533 ;  Move Only (2 mm)
G1 X18.2072 Y64.1464 ;  Move Only (2 mm)
G1 X17.3319 Y62.3846 ;  Move Only (2 mm)
G1 X16.5587 Y60.5735 ;  Move Only (2 mm)
G1 X15.8915 Y58.7225 ;  Move Only (2 mm)
G1 X15.3323 Y56.8360 ;  Move Only (2 mm)
G1 X14.8825 Y54.9202 ;  Move Only (2 mm)
G1 X14.5441 Y52.9819 ;  Move Only (2 mm)
G1 X14.3174 Y51.0240 ;  Move Only (2 mm)
G1 X14.2044 Y49.0638 ;  Move Only (2 mm)
G1 Y47.0941 ;  Move Only (2 mm)
G1 X14.2956 Y45.5136 ;  Move Only (1.6 mm)
G1 X14.5443 Y43.1759 ;  Move Only (2.4 mm)
G1 X14.8825 Y41.2376 ;  Move Only (2 mm)
G1 X15.3323 Y39.3217 ;  Move Only (2 mm)
G1 X15.8464 Y37.5874 ;  Move Only (1.8 mm)
G1 X15.9849 Y37.4760 ;  Move Only (0.18 mm)
G1 X16.0920 Y37.4339 ;  Move Only (0.12 mm)
G1 X16.1759 Y37.4148 ;  Move Only (0.086 mm)
G1 X16.2100 Y37.4573 E21.19322 F1440 ; AbsE 0.0113 (5.00/-0.16 mm/s) 
G1 X15.7044 Y39.1635 E22.20559 F540 ; AbsE 0.9887 (5.00/-0.12 mm/s) 
G1 X15.6336 Y39.4023 E22.20891 F1200
G1 X15.1883 Y41.2990 E22.23486
G1 X14.8530 Y43.2215 E22.26086
G1 X14.6065 Y45.5375 E22.29189
G1 X14.5162 Y47.1029 E22.31278
G1 Y49.0548 E22.33878
G1 X14.6280 Y50.9959 E22.36469
G1 X14.8524 Y52.9357 E22.39070
G1 X15.1883 Y54.8584 E22.41671
G1 X15.6337 Y56.7553 E22.44267
G1 X16.1871 Y58.6236 E22.46862
G1 X16.8492 Y60.4603 E22.49464
G1 X17.6147 Y62.2532 E22.52061
G1 X18.4818 Y63.9988 E22.54658
G1 X19.4483 Y65.6912 E22.57254
G1 X20.5103 Y67.3249 E22.59850
G1 X21.6676 Y68.8986 E22.62452
G1 X22.9121 Y70.4010 E22.65052
G1 X24.2374 Y71.8254 E22.67644
G1 X25.6479 Y73.1765 E22.70246
G1 X27.1288 Y74.4393 E22.72839
G1 X28.6822 Y75.6163 E22.75435
G1 X30.3073 Y76.7069 E22.78042
G1 X31.9807 Y77.6943 E22.80631
G1 X33.7146 Y78.5876 E22.83230
G1 X35.4974 Y79.3791 E22.85828
G1 X37.3247 Y80.0675 E22.88430
G1 X39.1858 Y80.6487 E22.91027
G1 X41.0736 Y81.1205 E22.93620
G1 X42.9888 Y81.4834 E22.96217
G1 X44.9253 Y81.7358 E22.98818
G1 X46.8682 Y81.8763 E23.01414
G1 X48.8183 Y81.9045 E23.04012
G1 X50.7697 Y81.8199 E23.06614
G1 X52.7069 Y81.6239 E23.09208
G1 X54.6320 Y81.3164 E23.11805
G1 X56.5344 Y80.8984 E23.14400
G1 X58.4155 Y80.3701 E23.17003
G1 X60.2565 Y79.7367 E23.19597
G1 X62.0595 Y78.9973 E23.22193
G1 X63.8196 Y78.1542 E23.24793
G1 X65.5276 Y77.2113 E23.27393
G1 X67.1777 Y76.1720 E23.29991
G1 X68.7609 Y75.0428 E23.32581
G1 X70.2844 Y73.8172 E23.35186
G1 X71.7312 Y72.5095 E23.37785
G1 X73.0958 Y71.1253 E23.40374
G1 X74.3860 Y69.6559 E23.42979
G1 X75.5855 Y68.1194 E23.45576
G1 X76.6941 Y66.5171 E23.48172
G1 X77.7091 Y64.8525 E23.50769
G1 X78.6600 Y63.0257 E23.53513
G1 X78.6540 Y62.8401 E23.53761
G1 X78.4860 Y62.7722 E23.54002
G1 X78.3064 Y62.7490 E23.54243
G1 X76.0504 E23.57249
G1 X75.7636 Y62.8079 E23.57639
G1 X75.5329 Y62.9862 E23.58027
G1 X75.3214 Y63.1870 E23.58416
G1 X71.6475 Y67.0453 E23.65514
G1 X71.4295 Y67.1416 E23.65831
G1 X71.2203 Y67.0350 E23.66144
G1 X71.0359 Y66.8896 E23.66457
G1 X56.2791 Y52.6788 E23.93751
G1 X56.1699 Y52.6765 E23.93896
G1 X56.0938 Y52.7044 E23.94004
G1 X56.0403 Y52.7363 E23.94087
G1 X55.9911 Y52.7333 E23.94153
G1 X55.3269 Y51.9827 E23.95488
G1 X55.0927 Y51.8101 E23.95876
G1 X54.8066 Y51.7643 E23.96262
G1 X54.5172 Y51.7490 E23.96648
G1 X34.4995 E24.23317
G1 X34.2164 Y51.8114 E24.23703
G1 X34.1170 Y51.8872 E24.23869
G1 X33.9921 Y51.9936 E24.24088
G1 X33.8794 Y52.1129 E24.24306
G1 X33.6239 Y52.1342 E24.24648
G1 X16.4309 Y37.5868 E24.54653
G1 X16.3344 Y37.5809 E24.54782
G1 X16.3288 Y37.7643 F4800 ;  Move Only (0.18 mm)
G1 X16.3572 Y37.9579 ;  Move Only (0.2 mm)
G1 X16.3292 Y38.1516 E24.55042 F1200
G1 X15.9349 Y39.4824 E24.56891
G1 X15.4940 Y41.3603 E24.59461
G1 X15.1616 Y43.2673 E24.62040
G1 X14.9174 Y45.5615 E24.65114
G1 X14.8279 Y47.1116 E24.67182
G1 Y49.0458 E24.69759
G1 X14.9386 Y50.9679 E24.72324
G1 X15.1610 Y52.8905 E24.74903
G1 X15.4937 Y54.7953 E24.77479
G1 X15.9345 Y56.6729 E24.80048
G1 X16.4835 Y58.5262 E24.82623
G1 X17.1393 Y60.3456 E24.85200
G1 X17.8981 Y62.1233 E24.87775
G1 X18.7572 Y63.8523 E24.90347
G1 X19.7141 Y65.5276 E24.92918
G1 X20.7660 Y67.1460 E24.95489
G1 X21.9133 Y68.7066 E24.98070
G1 X23.1469 Y70.1960 E25.00646
G1 X24.4588 Y71.6057 E25.03212
G1 X25.8572 Y72.9452 E25.05792
G1 X27.3248 Y74.1968 E25.08361
G1 X28.8627 Y75.3616 E25.10931
G1 X30.4736 Y76.4432 E25.13516
G1 X32.1302 Y77.4207 E25.16079
G1 X33.8477 Y78.3055 E25.18653
G1 X35.6161 Y79.0903 E25.21231
G1 X37.4270 Y79.7725 E25.23809
G1 X39.2693 Y80.3482 E25.26380
G1 X41.1416 Y80.8158 E25.28951
G1 X43.0365 Y81.1751 E25.31521
G1 X44.9565 Y81.4250 E25.34100
G1 X46.8813 Y81.5645 E25.36671
G1 X48.8136 Y81.5924 E25.39246
G1 X50.7487 Y81.5086 E25.41826
G1 X52.6664 Y81.3144 E25.44394
G1 X54.5729 Y81.0100 E25.46966
G1 X56.4584 Y80.5956 E25.49538
G1 X58.3228 Y80.0721 E25.52118
G1 X60.1463 Y79.4448 E25.54687
G1 X61.9326 Y78.7121 E25.57259
G1 X63.6756 Y77.8773 E25.59834
G1 X65.3702 Y76.9416 E25.62413
G1 X67.0039 Y75.9126 E25.64985
G1 X68.5713 Y74.7949 E25.67550
G1 X70.0821 Y73.5795 E25.70133
G1 X71.5158 Y72.2834 E25.72708
G1 X72.8669 Y70.9129 E25.75272
G1 X74.1459 Y69.4565 E25.77855
G1 X75.3342 Y67.9342 E25.80427
G1 X76.4326 Y66.3465 E25.82999
G1 X77.4373 Y64.6988 E25.85570
G1 X78.1460 Y63.3373 E25.87615
G1 X78.1400 Y63.1517 E25.87863
G1 X77.9720 Y63.0838 E25.88104
G1 X77.7924 Y63.0606 E25.88345
G1 X76.1839 E25.90488
G1 X75.8971 Y63.1195 E25.90878
G1 X75.6664 Y63.2978 E25.91267
G1 X75.4549 Y63.4986 E25.91655
G1 X71.6569 Y67.4872 E25.98993
G1 X71.4389 Y67.5834 E25.99310
G1 X71.2297 Y67.4768 E25.99623
G1 X71.0453 Y67.3314 E25.99936
G1 X56.2781 Y53.1106 E26.27249
G1 X56.1581 Y53.1081 E26.27409
G1 X56.0746 Y53.1387 E26.27527
G1 X56.0159 Y53.1737 E26.27619
G1 X55.9618 Y53.1704 E26.27691
G1 X55.1864 Y52.2942 E26.29249
G1 X54.9521 Y52.1217 E26.29637
G1 X54.6660 Y52.0759 E26.30023
G1 X54.3766 Y52.0606 E26.30409
G1 X34.6438 E26.56698
G1 X34.3607 Y52.1230 E26.57085
G1 X34.3246 Y52.1506 E26.57145
G1 X34.1393 Y52.3083 E26.57469
G1 X33.9722 Y52.4853 E26.57794
G1 X33.7893 Y52.5795 E26.58068
G1 X33.6031 Y52.4991 E26.58338
G1 X33.4361 Y52.3839 E26.58608
G1 X17.7607 Y39.1206 E26.85964
G1 X16.3866 Y37.9579 E25.88362 F540 ; AbsE -1.0000 (-5.00/-0.12 mm/s) 
; Infill
G1 X16.1061 Y37.6619 F4800 ;  Move Only (0.41 mm)
G1 X15.9335 Y37.6106 ;  Move Only (0.18 mm)
G1 X15.8230 Y37.7469 ;  Move Only (0.18 mm)
G1 X15.7516 Y37.9072 ;  Move Only (0.18 mm)
G1 X15.3323 Y39.3217 ;  Move Only (1.5 mm)
G1 X14.8825 Y41.2376 ;  Move Only (2 mm)
G1 X14.5443 Y43.1759 ;  Move Only (2 mm)
G1 X14.2956 Y45.5136 ;  Move Only (2.4 mm)
G1 X14.2044 Y47.0941 ;  Move Only (1.6 mm)
G1 Y49.0638 ;  Move Only (2 mm)
G1 X14.3174 Y51.0240 ;  Move Only (2 mm)
G1 X14.5441 Y52.9819 ;  Move Only (2 mm)
G1 X14.8825 Y54.9202 ;  Move Only (2 mm)
G1 X15.3323 Y56.8360 ;  Move Only (2 mm)
G1 X15.8915 Y58.7225 ;  Move Only (2 mm)
G1 X16.5587 Y60.5735 ;  Move Only (2 mm)
G1 X17.3319 Y62.3846 ;  Move Only (2 mm)
G1 X18.2072 Y64.1464 ;  Move Only (2 mm)
G1 X19.1819 Y65.8533 ;  Move Only (2 mm)
G1 X20.2548 Y67.5038 ;  Move Only (2 mm)
G1 X21.4217 Y69.0906 ;  Move Only (2 mm)
G1 X22.6770 Y70.6061 ;  Move Only (2 mm)
G1 X24.0160 Y72.0452 ;  Move Only (2 mm)
G1 X25.4379 Y73.4071 ;  Move Only (2 mm)
G1 X26.9353 Y74.6839 ;  Move Only (2 mm)
G1 X28.5012 Y75.8707 ;  Move Only (2 mm)
G1 X30.1397 Y76.9700 ;  Move Only (2 mm)
G1 X31.8310 Y77.9679 ;  Move Only (2 mm)
G1 X33.5815 Y78.8697 ;  Move Only (2 mm)
G1 X35.3788 Y79.6677 ;  Move Only (2 mm)
G1 X37.2221 Y80.3622 ;  Move Only (2 mm)
G1 X39.1014 Y80.9489 ;  Move Only (2 mm)
G1 X41.0074 Y81.4254 ;  Move Only (2 mm)
G1 X42.9411 Y81.7920 ;  Move Only (2 mm)
G1 X44.8942 Y82.0466 ;  Move Only (2 mm)
G1 X46.8550 Y82.1882 ;  Move Only (2 mm)
G1 X48.8230 Y82.2166 ;  Move Only (2 mm)
G1 X50.7907 Y82.1314 ;  Move Only (2 mm)
G1 X52.7473 Y81.9334 ;  Move Only (2 mm)
G1 X54.6906 Y81.6229 ;  Move Only (2 mm)
G1 X56.6116 Y81.2009 ;  Move Only (2 mm)
G1 X58.5076 Y80.6683 ;  Move Only (2 mm)
G1 X60.3661 Y80.0288 ;  Move Only (2 mm)
G1 X62.1877 Y79.2819 ;  Move Only (2 mm)
G1 X63.9628 Y78.4316 ;  Move Only (2 mm)
G1 X65.6852 Y77.4809 ;  Move Only (2 mm)
G1 X67.3516 Y76.4313 ;  Move Only (2 mm)
G1 X68.9505 Y75.2907 ;  Move Only (2 mm)
G1 X70.4866 Y74.0552 ;  Move Only (2 mm)
G1 X71.9467 Y72.7355 ;  Move Only (2 mm)
G1 X73.3255 Y71.3368 ;  Move Only (2 mm)
G1 X74.6258 Y69.8558 ;  Move Only (2 mm)
G1 X75.8368 Y68.3045 ;  Move Only (2 mm)
G1 X76.9556 Y66.6877 ;  Move Only (2 mm)
G1 X77.9799 Y65.0078 ;  Move Only (2 mm)
G1 X78.9063 Y63.2714 ;  Move Only (2 mm)
G1 X79.7312 Y61.4837 ;  Move Only (2 mm)
G1 X80.4518 Y59.6510 ;  Move Only (2 mm)
G1 X81.0637 Y57.7857 ;  Move Only (2 mm)
G1 X81.5694 Y55.8798 ;  Move Only (2 mm)
G1 X81.9635 Y53.9533 ;  Move Only (2 mm)
G1 X82.2460 Y52.0062 ;  Move Only (2 mm)
G1 X82.4159 Y50.0456 ;  Move Only (2 mm)
G1 X82.4730 Y48.0785 ;  Move Only (2 mm)
G1 X82.4159 Y46.1121 ;  Move Only (2 mm)
G1 X82.2459 Y44.1508 ;  Move Only (2 mm)
G1 X81.9635 Y42.2048 ;  Move Only (2 mm)
G1 X81.5692 Y40.2773 ;  Move Only (2 mm)
G1 X81.0637 Y38.3720 ;  Move Only (2 mm)
G1 X80.4515 Y36.5060 ;  Move Only (2 mm)
G1 X79.7312 Y34.6741 ;  Move Only (2 mm)
G1 X78.9051 Y32.8843 ;  Move Only (2 mm)
G1 X77.9808 Y31.1512 ;  Move Only (2 mm)
G1 X76.9561 Y29.4713 ;  Move Only (2 mm)
G1 X75.8354 Y27.8514 ;  Move Only (2 mm)
G1 X74.6257 Y26.3020 ;  Move Only (2 mm)
G1 X73.3255 Y24.8209 ;  Move Only (2 mm)
G1 X71.9467 Y23.4221 ;  Move Only (2 mm)
G1 X70.4859 Y22.1019 ;  Move Only (2 mm)
G1 X68.9505 Y20.8669 ;  Move Only (2 mm)
G1 X67.3516 Y19.7265 ;  Move Only (2 mm)
G1 X65.6852 Y18.6769 ;  Move Only (2 mm)
G1 X63.9626 Y17.7263 ;  Move Only (2 mm)
G1 X62.1864 Y16.8753 ;  Move Only (2 mm)
G1 X60.3676 Y16.1295 ;  Move Only (2 mm)
G1 X58.5076 Y15.4893 ;  Move Only (2 mm)
G1 X56.6116 Y14.9569 ;  Move Only (2 mm)
G1 X54.6906 Y14.5350 ;  Move Only (2 mm)
G1 X52.7473 Y14.2243 ;  Move Only (2 mm)
G1 X50.7907 Y14.0262 ;  Move Only (2 mm)
G1 X48.8230 Y13.9412 ;  Move Only (2 mm)
G1 X46.8550 Y13.9694 ;  Move Only (2 mm)
G1 X44.8925 Y14.1114 ;  Move Only (2 mm)
G1 X42.9428 Y14.3656 ;  Move Only (2 mm)
G1 X41.0070 Y14.7325 ;  Move Only (2 mm)
G1 X39.1017 Y15.2086 ;  Move Only (2 mm)
G1 X37.2216 Y15.7958 ;  Move Only (2 mm)
G1 X35.3788 Y16.4900 ;  Move Only (2 mm)
G1 X33.5815 Y17.2882 ;  Move Only (2 mm)
G1 X31.8310 Y18.1897 ;  Move Only (2 mm)
G1 X30.1397 Y19.1878 ;  Move Only (2 mm)
G1 X28.5024 Y20.2862 ;  Move Only (2 mm)
G1 X26.9342 Y21.4745 ;  Move Only (2 mm)
G1 X25.4379 Y22.7507 ;  Move Only (2 mm)
G1 X24.0160 Y24.1126 ;  Move Only (2 mm)
G1 X22.6763 Y25.5520 ;  Move Only (2 mm)
G1 X21.4223 Y27.0666 ;  Move Only (2 mm)
G1 X20.2548 Y28.6540 ;  Move Only (2 mm)
G1 X19.1826 Y30.3033 ;  Move Only (2 mm)
G1 X18.2069 Y32.0121 ;  Move Only (2 mm)
G1 X17.3317 Y33.7741 ;  Move Only (2 mm)
G1 X17.1754 Y34.1401 ;  Move Only (0.4 mm)
G1 X17.2137 Y34.2610 ;  Move Only (0.13 mm)
G1 X17.2694 Y34.3324 ;  Move Only (0.091 mm)
G1 X17.3208 Y34.3785 ;  Move Only (0.069 mm)
G1 X17.3288 Y34.4283 ;  Move Only (0.05 mm)
G1 X16.7712 Y35.0872 ;  Move Only (0.86 mm)
G1 X17.0875 Y34.7133 E26.34899 F320 ; AbsE 0.4594 (5.00/-0.06 mm/s) 
G1 X17.0776 Y34.6509 E26.40905 ; AbsE 0.0593 (5.00/-0.06 mm/s) 
G1 X17.0472 Y34.6053 E26.46116 ; AbsE 0.0514 (5.00/-0.06 mm/s) 
G1 X17.0244 Y34.5832 E26.49132 ; AbsE 0.0298 (5.00/-0.06 mm/s) 
G1 X17.0062 Y34.5690 E26.51328 ; AbsE 0.0217 (5.00/-0.06 mm/s) 
G1 X16.9903 Y34.5741 E26.52913 ; AbsE 0.0156 (5.00/-0.06 mm/s) 
G1 X16.8937 Y34.8003 E26.76284 ; AbsE 0.2307 (5.00/-0.06 mm/s) 
G1 X17.0327 Y34.7781 E26.89531 ; AbsE 0.1320 (5.00/-0.02 mm/s) 
G1 X17.2711 Y34.4965 F4800 ;  Move Only (0.37 mm)
G1 X17.2554 Y34.3978 ;  Move Only (0.1 mm)
G1 X17.2073 Y34.3256 ;  Move Only (0.087 mm)
G1 X17.1712 Y34.2908 ;  Move Only (0.05 mm)
G1 X17.1423 Y34.2683 ;  Move Only (0.037 mm)
G1 X17.1330 Y34.2391 ;  Move Only (0.031 mm)
G1 X17.2091 Y34.0610 ;  Move Only (0.19 mm)
G1 X17.3587 Y33.7932 ;  Move Only (0.31 mm)
G1 X17.5613 Y33.5628 ;  Move Only (0.31 mm)
G1 X17.9727 Y33.1841 ;  Move Only (0.56 mm)
G1 X18.4656 Y32.6015 E26.90460 F1200
G1 X18.4551 Y32.5205 E26.90559
G1 X18.4200 Y32.4625 E26.90642
G1 X18.3934 Y32.4341 E26.90689
G1 X18.3720 Y32.4155 E26.90723
G1 X18.3522 Y32.4205 E26.90748
G1 X18.1116 Y32.9047 E26.91406
G1 X18.2048 Y32.8886 E26.91435
G1 X19.9721 Y30.6388 F4800 ;  Move Only (2.9 mm)
G1 X20.1782 Y30.5253 ;  Move Only (0.24 mm)
G1 X20.3915 Y30.6158 E26.91905 F1200
G1 X20.5825 Y30.7470 E26.92375
G1 X20.7129 Y30.8574 E26.92721
G1 X20.8672 Y30.8782 E26.93037
G1 X20.9510 Y30.5913 E26.93643
G1 Y29.4956 E26.95865
G1 X20.9983 Y29.1991 E26.96474
G1 X21.1354 Y28.9320 E26.97083
G1 X21.5529 Y28.3624 E26.98515
G1 X21.6863 Y28.4597 E26.98850
G1 X21.7245 Y28.6189 E26.99182
G1 X21.7373 Y28.7820 E26.99514
G1 Y31.4123 E27.04848
G1 X21.7997 Y31.6953 E27.05436
G1 X21.9869 Y31.9150 E27.06021
G1 X22.1967 Y32.1131 E27.06606
G1 X22.2853 Y32.1881 E27.06842
G1 X22.4397 Y32.2089 E27.07158
G1 X22.5235 Y31.9219 E27.07764
G1 Y27.4163 E27.16901
G1 X22.5748 Y27.1228 E27.17506
G1 X22.7225 Y26.8640 E27.18110
G1 X23.1107 Y26.3952 E27.19344
G1 X23.2550 Y26.5053 E27.19712
G1 X23.2959 Y26.6805 E27.20077
G1 X23.3097 Y26.8599 E27.20442
G1 Y32.7429 E27.32373
G1 X23.3721 Y33.0259 E27.32961
G1 X23.5593 Y33.2456 E27.33546
G1 X23.7691 Y33.4437 E27.34131
G1 X23.8578 Y33.5188 E27.34367
G1 X24.0122 Y33.5396 E27.34683
G1 X24.0960 Y33.2526 E27.35289
G1 Y25.6193 E27.50769
G1 X24.1522 Y25.3299 E27.51367
G1 X24.3125 Y25.0826 E27.51965
G1 X24.6657 Y24.7159 E27.52997
G1 X24.8230 Y24.8431 E27.53408
G1 X24.8673 Y25.0388 E27.53815
G1 X24.8822 Y25.2389 E27.54221
G1 Y34.0736 E27.72138
G1 X24.9446 Y34.3566 E27.72726
G1 X25.1318 Y34.5763 E27.73311
G1 X25.3416 Y34.7743 E27.73896
G1 X25.4303 Y34.8494 E27.74132
G1 X25.5847 Y34.8702 E27.74448
G1 X25.6685 Y34.5831 E27.75054
G1 Y24.0499 E27.96416
G1 X25.7291 Y23.7649 E27.97007
G1 X25.9117 Y23.5394 E27.97595
G1 X26.1169 Y23.3342 E27.98184
G1 X26.2228 Y23.2389 E27.98473
G1 X26.3723 Y23.2152 E27.98779
G1 X26.4547 Y23.4934 E27.99368
G1 Y35.4042 E28.23523
G1 X26.5171 Y35.6872 E28.24111
G1 X26.7043 Y35.9069 E28.24696
G1 X26.9141 Y36.1050 E28.25281
G1 X27.0027 Y36.1800 E28.25517
G1 X27.1571 Y36.2008 E28.25832
G1 X27.2409 Y35.9138 E28.26439
G1 Y22.6717 E28.53294
G1 X27.3054 Y22.3911 E28.53878
G1 X27.4976 Y22.1784 E28.54459
G1 X27.7125 Y21.9888 E28.55040
G1 X27.7820 Y21.9341 E28.55219
G1 X27.9419 Y21.9169 E28.55546
G1 X28.0054 Y22.0594 E28.55862
G1 X28.0272 Y22.2140 E28.56179
G1 Y36.7349 E28.85627
G1 X28.0896 Y37.0179 E28.86215
G1 X28.2768 Y37.2376 E28.86800
G1 X28.4867 Y37.4356 E28.87385
G1 X28.5752 Y37.5106 E28.87621
G1 X28.7296 Y37.5314 E28.87936
G1 X28.8134 Y37.2443 E28.88543
G1 Y21.4574 E29.20559
G1 X28.8814 Y21.1810 E29.21136
G1 X29.0813 Y20.9806 E29.21710
G1 X29.3039 Y20.8057 E29.22284
G1 X29.3432 Y20.7784 E29.22381
G1 X29.5121 Y20.7680 E29.22724
G1 X29.5774 Y20.9190 E29.23058
G1 X29.5997 Y21.0820 E29.23392
G1 Y38.0655 E29.57834
G1 X29.6621 Y38.3485 E29.58422
G1 X29.8493 Y38.5682 E29.59007
G1 X30.0591 Y38.7663 E29.59592
G1 X30.1477 Y38.8413 E29.59828
G1 X30.3021 Y38.8621 E29.60144
G1 X30.3859 Y38.5751 E29.60750
G1 Y20.3852 E29.97639
G1 X30.4569 Y20.1130 E29.98210
G1 X30.6632 Y19.9241 E29.98777
G1 X30.8917 Y19.7631 E29.99344
G1 X30.9061 Y19.7543 E29.99378
G1 X31.0828 Y19.7508 E29.99736
G1 X31.1494 Y19.9094 E30.00085
G1 X31.1721 Y20.0799 E30.00434
G1 Y39.3961 E30.39607
G1 X31.2345 Y39.6791 E30.40195
G1 X31.4217 Y39.8988 E30.40780
G1 X31.6315 Y40.0968 E30.41365
G1 X31.7202 Y40.1719 E30.41601
G1 X31.8746 Y40.1927 E30.41917
G1 X31.9584 Y39.9056 E30.42523
G1 Y19.4393 E30.84029
G1 X32.0321 Y19.1712 E30.84593
G1 X32.0326 Y19.1707 E30.84594
G1 X32.2436 Y18.9935 E30.85153
G1 X32.4764 Y18.8460 E30.85712
G1 X32.6559 Y18.8495 E30.86076
G1 X32.7220 Y19.0115 E30.86431
G1 X32.7446 Y19.1851 E30.86786
G1 Y40.7267 E31.30472
G1 X32.8070 Y41.0097 E31.31060
G1 X32.9942 Y41.2294 E31.31645
G1 X33.2040 Y41.4275 E31.32230
G1 X33.2927 Y41.5026 E31.32466
G1 X33.4471 Y41.5234 E31.32782
G1 X33.5309 Y41.2364 E31.33388
G1 Y18.6075 E31.79280
G1 X33.6070 Y18.3433 E31.79837
G1 X33.6129 Y18.3380 E31.79853
G1 X33.8223 Y18.1755 E31.80391
G1 X34.0525 Y18.0439 E31.80929
G1 X34.2307 Y18.0539 E31.81291
G1 X34.2952 Y18.2158 E31.81644
G1 X34.3171 Y18.3886 E31.81997
G1 Y42.0574 E32.29998
G1 X34.3795 Y42.3404 E32.30585
G1 X34.5667 Y42.5601 E32.31171
G1 X34.7765 Y42.7582 E32.31756
G1 X34.8651 Y42.8332 E32.31991
G1 X35.0195 Y42.8540 E32.32307
G1 X35.1033 Y42.5670 E32.32913
G1 Y17.8792 E32.82980
G1 X35.1814 Y17.6187 E32.83532
G1 X35.1915 Y17.6103 E32.83558
G1 X35.3999 Y17.4604 E32.84079
G1 X35.6279 Y17.3423 E32.84600
G1 X35.8052 Y17.3581 E32.84961
G1 X35.8682 Y17.5202 E32.85313
G1 X35.8896 Y17.6928 E32.85666
G1 Y43.3880 E33.37776
G1 X35.9763 Y43.6280 E33.38293
G1 X35.9960 Y43.6396 E33.38340
G1 X36.2034 Y43.7383 E33.38806
G1 X36.4246 Y43.7998 E33.39271
G1 X36.5992 Y43.7544 E33.39637
G1 X36.6564 Y43.5868 E33.39996
G1 X36.6758 Y43.4108 E33.40355
G1 Y17.2461 E33.93417
G1 X36.7559 Y16.9895 E33.93962
G1 X36.7695 Y16.9789 E33.93997
G1 X36.9771 Y16.8408 E33.94503
G1 X37.2032 Y16.7355 E33.95009
G1 X37.3796 Y16.7572 E33.95369
G1 X37.4412 Y16.9198 E33.95722
G1 X37.4621 Y17.0924 E33.96074
G1 Y43.5346 E34.49699
G1 X37.5535 Y43.7552 E34.50183
G1 X37.5655 Y43.7602 E34.50210
G1 X37.7784 Y43.8248 E34.50661
G1 X37.9999 Y43.8466 E34.51112
G1 X38.1755 Y43.7738 E34.51498
G1 X38.2299 Y43.5946 E34.51878
G1 X38.2483 Y43.4081 E34.52258
G1 Y16.7016 E35.06419
G1 X38.3308 Y16.4502 E35.06955
G1 X38.3478 Y16.4381 E35.06998
G1 X38.5547 Y16.3139 E35.07487
G1 X38.7787 Y16.2239 E35.07976
G1 X38.9542 Y16.2532 E35.08337
G1 X39.0141 Y16.4169 E35.08691
G1 X39.0345 Y16.5899 E35.09044
G1 Y35.1659 E35.46716
G1 X39.2360 Y35.1833 E35.47126
G1 X39.4036 Y35.0732 E35.47533
G1 X39.5530 Y34.9394 E35.47940
G1 X39.6044 Y34.8860 E35.48090
G1 X39.7647 Y34.6387 E35.48688
G1 X39.8208 Y34.3493 E35.49286
G1 Y16.2402 E35.86011
G1 X39.9054 Y15.9943 E35.86538
G1 X39.9245 Y15.9819 E35.86584
G1 X40.1314 Y15.8706 E35.87061
G1 X40.3537 Y15.7949 E35.87537
G1 X40.5286 Y15.8320 E35.87900
G1 X40.5871 Y15.9973 E35.88255
G1 X40.6070 Y16.1714 E35.88611
G1 Y33.5329 E36.23820
G1 X40.8085 Y33.5504 E36.24230
G1 X40.9761 Y33.4402 E36.24637
G1 X41.1256 Y33.3064 E36.25044
G1 X41.1769 Y33.2531 E36.25193
G1 X41.3372 Y33.0058 E36.25791
G1 X41.3933 Y32.7164 E36.26389
G1 Y15.8592 E36.60575
G1 X41.4799 Y15.6189 E36.61093
G1 X41.4996 Y15.6073 E36.61140
G1 X41.7070 Y15.5080 E36.61606
G1 X41.9283 Y15.4460 E36.62072
G1 X42.1028 Y15.4910 E36.62438
G1 X42.1601 Y15.6584 E36.62797
G1 X42.1795 Y15.8344 E36.63156
G1 Y31.8999 E36.95736
G1 X42.3810 Y31.9174 E36.96147
G1 X42.5486 Y31.8072 E36.96553
G1 X42.6981 Y31.6734 E36.96960
G1 X42.7493 Y31.6202 E36.97110
G1 X42.9096 Y31.3729 E36.97708
G1 X42.9657 Y31.0835 E36.98305
G1 Y15.5616 E37.29784
G1 X43.0538 Y15.3263 E37.30293
G1 X43.0730 Y15.3159 E37.30338
G1 X43.2812 Y15.2263 E37.30797
G1 X43.5020 Y15.1752 E37.31257
G1 X43.6766 Y15.2271 E37.31626
G1 X43.7329 Y15.3970 E37.31989
G1 X43.7520 Y15.5750 E37.32352
G1 Y30.2669 E37.62147
G1 X43.8457 Y30.4620 E37.62586
G1 X44.0566 Y30.4865 F4800 ;  Move Only (0.21 mm)
G1 X44.2676 Y30.4635 ;  Move Only (0.21 mm)
G1 X44.4622 Y30.3421 ;  Move Only (0.23 mm)
G1 X44.5191 Y30.1225 E37.63046 F1200
G1 X44.5382 Y29.8964 E37.63507
G1 Y15.3500 E37.93007
G1 X44.6272 Y15.1181 E37.93510
G1 X44.6454 Y15.1089 E37.93552
G1 X44.8544 Y15.0254 E37.94008
G1 X45.0752 Y14.9815 E37.94465
G1 X45.2498 Y15.0383 E37.94837
G1 X45.3056 Y15.2100 E37.95203
G1 X45.3245 Y15.3896 E37.95570
G1 Y30.8482 E38.26920
G1 X45.3830 Y31.1353 E38.27514
G1 X45.5605 Y31.3671 E38.28106
G1 X45.7603 Y31.5799 E38.28698
G1 X45.8860 Y31.7010 E38.29052
G1 X46.0494 Y31.5649 E38.29483
G1 X46.0953 Y31.3589 E38.29911
G1 X46.1107 Y31.1485 E38.30339
G1 Y15.2103 E38.62661
G1 X46.2005 Y14.9819 E38.63159
G1 X46.2174 Y14.9738 E38.63197
G1 X46.4274 Y14.8965 E38.63651
G1 X46.6481 Y14.8595 E38.64105
G1 X46.8229 Y14.9211 E38.64481
G1 X46.8782 Y15.0950 E38.64851
G1 X46.8969 Y15.2764 E38.65221
G1 Y32.3626 E38.99871
G1 X46.9554 Y32.6497 E39.00466
G1 X47.1329 Y32.8815 E39.01058
G1 X47.3327 Y33.0943 E39.01650
G1 X47.4585 Y33.2154 E39.02004
G1 X47.6219 Y33.0793 E39.02435
G1 X47.6678 Y32.8733 E39.02863
G1 X47.6832 Y32.6629 E39.03291
G1 Y15.1425 E39.38822
G1 X47.7743 Y14.9203 E39.39309
G1 X47.7874 Y14.9147 E39.39338
G1 X47.9997 Y14.8477 E39.39790
G1 X48.2210 Y14.8229 E39.40241
G1 X48.3964 Y14.8934 E39.40625
G1 X48.4510 Y15.0715 E39.41002
G1 X48.4694 Y15.2569 E39.41380
G1 Y33.8770 E39.79142
G1 X48.5279 Y34.1641 E39.79736
G1 X48.7054 Y34.3959 E39.80328
G1 X48.9052 Y34.6087 E39.80920
G1 X49.0310 Y34.7298 E39.81274
G1 X49.1944 Y34.5937 E39.81705
G1 X49.2403 Y34.3877 E39.82133
G1 X49.2557 Y34.1773 E39.82561
G1 Y15.1458 E40.21157
G1 X49.3478 Y14.9300 E40.21633
G1 X49.3558 Y14.9270 E40.21650
G1 X49.5710 Y14.8698 E40.22102
G1 X49.7934 Y14.8568 E40.22553
G1 X49.9697 Y14.9366 E40.22946
G1 X50.0237 Y15.1198 E40.23333
G1 X50.0419 Y15.3099 E40.23721
G1 Y35.3914 E40.64446
G1 X50.1004 Y35.6785 E40.65040
G1 X50.2779 Y35.9103 E40.65632
G1 X50.4777 Y36.1231 E40.66224
G1 X50.6034 Y36.2441 E40.66578
G1 X50.7668 Y36.1080 E40.67009
G1 X50.8127 Y35.9020 E40.67437
G1 X50.8281 Y35.6916 E40.67865
G1 Y15.2190 E41.09383
G1 X50.9210 Y15.0098 E41.09848
G1 X50.9221 Y15.0095 E41.09850
G1 X51.1411 Y14.9622 E41.10304
G1 X51.3651 Y14.9614 E41.10759
G1 X51.5428 Y15.0514 E41.11163
G1 X51.5964 Y15.2406 E41.11561
G1 X51.6144 Y15.4364 E41.11960
G1 Y36.9058 E41.55500
G1 X51.6729 Y37.1929 E41.56094
G1 X51.8504 Y37.4247 E41.56686
G1 X52.0502 Y37.6375 E41.57278
G1 X52.1759 Y37.7586 E41.57632
G1 X52.3393 Y37.6225 E41.58064
G1 X52.3852 Y37.4165 E41.58492
G1 X52.4006 Y37.2061 E41.58919
G1 Y15.3785 E42.03186
G1 X52.4939 Y15.1740 E42.03642
G1 X52.7112 Y15.1346 E42.04090
G1 X52.9320 Y15.1423 E42.04537
G1 X53.1143 Y15.2416 E42.04959
G1 X53.1686 Y15.4394 E42.05375
G1 X53.1869 Y15.6437 E42.05791
G1 Y38.4202 E42.51981
G1 X53.2454 Y38.7073 E42.52575
G1 X53.4229 Y38.9391 E42.53167
G1 X53.6227 Y39.1519 E42.53759
G1 X53.7484 Y39.2730 E42.54113
G1 X53.9118 Y39.1369 E42.54545
G1 X53.9577 Y38.9309 E42.54973
G1 X53.9731 Y38.7205 E42.55400
G1 Y15.6162 E43.02256
G1 X54.0666 Y15.4158 E43.02705
G1 X54.2813 Y15.3829 E43.03145
G1 X54.4981 Y15.3973 E43.03586
G1 X54.6854 Y15.5057 E43.04024
G1 X54.7407 Y15.7123 E43.04458
G1 X54.7593 Y15.9254 E43.04892
G1 Y39.9345 E43.53582
G1 X54.8178 Y40.2216 E43.54177
G1 X54.9953 Y40.4534 E43.54769
G1 X55.1951 Y40.6662 E43.55361
G1 X55.3209 Y40.7874 E43.55715
G1 X55.4843 Y40.6513 E43.56146
G1 X55.5302 Y40.4453 E43.56574
G1 X55.5456 Y40.2349 E43.57002
G1 Y15.9284 E44.06296
G1 X55.6393 Y15.7329 E44.06735
G1 X55.8505 Y15.7077 E44.07167
G1 X56.0621 Y15.7299 E44.07598
G1 X56.2560 Y15.8501 E44.08061
G1 X56.3127 Y16.0685 E44.08519
G1 X56.3318 Y16.2934 E44.08976
G1 Y41.4489 E44.59992
G1 X56.4199 Y41.5956 E44.60339
G1 X56.5834 Y41.5648 E44.60676
G1 X56.7328 Y41.4915 E44.61014
G1 X56.8591 Y41.4066 E44.61322
G1 X57.0493 Y41.1959 E44.61898
G1 X57.1008 Y40.9185 E44.62470
G1 X57.1181 Y40.6368 E44.63042
G1 Y16.3178 E45.12361
G1 X57.2117 Y16.1293 E45.12788
G1 X57.4175 Y16.1144 E45.13206
G1 X57.6211 Y16.1469 E45.13625
G1 X57.8255 Y16.2861 E45.14126
G1 X57.8845 Y16.5238 E45.14623
G1 X57.9043 Y16.7678 E45.15119
G1 Y40.2251 E45.62691
G1 X57.9871 Y40.3533 E45.63000
G1 X58.2523 Y40.2293 E45.63594
G1 X58.4568 Y40.0483 E45.64148
G1 X58.6294 Y39.8141 E45.64738
G1 X58.6752 Y39.5280 E45.65325
G1 X58.6905 Y39.2386 E45.65913
G1 Y16.7871 E46.11445
G1 X58.7838 Y16.6059 E46.11858
G1 X58.9832 Y16.6009 E46.12262
G1 X59.1782 Y16.6430 E46.12667
G1 X59.1818 Y16.6442 E46.12675
G1 X59.3955 Y16.8038 E46.13215
G1 X59.4564 Y17.0610 E46.13751
G1 X59.4768 Y17.3245 E46.14287
G1 Y38.8340 E46.57909
G1 X59.5596 Y38.9622 E46.58218
G1 X59.8248 Y38.8382 E46.58812
G1 X60.0293 Y38.6572 E46.59366
G1 X60.2019 Y38.4230 E46.59956
G1 X60.2477 Y38.1369 E46.60543
G1 X60.2630 Y37.8475 E46.61131
G1 Y17.3419 E47.02716
G1 X60.3557 Y17.1681 E47.03116
G1 X60.5482 Y17.1723 E47.03506
G1 X60.7339 Y17.2230 E47.03897
G1 X60.7606 Y17.2340 E47.03955
G1 X60.9705 Y17.4053 E47.04505
G1 X61.0295 Y17.6673 E47.05049
G1 X61.0493 Y17.9352 E47.05594
G1 Y37.4429 E47.45156
G1 X61.1321 Y37.5711 E47.45465
G1 X61.3973 Y37.4471 E47.46059
G1 X61.6018 Y37.2661 E47.46612
G1 X61.7744 Y37.0319 E47.47203
G1 X61.8202 Y36.7458 E47.47790
G1 X61.8355 Y36.4564 E47.48378
G1 Y17.9873 E47.85833
G1 X61.9273 Y17.8210 E47.86218
G1 X62.1122 Y17.8337 E47.86594
G1 X62.2882 Y17.8921 E47.86970
G1 X62.3403 Y17.9171 E47.87087
G1 X62.5455 Y18.0999 E47.87645
G1 X62.6026 Y18.3666 E47.88198
G1 X62.6217 Y18.6387 E47.88751
G1 Y36.0519 E48.24065
G1 X62.7045 Y36.1801 E48.24374
G1 X62.9697 Y36.0561 E48.24968
G1 X63.1743 Y35.8750 E48.25522
G1 X63.3469 Y35.6408 E48.26112
G1 X63.3927 Y35.3547 E48.26700
G1 X63.4080 Y35.0653 E48.27287
G1 Y18.7406 E48.60394
G1 X63.4988 Y18.5805 E48.60767
G1 X63.6773 Y18.5995 E48.61131
G1 X63.8450 Y18.6634 E48.61495
G1 X63.9194 Y18.7034 E48.61666
G1 X64.1203 Y18.8953 E48.62230
G1 X64.1756 Y19.1656 E48.62789
G1 X64.1942 Y19.4409 E48.63349
G1 Y34.6608 E48.94215
G1 X64.2770 Y34.7890 E48.94524
G1 X64.5422 Y34.6650 E48.95118
G1 X64.7468 Y34.4839 E48.95672
G1 X64.9194 Y34.2497 E48.96262
G1 X64.9652 Y33.9636 E48.96850
G1 X64.9805 Y33.6742 E48.97437
G1 Y19.5970 E49.25986
G1 X65.0700 Y19.4437 E49.26346
G1 X65.2410 Y19.4690 E49.26697
G1 X65.3995 Y19.5381 E49.27047
G1 X65.4997 Y19.5987 E49.27285
G1 X65.6953 Y19.8003 E49.27854
G1 X65.7488 Y20.0743 E49.28421
G1 X65.7667 Y20.3530 E49.28987
G1 Y33.2697 E49.55182
G1 X65.8495 Y33.3979 E49.55491
G1 X66.1147 Y33.2739 E49.56085
G1 X66.3192 Y33.0929 E49.56639
G1 X66.4918 Y32.8587 E49.57229
G1 X66.5376 Y32.5726 E49.57816
G1 X66.5529 Y32.2832 E49.58404
G1 Y20.5672 E49.82164
G1 X66.6408 Y20.4213 E49.82510
G1 X66.8034 Y20.4527 E49.82846
G1 X66.9517 Y20.5265 E49.83182
G1 X67.0812 Y20.6145 E49.83499
G1 X67.2707 Y20.8262 E49.84075
G1 X67.3220 Y21.1041 E49.84648
G1 X67.3392 Y21.3861 E49.85221
G1 Y31.8786 E50.06500
G1 X67.4220 Y32.0068 E50.06810
G1 X67.6872 Y31.8828 E50.07403
G1 X67.8917 Y31.7018 E50.07957
G1 X68.0643 Y31.4676 E50.08547
G1 X68.1101 Y31.1815 E50.09135
G1 X68.1254 Y30.8921 E50.09722
G1 Y21.6627 E50.28440
G1 X68.2111 Y21.5250 E50.28769
G1 X68.3642 Y21.5622 E50.29088
G1 X68.5011 Y21.6401 E50.29407
G1 X68.6645 Y21.7660 E50.29826
G1 X68.8466 Y21.9884 E50.30409
G1 X68.8954 Y22.2703 E50.30989
G1 X68.9117 Y22.5558 E50.31569
G1 Y30.4875 E50.47654
G1 X68.9946 Y30.6159 E50.47964
G1 X69.2605 Y30.4922 E50.48559
G1 X69.4638 Y30.3130 E50.49109
G1 X69.6367 Y30.0790 E50.49699
G1 X69.6825 Y29.7931 E50.50286
G1 X69.6979 Y29.5038 E50.50873
G1 Y22.9008 E50.64264
G1 X69.7809 Y22.7720 E50.64575
G1 X70.0479 Y22.8954 E50.65171
G1 X70.2494 Y23.0720 E50.65715
G1 X70.4227 Y23.3054 E50.66305
G1 X70.4687 Y23.5912 E50.66892
G1 X70.4841 Y23.8803 E50.67479
G1 Y30.6834 E50.81275
G1 X70.5375 Y30.9752 E50.81877
G1 X70.6908 Y31.2291 E50.82478
G1 X71.0637 Y31.6505 E50.83620
G1 X71.2137 Y31.5330 E50.84006
G1 X71.2561 Y31.3490 E50.84389
G1 X71.2704 Y31.1606 E50.84772
G1 Y24.3003 E50.98685
G1 X71.4764 Y24.2803 E50.99105
G1 X71.6496 Y24.3904 E50.99521
G1 X71.8047 Y24.5247 E50.99937
G1 X71.8364 Y24.5565 E51.00028
G1 X71.9994 Y24.8012 E51.00624
G1 X72.0566 Y25.0896 E51.01220
G1 Y32.4609 E51.16169
G1 X72.1100 Y32.7527 E51.16771
G1 X72.2633 Y33.0066 E51.17373
G1 X72.6362 Y33.4280 E51.18514
G1 X72.7862 Y33.3105 E51.18900
G1 X72.8286 Y33.1265 E51.19283
G1 X72.8429 Y32.9381 E51.19666
G1 Y25.9066 E51.33926
G1 X73.0321 Y25.8957 E51.34310
G1 X73.1846 Y26.0054 E51.34691
G1 X73.3189 Y26.1368 E51.35072
G1 X73.4233 Y26.2556 E51.35393
G1 X73.5759 Y26.5101 E51.35995
G1 X73.6291 Y26.8021 E51.36597
G1 Y34.2384 E51.51678
G1 X73.6825 Y34.5302 E51.52279
G1 X73.8358 Y34.7841 E51.52881
G1 X74.2086 Y35.2054 E51.54022
G1 X74.3586 Y35.0879 E51.54408
G1 X74.4010 Y34.9039 E51.54791
G1 X74.4153 Y34.7155 E51.55174
G1 Y27.7636 E51.69273
G1 X74.5872 Y27.7605 E51.69622
G1 X74.7197 Y27.8678 E51.69967
G1 X74.8339 Y27.9942 E51.70313
G1 X75.0110 Y28.2238 E51.70901
G1 X75.1526 Y28.4875 E51.71508
G1 X75.2016 Y28.7828 E51.72115
G1 Y54.5350 E52.24340
G1 X75.2930 Y54.7556 E52.24825
G1 X75.3050 Y54.7606 E52.24851
G1 X75.5179 Y54.8252 E52.25302
G1 X75.7394 Y54.8470 E52.25754
G1 X75.9150 Y54.7742 E52.26139
G1 X75.9694 Y54.5950 E52.26519
G1 X75.9878 Y54.4085 E52.26899
G1 Y29.9185 E52.76565
G1 X76.2475 Y30.0169 E52.77128
G1 X76.6073 Y30.5856 E52.78493
G1 X76.7316 Y30.8616 E52.79107
G1 X76.7741 Y31.1613 E52.79720
G1 Y54.5350 E53.27122
G1 X76.8655 Y54.7556 E53.27607
G1 X76.8775 Y54.7606 E53.27633
G1 X77.0904 Y54.8252 E53.28084
G1 X77.3119 Y54.8470 E53.28536
G1 X77.4875 Y54.7742 E53.28921
G1 X77.5419 Y54.5950 E53.29301
G1 X77.5603 Y54.4085 E53.29681
G1 Y32.5301 E53.74050
G1 X77.7685 Y32.6259 E53.74515
G1 X78.2046 Y33.4800 E53.76460
G1 X78.3105 Y33.7666 E53.77080
G1 X78.3465 Y34.0699 E53.77699
G1 Y54.5350 E54.19202
G1 X78.4379 Y54.7556 E54.19687
G1 X78.4498 Y54.7606 E54.19713
G1 X78.6628 Y54.8252 E54.20164
G1 X78.8844 Y54.8470 E54.20616
G1 X79.0600 Y54.7742 E54.21001
G1 X79.1144 Y54.5949 E54.21381
G1 X79.1328 Y54.4084 E54.21761
G1 Y35.8516 E54.59395
G1 X79.2204 Y35.8669 E54.59485
G1 X79.3082 Y36.0184 F4800 ;  Move Only (0.18 mm)
G1 X79.8117 Y37.3927 ;  Move Only (1.5 mm)
G1 X79.8920 Y37.6905 ;  Move Only (0.31 mm)
G1 X79.9190 Y37.9977 E54.60110 F1200
G1 Y58.1410 E55.00961
G1 X79.9010 Y58.4509 E55.01590
G1 X79.8474 Y58.7567 F4800 ;  Move Only (0.31 mm)
G1 X79.4540 Y60.4243 ;  Move Only (1.7 mm)
G1 X79.4067 Y60.4548 E55.01625 F1440
G1 X79.3646 Y60.4630 E55.01664
G1 X79.3316 Y60.4629 E55.01699
G1 X79.3134 Y60.4779 E55.01727 F1200
G1 Y60.6356 E55.01919
G1 X79.3967 Y60.5905 E55.02035
G1 X79.4166 Y60.5965 E55.02047
G1 X79.1165 Y62.0436 E54.11210 F4800 ; AbsE -0.9084 (-49.17/-0.00 mm/s) 
G1 X79.0789 Y62.0680 E54.10302 F1440 ; AbsE -0.0094 (-5.00/-0.15 mm/s) 
G1 X79.0442 Y62.0743 E54.09600 ; AbsE -0.0073 (-5.00/-0.22 mm/s) 
G1 X79.0168 Y62.0738 E54.09058 ; AbsE -0.0057 (-5.00/-0.26 mm/s) 
G1 X79.0018 Y62.0859 E54.08547 F1080 ; AbsE -0.0053 (-5.00/-0.22 mm/s) 
G1 Y62.2011 E54.05487 ; AbsE -0.0320 (-5.00/-0.22 mm/s) 
G1 X79.0728 Y62.1658 E54.03380 ; AbsE -0.0220 (-5.00/-0.22 mm/s) 
G1 X79.0448 Y62.1442 E54.02418 ; AbsE -0.0098 (-5.00/-0.11 mm/s) 
G1 X78.9305 Y62.2386 F4800 ;  Move Only (0.15 mm)
G1 X78.6716 Y62.3861 ;  Move Only (0.3 mm)
G1 X78.3780 Y62.4373 ;  Move Only (0.3 mm)
G1 X75.9169 ;  Move Only (2.5 mm)
G1 X75.6301 Y62.4962 ;  Move Only (0.29 mm)
G1 X75.3994 Y62.6745 ;  Move Only (0.29 mm)
G1 X75.1879 Y62.8753 ;  Move Only (0.29 mm)
G1 X71.6380 Y66.6035 ;  Move Only (5.1 mm)
G1 X71.4201 Y66.6998 ;  Move Only (0.24 mm)
G1 X71.2109 Y66.5932 ;  Move Only (0.23 mm)
G1 X71.0265 Y66.4478 ;  Move Only (0.23 mm)
G1 X56.2798 Y52.2471 ;  Move Only (20 mm)
G1 X56.1814 Y52.2450 ;  Move Only (0.098 mm)
G1 X56.1129 Y52.2701 ;  Move Only (0.073 mm)
G1 X56.0647 Y52.2988 ;  Move Only (0.056 mm)
G1 X56.0204 Y52.2961 ;  Move Only (0.044 mm)
G1 X55.4675 Y51.6710 ;  Move Only (0.83 mm)
G1 X55.2333 Y51.4984 ;  Move Only (0.29 mm)
G1 X54.9472 Y51.4526 ;  Move Only (0.29 mm)
G1 X54.6578 Y51.4373 ;  Move Only (0.29 mm)
G1 X34.2768 ;  Move Only (20 mm)
G1 X34.0647 Y51.4841 ;  Move Only (0.22 mm)
G1 X33.9894 Y51.5415 ;  Move Only (0.095 mm)
G1 X33.8129 Y51.7093 ;  Move Only (0.24 mm)
G1 X33.6231 Y51.7251 ;  Move Only (0.19 mm)
G1 X16.3000 Y37.0674 ;  Move Only (23 mm)
G1 X16.1261 Y37.0284 ;  Move Only (0.18 mm)
G1 X16.1016 Y37.0509 ;  Move Only (0.033 mm)
G1 X15.9877 Y37.2221 ;  Move Only (0.21 mm)
G1 X15.9198 Y37.3568 ;  Move Only (0.15 mm)
G1 X15.8915 Y37.4354 ;  Move Only (0.084 mm)
G1 X15.3323 Y39.3217 ;  Move Only (2 mm)
G1 X14.8825 Y41.2376 ;  Move Only (2 mm)
G1 X14.5443 Y43.1759 ;  Move Only (2 mm)
G1 X14.2956 Y45.5136 ;  Move Only (2.4 mm)
G1 X14.2044 Y47.0941 ;  Move Only (1.6 mm)
G1 Y49.0638 ;  Move Only (2 mm)
G1 X14.3174 Y51.0240 ;  Move Only (2 mm)
G1 X14.5441 Y52.9819 ;  Move Only (2 mm)
G1 X14.8825 Y54.9202 ;  Move Only (2 mm)
G1 X15.3323 Y56.8360 ;  Move Only (2 mm)
G1 X15.8915 Y58.7225 ;  Move Only (2 mm)
G1 X16.5587 Y60.5735 ;  Move Only (2 mm)
G1 X17.3319 Y62.3846 ;  Move Only (2 mm)
G1 X18.2072 Y64.1464 ;  Move Only (2 mm)
G1 X19.1819 Y65.8533 ;  Move Only (2 mm)
G1 X20.2548 Y67.5038 ;  Move Only (2 mm)
G1 X21.4217 Y69.0906 ;  Move Only (2 mm)
G1 X22.6770 Y70.6061 ;  Move Only (2 mm)
G1 X24.0160 Y72.0452 ;  Move Only (2 mm)
G1 X25.4379 Y73.4071 ;  Move Only (2 mm)
G1 X26.9353 Y74.6839 ;  Move Only (2 mm)
G1 X28.5012 Y75.8707 ;  Move Only (2 mm)
G1 X30.1397 Y76.9700 ;  Move Only (2 mm)
G1 X31.8310 Y77.9679 ;  Move Only (2 mm)
G1 X33.5815 Y78.8697 ;  Move Only (2 mm)
G1 X35.3788 Y79.6677 ;  Move Only (2 mm)
G1 X37.2221 Y80.3622 ;  Move Only (2 mm)
G1 X39.1014 Y80.9489 ;  Move Only (2 mm)
G1 X41.0074 Y81.4254 ;  Move Only (2 mm)
G1 X42.9411 Y81.7920 ;  Move Only (2 mm)
G1 X44.8942 Y82.0466 ;  Move Only (2 mm)
G1 X46.8550 Y82.1882 ;  Move Only (2 mm)
G1 X48.8230 Y82.2166 ;  Move Only (2 mm)
G1 X50.7907 Y82.1314 ;  Move Only (2 mm)
G1 X52.7473 Y81.9334 ;  Move Only (2 mm)
G1 X54.6906 Y81.6229 ;  Move Only (2 mm)
G1 X56.6116 Y81.2009 ;  Move Only (2 mm)
G1 X58.5076 Y80.6683 ;  Move Only (2 mm)
G1 X60.3661 Y80.0288 ;  Move Only (2 mm)
G1 X62.1877 Y79.2819 ;  Move Only (2 mm)
G1 X63.9628 Y78.4316 ;  Move Only (2 mm)
G1 X65.6852 Y77.4809 ;  Move Only (2 mm)
G1 X67.3516 Y76.4313 ;  Move Only (2 mm)
G1 X68.9505 Y75.2907 ;  Move Only (2 mm)
G1 X70.4866 Y74.0552 ;  Move Only (2 mm)
G1 X71.9467 Y72.7355 ;  Move Only (2 mm)
G1 X73.3255 Y71.3368 ;  Move Only (2 mm)
G1 X74.6258 Y69.8558 ;  Move Only (2 mm)
G1 X75.8368 Y68.3045 ;  Move Only (2 mm)
G1 X76.9556 Y66.6877 ;  Move Only (2 mm)
G1 X77.9799 Y65.0078 ;  Move Only (2 mm)
G1 X78.7594 Y63.5467 ;  Move Only (1.7 mm)
G1 X78.7536 Y63.3660 ;  Move Only (0.18 mm)
G1 X78.5890 Y63.3034 ;  Move Only (0.18 mm)
G1 X78.4137 Y63.2855 ;  Move Only (0.18 mm)
G1 X77.8515 Y63.3017 ;  Move Only (0.56 mm)
G1 X77.6451 Y63.3924 ;  Move Only (0.23 mm)
G1 X77.6177 Y63.4599 E54.04590 F1080 ; AbsE 0.0202 (5.00/-0.37 mm/s) 
G1 X77.5603 Y63.7539 E54.13517 ; AbsE 0.0832 (5.00/-0.37 mm/s) 
G1 X77.5392 Y63.9161 E54.18394 ; AbsE 0.0455 (5.00/-0.37 mm/s) 
G1 X77.4774 Y64.0677 E54.23271 ; AbsE 0.0455 (5.00/-0.37 mm/s) 
G1 X76.9281 Y65.0353 E54.56435 ; AbsE 0.3091 (5.00/-0.37 mm/s) 
G1 X76.7741 Y64.8353 E54.63959 ; AbsE 0.0701 (5.00/-0.37 mm/s) 
G1 Y63.6220 E55.00122 ; AbsE 0.3370 (5.00/-0.37 mm/s) 
G1 X76.6827 Y63.4014 E55.07239 ; AbsE 0.0663 (5.00/-0.37 mm/s) 
G1 X76.6708 Y63.3964 E55.07625 ; AbsE 0.0036 (5.00/-0.37 mm/s) 
G1 X76.6035 Y63.3760 E55.09718 ; AbsE 0.0195 (5.00/-0.37 mm/s) 
G1 X76.4578 Y63.3318 E55.10027 F1200
G1 X76.2362 Y63.3100 E55.10479
G1 X76.0606 Y63.3828 E55.10864
G1 X76.0062 Y63.5621 E55.11244
G1 X75.9878 Y63.7486 E55.11624
G1 Y66.2381 E55.16673
G1 X75.9424 Y66.5359 E55.17284
G1 X75.8103 Y66.8067 E55.17895
G1 X75.3791 Y67.4299 E55.19432
G1 X75.2508 Y67.3384 E55.19752
G1 X75.2140 Y67.1866 E55.20069
G1 X75.2016 Y67.0309 E55.20385
G1 Y64.4381 E55.25643
G1 X75.0016 Y64.4215 E55.26050
G1 X74.8359 Y64.5317 E55.26454
G1 X74.6883 Y64.6652 E55.26858
G1 X74.6304 Y64.7259 E55.27028
G1 X74.4711 Y64.9742 E55.27626
G1 X74.4153 Y65.2639 E55.28224
G1 Y68.3934 E55.34571
G1 X74.3644 Y68.6872 E55.35176
G1 X74.2178 Y68.9469 E55.35781
G1 X73.8266 Y69.4251 E55.37033
G1 X73.6834 Y69.3163 E55.37398
G1 X73.6428 Y69.1427 E55.37760
G1 X73.6291 Y68.9650 E55.38121
G1 Y66.0895 E55.43953
G1 X73.4291 Y66.0729 E55.44360
G1 X73.2633 Y66.1831 E55.44763
G1 X73.1157 Y66.3166 E55.45167
G1 X73.0581 Y66.3772 E55.45337
G1 X72.8987 Y66.6254 E55.45935
G1 X72.8429 Y66.9151 E55.46533
G1 Y70.2497 E55.53296
G1 X72.7868 Y70.5391 E55.53893
G1 X72.6266 Y70.7866 E55.54491
G1 X72.2729 Y71.1542 E55.55526
G1 X72.1157 Y71.0272 E55.55936
G1 X72.0715 Y70.8317 E55.56342
G1 X72.0566 Y70.6318 E55.56749
G1 Y67.7408 E55.62612
G1 X71.9668 Y67.5863 E55.62974
G1 X71.7945 Y67.6106 F4800 ;  Move Only (0.17 mm)
G1 X71.6344 Y67.6788 ;  Move Only (0.17 mm)
G1 X71.5389 Y67.7354 ;  Move Only (0.11 mm)
G1 X71.3422 Y67.9353 ;  Move Only (0.28 mm)
G1 X71.2884 Y68.2087 E55.63539 F1200
G1 X71.2704 Y68.4868 E55.64104
G1 Y71.8568 E55.70939
G1 X71.2099 Y72.1419 E55.71530
G1 X71.0276 Y72.3678 E55.72119
G1 X70.8227 Y72.5735 E55.72707
G1 X70.7156 Y72.6703 E55.73000
G1 X70.5664 Y72.6941 E55.73306
G1 X70.4841 Y72.4165 E55.73894
G1 Y67.4492 E55.83967
G1 X70.4256 Y67.1621 E55.84562
G1 X70.2481 Y66.9303 E55.85154
G1 X70.0483 Y66.7175 E55.85746
G1 X69.9226 Y66.5965 E55.86099
G1 X69.7592 Y66.7326 E55.86531
G1 X69.7133 Y66.9386 E55.86959
G1 X69.6979 Y67.1490 E55.87387
G1 Y73.2560 E55.99772
G1 X69.6340 Y73.5374 E56.00357
G1 X69.4433 Y73.7522 E56.00939
G1 X69.2299 Y73.9444 E56.01522
G1 X69.1548 Y74.0048 E56.01717
G1 X68.9966 Y74.0232 E56.02040
G1 X68.9117 Y73.7291 E56.02661
G1 Y65.9350 E56.18467
G1 X68.8532 Y65.6479 E56.19062
G1 X68.6757 Y65.4161 E56.19654
G1 X68.4759 Y65.2033 E56.20246
G1 X68.3501 Y65.0822 E56.20600
G1 X68.1867 Y65.2183 E56.21031
G1 X68.1408 Y65.4243 E56.21459
G1 X68.1254 Y65.6347 E56.21887
G1 Y74.4941 E56.39854
G1 X68.0582 Y74.7715 E56.40432
G1 X67.8599 Y74.9747 E56.41008
G1 X67.6390 Y75.1529 E56.41584
G1 X67.5932 Y75.1856 E56.41698
G1 X67.4263 Y75.1976 E56.42037
G1 X67.3614 Y75.0485 E56.42367
G1 X67.3392 Y74.8874 E56.42697
G1 Y64.4207 E56.63923
G1 X67.2807 Y64.1336 E56.64518
G1 X67.1032 Y63.9018 E56.65109
G1 X66.9034 Y63.6890 E56.65701
G1 X66.7776 Y63.5679 E56.66056
G1 X66.6142 Y63.7040 E56.66487
G1 X66.5683 Y63.9100 E56.66915
G1 X66.5529 Y64.1204 E56.67343
G1 Y75.5895 E56.90602
G1 X66.4825 Y75.8626 E56.91174
G1 X66.2776 Y76.0540 E56.91743
G1 X66.0502 Y76.2180 E56.92311
G1 X66.0307 Y76.2303 E56.92358
G1 X65.8557 Y76.2353 E56.92713
G1 X65.7893 Y76.0783 E56.93059
G1 X65.7667 Y75.9094 E56.93404
G1 Y62.9064 E57.19774
G1 X65.7082 Y62.6193 E57.20369
G1 X65.5307 Y62.3875 E57.20961
G1 X65.3309 Y62.1747 E57.21553
G1 X65.2052 Y62.0537 E57.21906
G1 X65.0418 Y62.1898 E57.22338
G1 X64.9959 Y62.3958 E57.22766
G1 X64.9805 Y62.6062 E57.23194
G1 Y76.5593 E57.51490
G1 X64.9071 Y76.8280 E57.52055
G1 X64.6963 Y77.0072 E57.52616
G1 X64.4636 Y77.1569 E57.53178
G1 X64.2835 Y77.1543 E57.53543
G1 X64.2169 Y76.9919 E57.53899
G1 X64.1942 Y76.8178 E57.54255
G1 Y61.3920 E57.85538
G1 X64.1357 Y61.1049 E57.86133
G1 X63.9582 Y60.8731 E57.86725
G1 X63.7584 Y60.6603 E57.87317
G1 X63.6327 Y60.5393 E57.87670
G1 X63.4693 Y60.6754 E57.88102
G1 X63.4234 Y60.8814 E57.88530
G1 X63.4080 Y61.0918 E57.88958
G1 Y77.4168 E58.22065
G1 X63.3318 Y77.6808 E58.22622
G1 X63.3257 Y77.6863 E58.22639
G1 X63.1162 Y77.8479 E58.23175
G1 X62.8862 Y77.9787 E58.23712
G1 X62.7080 Y77.9684 E58.24074
G1 X62.6436 Y77.8064 E58.24427
G1 X62.6217 Y77.6336 E58.24781
G1 Y59.8777 E58.60789
G1 X62.5632 Y59.5906 E58.61384
G1 X62.3857 Y59.3588 E58.61976
G1 X62.1859 Y59.1460 E58.62568
G1 X62.0602 Y59.0250 E58.62921
G1 X61.8968 Y59.1611 E58.63353
G1 X61.8509 Y59.3671 E58.63781
G1 X61.8355 Y59.5775 E58.64209
G1 Y78.1697 E59.01914
G1 X61.7567 Y78.4289 E59.02463
G1 X61.7453 Y78.4382 E59.02493
G1 X61.5372 Y78.5840 E59.03008
G1 X61.3099 Y78.6976 E59.03523
G1 X61.1330 Y78.6797 E59.03884
G1 X61.0705 Y78.5175 E59.04236
G1 X61.0493 Y78.3450 E59.04589
G1 Y58.3635 E59.45111
G1 X60.9908 Y58.0764 E59.45706
G1 X60.8133 Y57.8446 E59.46298
G1 X60.6135 Y57.6318 E59.46890
G1 X60.4877 Y57.5107 E59.47244
G1 X60.3243 Y57.6468 E59.47675
G1 X60.2784 Y57.8528 E59.48103
G1 X60.2630 Y58.0632 E59.48531
G1 Y78.8152 E59.90616
G1 X60.1823 Y79.0706 E59.91159
G1 X60.1678 Y79.0817 E59.91196
G1 X59.9604 Y79.2164 E59.91698
G1 X59.7349 Y79.3180 E59.92199
G1 X59.5588 Y79.2944 E59.92560
G1 X59.4976 Y79.1317 E59.92912
G1 X59.4768 Y78.9591 E59.93265
G1 Y56.8492 E60.38104
G1 X59.4183 Y56.5621 E60.38698
G1 X59.2408 Y56.3303 E60.39290
G1 X59.0410 Y56.1175 E60.39882
G1 X58.9152 Y55.9964 E60.40236
G1 X58.7518 Y56.1325 E60.40667
G1 X58.7059 Y56.3385 E60.41095
G1 X58.6905 Y56.5489 E60.41523
G1 Y79.3696 E60.87803
G1 X58.6082 Y79.6213 E60.88340
G1 X58.5913 Y79.6334 E60.88383
G1 X58.3844 Y79.7585 E60.88873
G1 X58.1603 Y79.8494 E60.89363
G1 X57.9848 Y79.8205 E60.89724
G1 X57.9247 Y79.6570 E60.90077
G1 X57.9043 Y79.4840 E60.90431
G1 Y55.3349 E61.39405
G1 X57.8458 Y55.0478 E61.39999
G1 X57.6683 Y54.8160 E61.40591
G1 X57.4685 Y54.6032 E61.41183
G1 X57.3428 Y54.4822 E61.41537
G1 X57.1794 Y54.6183 E61.41968
G1 X57.1335 Y54.8243 E61.42396
G1 X57.1181 Y55.0347 E61.42824
G1 Y79.8392 E61.93128
G1 X57.0343 Y80.0874 E61.93659
G1 X57.0160 Y80.0998 E61.93704
G1 X56.8091 Y80.2163 E61.94185
G1 X56.5861 Y80.2978 E61.94667
G1 X56.4110 Y80.2639 E61.95029
G1 X56.3519 Y80.0994 E61.95383
G1 X56.3318 Y79.9257 E61.95738
G1 Y53.8206 E62.48679
G1 X56.2583 Y53.5521 E62.49244
G1 X56.0473 Y53.3733 F4800 ;  Move Only (0.28 mm)
G1 X55.8144 Y53.2243 ;  Move Only (0.28 mm)
G1 X55.6346 Y53.2271 ;  Move Only (0.18 mm)
G1 X55.5682 Y53.3893 E62.49599 F1200
G1 X55.5456 Y53.5630 E62.49954
G1 Y80.2286 E63.04032
G1 X55.4600 Y80.4717 E63.04555
G1 X55.4404 Y80.4839 E63.04602
G1 X55.2334 Y80.5891 E63.05073
G1 X55.0116 Y80.6580 E63.05544
G1 X54.8368 Y80.6170 E63.05908
G1 X54.7789 Y80.4507 E63.06265
G1 X54.7593 Y80.2757 E63.06622
G1 Y52.6220 E63.62703
G1 X54.6679 Y52.4014 E63.63188
G1 X54.6559 Y52.3964 E63.63214
G1 X54.4430 Y52.3318 E63.63665
G1 X54.2215 Y52.3100 E63.64117
G1 X54.0459 Y52.3828 E63.64502
G1 X53.9915 Y52.5620 E63.64882
G1 X53.9731 Y52.7485 E63.65262
G1 Y80.5410 E64.21625
G1 X53.8856 Y80.7784 E64.22138
G1 X53.8661 Y80.7893 E64.22184
G1 X53.6583 Y80.8829 E64.22646
G1 X53.4373 Y80.9385 E64.23108
G1 X53.2628 Y80.8895 E64.23476
G1 X53.2061 Y80.7207 E64.23837
G1 X53.1869 Y80.5436 E64.24198
G1 Y52.6220 E64.80823
G1 X53.0955 Y52.4014 E64.81307
G1 X53.0836 Y52.3964 E64.81334
G1 X52.8706 Y52.3318 E64.81785
G1 X52.6490 Y52.3100 E64.82236
G1 X52.4734 Y52.3828 E64.82622
G1 X52.4190 Y52.5621 E64.83002
G1 X52.4006 Y52.7486 E64.83382
G1 Y80.7785 E65.40227
G1 X52.3115 Y81.0100 E65.40730
G1 X52.2934 Y81.0191 E65.40771
G1 X52.0843 Y81.1018 E65.41227
G1 X51.8636 Y81.1449 E65.41683
G1 X51.6890 Y81.0876 E65.42056
G1 X51.6333 Y80.9156 E65.42422
G1 X51.6144 Y80.7358 E65.42789
G1 Y52.6220 E65.99804
G1 X51.5230 Y52.4014 E66.00288
G1 X51.5111 Y52.3964 E66.00314
G1 X51.2981 Y52.3318 E66.00765
G1 X51.0765 Y52.3100 E66.01217
G1 X50.9009 Y52.3828 E66.01603
G1 X50.8465 Y52.5621 E66.01983
G1 X50.8281 Y52.7486 E66.02363
G1 Y80.9378 E66.59530
G1 X50.7378 Y81.1639 E66.60024
G1 X50.7221 Y81.1711 E66.60059
G1 X50.5114 Y81.2445 E66.60512
G1 X50.2905 Y81.2768 E66.60964
G1 X50.1155 Y81.2119 E66.61343
G1 X50.0605 Y81.0366 E66.61715
G1 X50.0419 Y80.8537 E66.62088
G1 Y52.6220 E67.19342
G1 X49.9505 Y52.4014 E67.19826
G1 X49.9385 Y52.3964 E67.19853
G1 X49.7256 Y52.3318 E67.20304
G1 X49.5041 Y52.3100 E67.20755
G1 X49.3285 Y52.3828 E67.21141
G1 X49.2741 Y52.5620 E67.21521
G1 X49.2557 Y52.7485 E67.21901
G1 Y81.0113 E67.79218
G1 X49.1647 Y81.2339 E67.79706
G1 X49.1513 Y81.2397 E67.79735
G1 X48.9391 Y81.3075 E67.80187
G1 X48.7179 Y81.3331 E67.80639
G1 X48.5425 Y81.2633 E67.81021
G1 X48.4878 Y81.0855 E67.81399
G1 X48.4694 Y80.9004 E67.81776
G1 Y52.6220 E68.39125
G1 X48.3780 Y52.4014 E68.39609
G1 X48.3660 Y52.3964 E68.39635
G1 X48.1531 Y52.3318 E68.40086
G1 X47.9316 Y52.3100 E68.40538
G1 X47.7560 Y52.3828 E68.40923
G1 X47.7016 Y52.5620 E68.41303
G1 X47.6832 Y52.7485 E68.41683
G1 Y81.0143 E68.99006
G1 X47.5916 Y81.2333 E68.99488
G1 X47.5809 Y81.2376 E68.99511
G1 X47.3671 Y81.2997 E68.99962
G1 X47.1454 Y81.3185 E69.00414
G1 X46.9695 Y81.2434 E69.00802
G1 X46.9152 Y81.0628 E69.01184
G1 X46.8969 Y80.8751 E69.01567
G1 Y52.6220 E69.58864
G1 X46.8055 Y52.4014 E69.59348
G1 X46.7935 Y52.3964 E69.59375
G1 X46.5806 Y52.3318 E69.59826
G1 X46.3591 Y52.3100 E69.60277
G1 X46.1835 Y52.3828 E69.60663
G1 X46.1291 Y52.5620 E69.61043
G1 X46.1107 Y52.7485 E69.61423
G1 Y80.9463 E70.18608
G1 X46.0181 Y81.1588 E70.19078
G1 X46.0134 Y81.1604 E70.19088
G1 X45.7964 Y81.2126 E70.19541
G1 X45.5733 Y81.2193 E70.19993
G1 X45.3963 Y81.1345 E70.20391
G1 X45.3426 Y80.9484 E70.20784
G1 X45.3245 Y80.7555 E70.21177
G1 Y52.6220 E70.78232
G1 X45.2331 Y52.4014 E70.78716
G1 X45.2212 Y52.3964 E70.78742
G1 X45.0082 Y52.3318 E70.79194
G1 X44.7866 Y52.3100 E70.79645
G1 X44.6110 Y52.3828 E70.80031
G1 X44.5566 Y52.5621 E70.80411
G1 X44.5382 Y52.7486 E70.80791
G1 Y80.8068 E71.37693
G1 X44.4450 Y81.0127 E71.38151
G1 X44.2268 Y81.0546 E71.38602
G1 X44.0047 Y81.0494 E71.39052
G1 X43.8241 Y80.9532 E71.39467
G1 X43.7702 Y80.7585 E71.39877
G1 X43.7520 Y80.5572 E71.40287
G1 Y52.6220 E71.96939
G1 X43.6606 Y52.4014 E71.97424
G1 X43.6487 Y52.3964 E71.97450
G1 X43.4357 Y52.3318 E71.97901
G1 X43.2141 Y52.3100 E71.98353
G1 X43.0385 Y52.3828 E71.98738
G1 X42.9841 Y52.5621 E71.99118
G1 X42.9657 Y52.7486 E71.99499
G1 Y80.5958 E72.55973
G1 X42.8721 Y80.7948 E72.56419
G1 X42.6584 Y80.8254 E72.56857
G1 X42.4431 Y80.8087 E72.57294
G1 X42.2540 Y80.6970 E72.57740
G1 X42.1983 Y80.4871 E72.58180
G1 X42.1795 Y80.2708 E72.58621
G1 Y52.6220 E73.14692
G1 X42.0881 Y52.4014 E73.15177
G1 X42.0761 Y52.3964 E73.15203
G1 X41.8632 Y52.3318 E73.15654
G1 X41.6417 Y52.3100 E73.16106
G1 X41.4661 Y52.3828 E73.16491
G1 X41.4117 Y52.5620 E73.16871
G1 X41.3933 Y52.7485 E73.17251
G1 Y80.2976 E73.73121
G1 X41.2996 Y80.4914 E73.73557
G1 X41.0897 Y80.5140 E73.73985
G1 X40.8800 Y80.4891 E73.74414
G1 X40.6835 Y80.3644 E73.74886
G1 X40.6263 Y80.1413 E73.75353
G1 X40.6070 Y79.9118 E73.75820
G1 Y52.6220 E74.31163
G1 X40.5156 Y52.4014 E74.31648
G1 X40.5036 Y52.3964 E74.31674
G1 X40.2907 Y52.3318 E74.32125
G1 X40.0692 Y52.3100 E74.32577
G1 X39.8936 Y52.3828 E74.32962
G1 X39.8392 Y52.5620 E74.33342
G1 X39.8208 Y52.7485 E74.33722
G1 Y79.9167 E74.88819
G1 X39.7271 Y80.1059 E74.89247
G1 X39.5208 Y80.1219 E74.89667
G1 X39.3162 Y80.0905 E74.90087
G1 X39.1130 Y79.9534 E74.90584
G1 X39.0543 Y79.7179 E74.91076
G1 X39.0345 Y79.4760 E74.91568
G1 Y52.6220 E75.46028
G1 X38.9431 Y52.4014 E75.46513
G1 X38.9311 Y52.3964 E75.46539
G1 X38.7182 Y52.3318 E75.46990
G1 X38.4967 Y52.3100 E75.47442
G1 X38.3211 Y52.3828 E75.47827
G1 X38.2667 Y52.5620 E75.48207
G1 X38.2483 Y52.7485 E75.48587
G1 Y79.4555 E76.02749
G1 X38.1548 Y79.6399 E76.03168
G1 X37.9526 Y79.6491 E76.03579
G1 X37.7538 Y79.6110 E76.03989
G1 X37.5428 Y79.4596 E76.04516
G1 X37.4824 Y79.2095 E76.05037
G1 X37.4621 Y78.9531 E76.05559
G1 Y52.6220 E76.58959
G1 X37.3707 Y52.4014 E76.59443
G1 X37.3588 Y52.3964 E76.59469
G1 X37.1458 Y52.3318 E76.59921
G1 X36.9242 Y52.3100 E76.60372
G1 X36.7486 Y52.3828 E76.60758
G1 X36.6942 Y52.5621 E76.61138
G1 X36.6758 Y52.7486 E76.61518
G1 Y78.9106 E77.14574
G1 X36.5828 Y79.0881 E77.14981
G1 X36.3867 Y79.0885 E77.15378
G1 X36.1962 Y79.0420 E77.15776
G1 X36.1816 Y79.0365 E77.15808
G1 X35.9697 Y78.8711 E77.16353
G1 X35.9097 Y78.6114 E77.16893
G1 X35.8896 Y78.3457 E77.17434
G1 Y52.6220 E77.69601
G1 X35.7982 Y52.4014 E77.70086
G1 X35.7863 Y52.3964 E77.70112
G1 X35.5733 Y52.3318 E77.70563
G1 X35.3517 Y52.3100 E77.71015
G1 X35.1761 Y52.3828 E77.71400
G1 X35.1217 Y52.5621 E77.71780
G1 X35.1033 Y52.7486 E77.72160
G1 Y78.2775 E78.23933
G1 X35.0110 Y78.4476 E78.24325
G1 X34.8222 Y78.4391 E78.24709
G1 X34.6412 Y78.3845 E78.25092
G1 X34.6023 Y78.3672 E78.25179
G1 X34.3947 Y78.1902 E78.25732
G1 X34.3366 Y77.9258 E78.26281
G1 X34.3171 Y77.6558 E78.26830
G1 Y52.7759 E78.77286
G1 X34.2245 Y52.6028 E78.77684
G1 X34.0326 Y52.6077 F4800 ;  Move Only (0.19 mm)
G1 X33.8477 Y52.6592 ;  Move Only (0.19 mm)
G1 X33.8190 Y52.6712 ;  Move Only (0.031 mm)
G1 X33.6095 Y52.8434 ;  Move Only (0.27 mm)
G1 X33.5507 Y53.1059 E78.78230 F1200
G1 X33.5309 Y53.3742 E78.78775
G1 Y77.5495 E79.27803
G1 X33.4397 Y77.7119 E79.28181
G1 X33.2588 Y77.6953 E79.28549
G1 X33.0879 Y77.6333 E79.28918
G1 X33.0220 Y77.5994 E79.29068
G1 X32.8194 Y77.4109 E79.29629
G1 X32.7634 Y77.1419 E79.30186
G1 X32.7446 Y76.8678 E79.30744
G1 Y52.4377 E79.80288
G1 X32.6822 Y52.1547 E79.80876
G1 X32.4950 Y51.9350 E79.81461
G1 X32.2852 Y51.7369 E79.82046
G1 X32.1966 Y51.6619 E79.82282
G1 X32.0422 Y51.6411 E79.82597
G1 X31.9584 Y51.9281 E79.83204
G1 Y76.7176 E80.33477
G1 X31.8686 Y76.8723 E80.33840
G1 X31.6960 Y76.8483 E80.34193
G1 X31.5356 Y76.7802 E80.34546
G1 X31.4408 Y76.7242 E80.34770
G1 X31.2440 Y76.5246 E80.35338
G1 X31.1902 Y76.2513 E80.35903
G1 X31.1721 Y75.9734 E80.36468
G1 Y51.1071 E80.86897
G1 X31.1097 Y50.8241 E80.87484
G1 X30.9225 Y50.6044 E80.88070
G1 X30.7126 Y50.4064 E80.88655
G1 X30.6241 Y50.3314 E80.88890
G1 X30.4697 Y50.3106 E80.89206
G1 X30.3859 Y50.5977 E80.89812
G1 Y75.7719 E81.40866
G1 X30.2978 Y75.9187 E81.41213
G1 X30.1342 Y75.8879 E81.41550
G1 X29.9848 Y75.8145 E81.41888
G1 X29.8587 Y75.7298 E81.42196
G1 X29.6685 Y75.5192 E81.42772
G1 X29.6170 Y75.2418 E81.43344
G1 X29.5997 Y74.9601 E81.43916
G1 Y49.7767 E81.94988
G1 X29.5373 Y49.4937 E81.95576
G1 X29.3501 Y49.2740 E81.96161
G1 X29.1403 Y49.0760 E81.96746
G1 X29.0516 Y49.0009 E81.96982
G1 X28.8972 Y48.9801 E81.97298
G1 X28.8134 Y49.2672 E81.97904
G1 Y74.6991 E82.49480
G1 X28.7273 Y74.8380 E82.49812
G1 X28.5729 Y74.8015 E82.50133
G1 X28.4344 Y74.7241 E82.50455
G1 X28.2759 Y74.6041 E82.50858
G1 X28.0928 Y74.3831 E82.51440
G1 X28.0437 Y74.1018 E82.52019
G1 X28.0272 Y73.8167 E82.52598
G1 Y48.4462 E83.04050
G1 X27.9648 Y48.1632 E83.04638
G1 X27.7776 Y47.9435 E83.05223
G1 X27.5678 Y47.7455 E83.05808
G1 X27.4791 Y47.6704 E83.06044
G1 X27.3247 Y47.6496 E83.06360
G1 X27.2409 Y47.9367 E83.06966
G1 Y73.4853 E83.58779
G1 X27.1573 Y73.6160 E83.59093
G1 X26.8854 Y73.4941 E83.59697
G1 X26.6921 Y73.3293 E83.60213
G1 X26.5169 Y73.0981 E83.60801
G1 X26.4703 Y72.8131 E83.61387
G1 X26.4547 Y72.5248 E83.61972
G1 Y47.1157 E84.13502
G1 X26.3923 Y46.8327 E84.14090
G1 X26.2051 Y46.6130 E84.14675
G1 X25.9953 Y46.4149 E84.15260
G1 X25.9067 Y46.3399 E84.15495
G1 X25.7523 Y46.3191 E84.15811
G1 X25.6685 Y46.6061 E84.16418
G1 Y72.1069 E84.68133
G1 X25.4564 Y72.1307 E84.68566
G1 X25.2753 Y72.0209 E84.68996
G1 X25.1121 Y71.8860 E84.69425
G1 X25.1075 Y71.8816 E84.69438
G1 X24.9409 Y71.6407 E84.70032
G1 X24.8969 Y71.3523 E84.70623
G1 X24.8822 Y71.0609 E84.71215
G1 Y45.7851 E85.22475
G1 X24.8198 Y45.5021 E85.23062
G1 X24.6326 Y45.2824 E85.23648
G1 X24.4227 Y45.0844 E85.24233
G1 X24.3342 Y45.0094 E85.24468
G1 X24.1798 Y44.9886 E85.24784
G1 X24.0960 Y45.2757 E85.25390
G1 Y70.5377 E85.76622
G1 X23.8996 Y70.5524 E85.77021
G1 X23.7382 Y70.4423 E85.77417
G1 X23.5951 Y70.3093 E85.77814
G1 X23.5218 Y70.2303 E85.78032
G1 X23.3646 Y69.9800 E85.78632
G1 X23.3097 Y69.6895 E85.79231
G1 Y44.4546 E86.30407
G1 X23.2473 Y44.1716 E86.30995
G1 X23.0601 Y43.9519 E86.31580
G1 X22.8502 Y43.7539 E86.32166
G1 X22.7617 Y43.6789 E86.32401
G1 X22.6073 Y43.6581 E86.32717
G1 X22.5235 Y43.9452 E86.33323
G1 Y68.7403 E86.83608
G1 X22.3499 Y68.7441 E86.83960
G1 X22.2155 Y68.6365 E86.84309
G1 X22.0993 Y68.5095 E86.84658
G1 X21.9294 Y68.2920 E86.85218
G1 X21.7867 Y68.0292 E86.85824
G1 X21.7373 Y67.7342 E86.86431
G1 Y43.1242 E87.36340
G1 X21.6749 Y42.8412 E87.36928
G1 X21.4877 Y42.6215 E87.37513
G1 X21.2779 Y42.4235 E87.38098
G1 X21.1892 Y42.3484 E87.38334
G1 X21.0348 Y42.3276 E87.38650
G1 X20.9510 Y42.6147 E87.39256
G1 Y66.6612 E87.88022
G1 X20.6844 Y66.5629 E87.88599
G1 X20.3348 Y66.0250 E87.89900
G1 X20.2082 Y65.7505 E87.90513
G1 X20.1648 Y65.4514 E87.91126
G1 Y41.7937 E88.39104
G1 X20.1024 Y41.5107 E88.39691
G1 X19.9152 Y41.2910 E88.40277
G1 X19.7054 Y41.0930 E88.40862
G1 X19.6167 Y41.0179 E88.41097
G1 X19.4623 Y40.9971 E88.41413
G1 X19.3785 Y41.2842 E88.42020
G1 Y64.1248 E88.88340
G1 X19.1609 Y64.0280 E88.88823
G1 X18.7389 Y63.2351 E88.90645
G1 X18.6295 Y62.9504 E88.91263
G1 X18.5923 Y62.6477 E88.91882
G1 Y40.4631 E89.36872
G1 X18.5299 Y40.1801 E89.37460
G1 X18.3427 Y39.9604 E89.38045
G1 X18.1328 Y39.7624 E89.38631
G1 X18.0443 Y39.6874 E89.38866
G1 X17.8899 Y39.6666 E89.39182
G1 X17.8061 Y39.9537 E89.39788
G1 Y60.9607 E89.82390
G1 X17.6489 Y60.8741 E89.82755
G1 X17.1343 Y59.5693 E89.85599
G1 X17.0487 Y59.2736 E89.86223
G1 X17.0198 Y58.9671 E89.86848
G1 Y39.1326 E90.27072
G1 X16.9318 Y38.9862 E90.27418
G1 X16.7686 Y39.0172 E90.27755
G1 X16.6196 Y39.0908 E90.28092
G1 X16.4922 Y39.1768 E90.28404
G1 X16.3023 Y39.3879 E90.28980
G1 X16.2508 Y39.6655 E90.29552
G1 X16.2336 Y39.9473 E90.30125
G1 Y56.4931 E90.63680
G1 X16.1558 Y56.4364 E90.63875
G1 X15.5117 Y53.3855 E90.70199
G1 X15.4635 Y53.0785 E90.70829
G1 X15.4473 Y52.7682 E90.71459
G1 Y45.0557 E90.87100
G1 Y43.0801 E90.36228 F1080 ; AbsE -0.5488 (-5.00/-0.37 mm/s) 
G1 X15.6850 Y41.7176 E90.00613 ; AbsE -0.3842 (-5.00/-0.37 mm/s) 
G1 X15.6339 Y41.4818 E89.94401 ; AbsE -0.0670 (-5.00/-0.37 mm/s) 
G1 X15.4238 Y41.3701 F4800 ;  Move Only (0.24 mm)
G1 X15.1963 Y41.3009 ;  Move Only (0.24 mm)
G1 X14.9568 Y41.3463 ;  Move Only (0.24 mm)
G1 X14.8509 Y41.5536 ;  Move Only (0.23 mm)
G1 X14.7883 Y41.7777 ;  Move Only (0.23 mm)
G1 X14.5443 Y43.1759 ;  Move Only (1.4 mm)
G1 X14.2956 Y45.5136 ;  Move Only (2.4 mm)
G1 X14.2044 Y47.0941 ;  Move Only (1.6 mm)
G1 Y49.0638 ;  Move Only (2 mm)
G1 X14.3174 Y51.0240 ;  Move Only (2 mm)
G1 X14.5441 Y52.9819 ;  Move Only (2 mm)
G1 X14.8825 Y54.9202 ;  Move Only (2 mm)
G1 X15.3323 Y56.8360 ;  Move Only (2 mm)
G1 X15.8915 Y58.7225 ;  Move Only (2 mm)
G1 X16.5587 Y60.5735 ;  Move Only (2 mm)
G1 X17.3319 Y62.3846 ;  Move Only (2 mm)
G1 X18.2072 Y64.1464 ;  Move Only (2 mm)
G1 X19.1819 Y65.8533 ;  Move Only (2 mm)
G1 X20.2548 Y67.5038 ;  Move Only (2 mm)
G1 X21.4217 Y69.0906 ;  Move Only (2 mm)
G1 X22.6770 Y70.6061 ;  Move Only (2 mm)
G1 X24.0160 Y72.0452 ;  Move Only (2 mm)
G1 X25.4379 Y73.4071 ;  Move Only (2 mm)
G1 X26.9353 Y74.6839 ;  Move Only (2 mm)
G1 X28.5012 Y75.8707 ;  Move Only (2 mm)
G1 X30.1397 Y76.9700 ;  Move Only (2 mm)
G1 X31.8310 Y77.9679 ;  Move Only (2 mm)
G1 X33.5815 Y78.8697 ;  Move Only (2 mm)
G1 X35.3788 Y79.6677 ;  Move Only (2 mm)
G1 X37.2221 Y80.3622 ;  Move Only (2 mm)
G1 X39.1014 Y80.9489 ;  Move Only (2 mm)
G1 X41.0074 Y81.4254 ;  Move Only (2 mm)
G1 X42.9411 Y81.7920 ;  Move Only (2 mm)
G1 X44.8942 Y82.0466 ;  Move Only (2 mm)
G1 X46.8550 Y82.1882 ;  Move Only (2 mm)
G1 X48.8230 Y82.2166 ;  Move Only (2 mm)
G1 X50.7907 Y82.1314 ;  Move Only (2 mm)
G1 X52.7473 Y81.9334 ;  Move Only (2 mm)
G1 X54.6906 Y81.6229 ;  Move Only (2 mm)
G1 X56.6116 Y81.2009 ;  Move Only (2 mm)
G1 X58.5076 Y80.6683 ;  Move Only (2 mm)
G1 X60.3661 Y80.0288 ;  Move Only (2 mm)
G1 X62.1877 Y79.2819 ;  Move Only (2 mm)
G1 X63.9628 Y78.4316 ;  Move Only (2 mm)
G1 X65.6852 Y77.4809 ;  Move Only (2 mm)
G1 X67.3516 Y76.4313 ;  Move Only (2 mm)
G1 X68.9505 Y75.2907 ;  Move Only (2 mm)
G1 X70.4866 Y74.0552 ;  Move Only (2 mm)
G1 X71.9467 Y72.7355 ;  Move Only (2 mm)
G1 X73.3255 Y71.3368 ;  Move Only (2 mm)
G1 X74.6258 Y69.8558 ;  Move Only (2 mm)
G1 X75.8368 Y68.3045 ;  Move Only (2 mm)
G1 X76.9556 Y66.6877 ;  Move Only (2 mm)
G1 X77.9799 Y65.0078 ;  Move Only (2 mm)
G1 X78.9063 Y63.2714 ;  Move Only (2 mm)
G1 X79.7312 Y61.4837 ;  Move Only (2 mm)
G1 X80.4518 Y59.6510 ;  Move Only (2 mm)
G1 X81.0637 Y57.7857 ;  Move Only (2 mm)
G1 X81.5694 Y55.8798 ;  Move Only (2 mm)
G1 X81.9635 Y53.9533 ;  Move Only (2 mm)
G1 X82.2460 Y52.0062 ;  Move Only (2 mm)
G1 X82.4159 Y50.0456 ;  Move Only (2 mm)
G1 X82.4730 Y48.0785 ;  Move Only (2 mm)
G1 X82.4159 Y46.1121 ;  Move Only (2 mm)
G1 X82.2459 Y44.1508 ;  Move Only (2 mm)
G1 X81.9635 Y42.2048 ;  Move Only (2 mm)
G1 X81.5692 Y40.2773 ;  Move Only (2 mm)
G1 X81.0637 Y38.3720 ;  Move Only (2 mm)
G1 X80.4515 Y36.5060 ;  Move Only (2 mm)
G1 X79.7312 Y34.6741 ;  Move Only (2 mm)
G1 X78.9051 Y32.8843 ;  Move Only (2 mm)
G1 X77.9808 Y31.1512 ;  Move Only (2 mm)
G1 X76.9561 Y29.4713 ;  Move Only (2 mm)
G1 X75.8354 Y27.8514 ;  Move Only (2 mm)
G1 X74.6257 Y26.3020 ;  Move Only (2 mm)
G1 X73.3255 Y24.8209 ;  Move Only (2 mm)
G1 X71.9467 Y23.4221 ;  Move Only (2 mm)
G1 X70.4859 Y22.1019 ;  Move Only (2 mm)
G1 X68.9505 Y20.8669 ;  Move Only (2 mm)
G1 X67.3516 Y19.7265 ;  Move Only (2 mm)
G1 X65.6852 Y18.6769 ;  Move Only (2 mm)
G1 X63.9626 Y17.7263 ;  Move Only (2 mm)
G1 X62.1864 Y16.8753 ;  Move Only (2 mm)
G1 X60.3676 Y16.1295 ;  Move Only (2 mm)
G1 X58.5076 Y15.4893 ;  Move Only (2 mm)
G1 X56.6116 Y14.9569 ;  Move Only (2 mm)
G1 X54.6906 Y14.5350 ;  Move Only (2 mm)
G1 X52.7473 Y14.2243 ;  Move Only (2 mm)
G1 X50.7907 Y14.0262 ;  Move Only (2 mm)
G1 X48.8230 Y13.9412 ;  Move Only (2 mm)
G1 X46.8550 Y13.9694 ;  Move Only (2 mm)
G1 X44.8925 Y14.1114 ;  Move Only (2 mm)
G1 X42.9428 Y14.3656 ;  Move Only (2 mm)
G1 X41.0070 Y14.7325 ;  Move Only (2 mm)
G1 X39.1017 Y15.2086 ;  Move Only (2 mm)
G1 X37.2216 Y15.7958 ;  Move Only (2 mm)
G1 X35.3788 Y16.4900 ;  Move Only (2 mm)
G1 X33.5815 Y17.2882 ;  Move Only (2 mm)
G1 X31.8310 Y18.1897 ;  Move Only (2 mm)
G1 X30.1397 Y19.1878 ;  Move Only (2 mm)
G1 X28.5024 Y20.2862 ;  Move Only (2 mm)
G1 X26.9342 Y21.4745 ;  Move Only (2 mm)
G1 X25.4379 Y22.7507 ;  Move Only (2 mm)
G1 X24.0160 Y24.1126 ;  Move Only (2 mm)
G1 X22.6763 Y25.5520 ;  Move Only (2 mm)
G1 X21.4223 Y27.0666 ;  Move Only (2 mm)
G1 X20.2548 Y28.6540 ;  Move Only (2 mm)
G1 X19.1826 Y30.3033 ;  Move Only (2 mm)
G1 X18.2069 Y32.0121 ;  Move Only (2 mm)
G1 X17.3317 Y33.7741 ;  Move Only (2 mm)
G1 X17.1754 Y34.1401 ;  Move Only (0.4 mm)
G1 X17.2137 Y34.2610 ;  Move Only (0.13 mm)
G1 X17.2694 Y34.3324 ;  Move Only (0.091 mm)
G1 X17.3208 Y34.3785 ;  Move Only (0.069 mm)
G1 X17.3786 Y34.3693 ;  Move Only (0.059 mm)
G1 X19.7357 Y31.5838 ;  Move Only (3.6 mm)
G1 X19.9479 Y31.4744 ;  Move Only (0.24 mm)
G1 X20.1640 Y31.5677 ;  Move Only (0.24 mm)
G1 X20.3577 Y31.7014 ;  Move Only (0.24 mm)
G1 X35.5052 Y44.5188 ;  Move Only (20 mm)
G1 X35.7624 Y44.6683 ;  Move Only (0.3 mm)
G1 X36.0554 Y44.7203 ;  Move Only (0.3 mm)
G1 X48.0817 ;  Move Only (12 mm)
G1 X48.1760 Y44.6567 ;  Move Only (0.11 mm)
G1 X48.2219 Y44.5999 ;  Move Only (0.073 mm)
G1 X48.2495 Y44.5530 ;  Move Only (0.054 mm)
G1 X48.2390 Y44.5039 ;  Move Only (0.05 mm)
G1 X39.8073 Y36.3847 ;  Move Only (12 mm)
G1 X39.5915 Y36.3057 ;  Move Only (0.23 mm)
G1 X39.4028 Y36.4303 ;  Move Only (0.23 mm)
G1 X39.2438 Y36.5912 ;  Move Only (0.23 mm)
G1 X39.2295 Y36.6091 ;  Move Only (0.023 mm)
G1 X39.0847 Y36.8702 ;  Move Only (0.3 mm)
G1 X39.0345 Y37.1646 E90.03302 F1080 ; AbsE 0.0830 (5.00/-0.37 mm/s) 
G1 Y40.4660 E91.01702 ; AbsE 0.9170 (5.00/-0.37 mm/s) 
G1 Y43.5346 E91.07925 F1200
G1 X39.1259 Y43.7552 E91.08409
G1 X39.1378 Y43.7602 E91.08435
G1 X39.3508 Y43.8248 E91.08887
G1 X39.5724 Y43.8466 E91.09338
G1 X39.7480 Y43.7738 E91.09724
G1 X39.8024 Y43.5945 E91.10104
G1 X39.8208 Y43.4080 E91.10484
G1 Y37.9217 E91.21610
G1 X40.0322 Y37.8983 E91.22042
G1 X40.2124 Y38.0082 E91.22469
G1 X40.3747 Y38.1431 E91.22897
G1 X40.3822 Y38.1503 E91.22919
G1 X40.5485 Y38.3916 E91.23513
G1 X40.5923 Y38.6802 E91.24105
G1 X40.6070 Y38.9717 E91.24697
G1 Y43.5346 E91.33950
G1 X40.6984 Y43.7552 E91.34435
G1 X40.7103 Y43.7602 E91.34461
G1 X40.9233 Y43.8248 E91.34912
G1 X41.1449 Y43.8466 E91.35364
G1 X41.3205 Y43.7738 E91.35749
G1 X41.3749 Y43.5945 E91.36129
G1 X41.3933 Y43.4080 E91.36509
G1 Y39.4357 E91.44565
G1 X41.6047 Y39.4123 E91.44997
G1 X41.7849 Y39.5222 E91.45425
G1 X41.9472 Y39.6571 E91.45853
G1 X41.9547 Y39.6643 E91.45874
G1 X42.1210 Y39.9056 E91.46468
G1 X42.1648 Y40.1942 E91.47060
G1 X42.1795 Y40.4857 E91.47652
G1 Y43.5346 E91.53835
G1 X42.2709 Y43.7552 E91.54319
G1 X42.2829 Y43.7602 E91.54346
G1 X42.4958 Y43.8248 E91.54797
G1 X42.7173 Y43.8466 E91.55248
G1 X42.8929 Y43.7738 E91.55634
G1 X42.9473 Y43.5946 E91.56014
G1 X42.9657 Y43.4081 E91.56394
G1 Y40.9497 E91.61379
G1 X43.1771 Y40.9263 E91.61811
G1 X43.3573 Y41.0362 E91.62239
G1 X43.5196 Y41.1711 E91.62667
G1 X43.5272 Y41.1784 E91.62688
G1 X43.6935 Y41.4197 E91.63282
G1 X43.7373 Y41.7083 E91.63874
G1 X43.7520 Y41.9998 E91.64466
G1 Y43.5346 E91.67579
G1 X43.8434 Y43.7552 E91.68063
G1 X43.8554 Y43.7602 E91.68090
G1 X44.0683 Y43.8248 E91.68541
G1 X44.2898 Y43.8466 E91.68992
G1 X44.4654 Y43.7738 E91.69378
G1 X44.5198 Y43.5946 E91.69758
G1 X44.5382 Y43.4081 E91.70138
G1 Y42.4638 E91.72053
G1 X44.7496 Y42.4404 E91.72484
G1 X44.9298 Y42.5503 E91.72912
G1 X45.0921 Y42.6852 E91.73340
G1 X45.0997 Y42.6925 E91.73361
G1 X45.2660 Y42.9338 E91.73956
G1 X45.3098 Y43.2224 E91.74548
G1 X45.3245 Y43.5139 E91.75140
G1 Y43.5346 E91.75182
G1 X45.4182 Y43.7289 E91.75619
G1 X45.6285 Y43.7524 E91.76048
G1 X45.8388 Y43.7284 E91.76478
G1 X46.1074 Y43.7084 E91.77024
G1 E90.77024 F300 ; AbsE -1.0000
G1 X46.3697 Y43.7694 F4800 ;  Move Only (0.27 mm)
G1 X47.9711 Y44.4091 ;  Move Only (1.7 mm)
G1 X47.9497 Y44.2254 ;  Move Only (0.19 mm)
G1 X39.8073 Y36.3847 ;  Move Only (11 mm)
G1 X39.7118 Y36.1659 ;  Move Only (0.24 mm)
G1 X39.8188 Y35.9563 ;  Move Only (0.24 mm)
G1 X39.9647 Y35.7716 ;  Move Only (0.24 mm)
G1 X44.0255 Y31.5548 ;  Move Only (5.9 mm)
G1 X44.2443 Y31.4593 ;  Move Only (0.24 mm)
G1 X44.4539 Y31.5663 ;  Move Only (0.24 mm)
G1 X44.6386 Y31.7122 ;  Move Only (0.24 mm)
G1 X56.1730 Y42.8198 ;  Move Only (16 mm)
G1 X56.4003 Y42.9142 ;  Move Only (0.25 mm)
G1 X56.6196 Y42.8097 ;  Move Only (0.24 mm)
G1 X56.8158 Y42.6664 ;  Move Only (0.24 mm)
G1 X69.3880 Y31.5448 ;  Move Only (17 mm)
G1 X69.6138 Y31.4671 ;  Move Only (0.24 mm)
G1 X69.8142 Y31.5905 ;  Move Only (0.24 mm)
G1 X69.9867 Y31.7506 ;  Move Only (0.24 mm)
G1 X73.8655 Y36.1352 ;  Move Only (5.9 mm)
G1 X73.9432 Y36.3610 ;  Move Only (0.24 mm)
G1 X73.8198 Y36.5614 ;  Move Only (0.24 mm)
G1 X73.6597 Y36.7338 ;  Move Only (0.24 mm)
G1 X61.4856 Y47.5036 ;  Move Only (16 mm)
G1 X61.6003 Y47.6438 ;  Move Only (0.18 mm)
G1 X61.7764 Y47.6787 ;  Move Only (0.18 mm)
G1 X61.9557 Y47.6864 ;  Move Only (0.18 mm)
G1 X62.3099 Y47.6743 ;  Move Only (0.35 mm)
G1 X62.5933 Y47.7286 ;  Move Only (0.29 mm)
G1 X62.8146 Y47.9117 E90.85585 F1080 ; AbsE 0.0798 (5.00/-0.37 mm/s) 
G1 X63.0142 Y48.1183 E90.94147 ; AbsE 0.0798 (5.00/-0.37 mm/s) 
G1 X63.2041 Y48.3383 E91.02810 ; AbsE 0.0807 (5.00/-0.37 mm/s) 
G1 X63.3520 Y48.2236 E91.08390 ; AbsE 0.0520 (5.00/-0.37 mm/s) 
G1 X63.3939 Y48.0428 E91.13921 ; AbsE 0.0515 (5.00/-0.37 mm/s) 
G1 X63.4080 Y47.8578 E91.19452 ; AbsE 0.0515 (5.00/-0.37 mm/s) 
G1 Y47.2801 E91.36670 ; AbsE 0.1605 (5.00/-0.37 mm/s) 
G1 X63.4691 Y46.9956 E91.45343 ; AbsE 0.0808 (5.00/-0.37 mm/s) 
G1 X63.6530 Y46.7718 E91.53979 ; AbsE 0.0805 (5.00/-0.37 mm/s) 
G1 X63.8596 Y46.5686 E91.62614 ; AbsE 0.0805 (5.00/-0.37 mm/s) 
G1 X63.9605 Y46.4792 E91.66632 ; AbsE 0.0374 (5.00/-0.37 mm/s) 
G1 X64.1114 Y46.4564 E91.71179 ; AbsE 0.0424 (5.00/-0.37 mm/s) 
G1 X64.1942 Y46.7371 E91.79903 ; AbsE 0.0813 (5.00/-0.37 mm/s) 
G1 Y46.8854 E91.84325 ; AbsE 0.0412 (5.00/-0.37 mm/s) 
G1 Y49.0197 E91.88653 F1200
G1 X64.2527 Y49.3068 E91.89247
G1 X64.4302 Y49.5386 E91.89839
G1 X64.6300 Y49.7514 E91.90431
G1 X64.7558 Y49.8725 E91.90785
G1 X64.9192 Y49.7364 E91.91217
G1 X64.9651 Y49.5304 E91.91645
G1 X64.9805 Y49.3200 E91.92072
G1 Y45.8889 E91.99031
G1 X65.0416 Y45.6044 E91.99621
G1 X65.2256 Y45.3806 E92.00208
G1 X65.4321 Y45.1774 E92.00796
G1 X65.5330 Y45.0881 E92.01069
G1 X65.6839 Y45.0652 E92.01379
G1 X65.7667 Y45.3460 E92.01972
G1 Y50.5341 E92.12494
G1 X65.8252 Y50.8212 E92.13088
G1 X66.0027 Y51.0530 E92.13680
G1 X66.2025 Y51.2658 E92.14272
G1 X66.3282 Y51.3869 E92.14626
G1 X66.4916 Y51.2508 E92.15057
G1 X66.5375 Y51.0448 E92.15485
G1 X66.5529 Y50.8344 E92.15913
G1 Y44.4978 E92.28764
G1 X66.6140 Y44.2133 E92.29354
G1 X66.7980 Y43.9895 E92.29941
G1 X67.0045 Y43.7863 E92.30529
G1 X67.1055 Y43.6969 E92.30802
G1 X67.2564 Y43.6740 E92.31112
G1 X67.3392 Y43.9548 E92.31705
G1 Y52.0485 E92.48119
G1 X67.3977 Y52.3356 E92.48714
G1 X67.5752 Y52.5674 E92.49306
G1 X67.7750 Y52.7802 E92.49898
G1 X67.9007 Y52.9013 E92.50252
G1 X68.0641 Y52.7652 E92.50683
G1 X68.1100 Y52.5592 E92.51111
G1 X68.1254 Y52.3488 E92.51539
G1 Y43.1067 E92.70282
G1 X68.1865 Y42.8222 E92.70872
G1 X68.3704 Y42.5984 E92.71459
G1 X68.5770 Y42.3952 E92.72047
G1 X68.6780 Y42.3057 E92.72321
G1 X68.8289 Y42.2829 E92.72630
G1 X68.9117 Y42.5636 E92.73223
G1 Y53.5630 E92.95530
G1 X68.9702 Y53.8501 E92.96125
G1 X69.1477 Y54.0819 E92.96717
G1 X69.3475 Y54.2947 E92.97309
G1 X69.4732 Y54.4157 E92.97662
G1 X69.6366 Y54.2796 E92.98094
G1 X69.6825 Y54.0736 E92.98522
G1 X69.6979 Y53.8632 E92.98950
G1 Y41.7155 E93.23585
G1 X69.7590 Y41.4310 E93.24175
G1 X69.9430 Y41.2072 E93.24763
G1 X70.1495 Y41.0040 E93.25350
G1 X70.2504 Y40.9147 E93.25623
G1 X70.4013 Y40.8918 E93.25933
G1 X70.4841 Y41.1726 E93.26527
G1 Y54.5350 E93.53626
G1 X70.5755 Y54.7556 E93.54110
G1 X70.5874 Y54.7606 E93.54136
G1 X70.8004 Y54.8252 E93.54587
G1 X71.0220 Y54.8470 E93.55039
G1 X71.1976 Y54.7742 E93.55424
G1 X71.2520 Y54.5949 E93.55805
G1 X71.2704 Y54.4084 E93.56185
G1 Y40.3243 E93.84747
G1 X71.3315 Y40.0398 E93.85337
G1 X71.5155 Y39.8160 E93.85925
G1 X71.7220 Y39.6128 E93.86512
G1 X71.8229 Y39.5235 E93.86786
G1 X71.9738 Y39.5006 E93.87095
G1 X72.0566 Y39.7814 E93.87689
G1 Y54.5350 E94.17609
G1 X72.1480 Y54.7556 E94.18093
G1 X72.1599 Y54.7606 E94.18119
G1 X72.3729 Y54.8252 E94.18571
G1 X72.5945 Y54.8470 E94.19022
G1 X72.7701 Y54.7742 E94.19408
G1 X72.8245 Y54.5949 E94.19788
G1 X72.8429 Y54.4084 E94.20168
G1 Y38.9332 E94.51552
G1 X72.9040 Y38.6487 E94.52142
G1 X73.0879 Y38.4249 E94.52729
G1 X73.2945 Y38.2217 E94.53317
G1 X73.3954 Y38.1323 E94.53590
G1 X73.5463 Y38.1095 E94.53900
G1 X73.6291 Y38.3902 E94.54493
G1 Y54.5350 E94.87235
G1 X73.7205 Y54.7556 E94.87719
G1 X73.7325 Y54.7606 E94.87746
G1 X73.9454 Y54.8252 E94.88197
G1 X74.1669 Y54.8470 E94.88648
G1 X74.3425 Y54.7742 E94.89034
G1 X74.3969 Y54.5950 E94.89414
G1 X74.4153 Y54.4085 E94.89794
G1 Y37.5421 E95.23999
G1 X74.3862 Y37.2357 E95.24623
; Shell
G1 E94.24623 F300 ; AbsE -1.0000
G1 X74.2998 Y36.9403 F4800 ;  Move Only (0.31 mm)
G1 X74.1877 Y36.6587 ;  Move Only (0.3 mm)
G1 X74.0492 Y36.3830 ;  Move Only (0.31 mm)
G1 X73.8655 Y36.1352 ;  Move Only (0.31 mm)
G1 X69.8284 Y31.5718 ;  Move Only (6.1 mm)
G1 X69.6138 Y31.4671 ;  Move Only (0.24 mm)
G1 X69.3999 Y31.5651 ;  Move Only (0.24 mm)
G1 X69.2092 Y31.7030 ;  Move Only (0.24 mm)
G1 X56.6314 Y42.8295 ;  Move Only (17 mm)
G1 X56.4003 Y42.9142 ;  Move Only (0.25 mm)
G1 X56.1856 Y42.8005 ;  Move Only (0.24 mm)
G1 X55.9957 Y42.6490 ;  Move Only (0.24 mm)
G1 X44.4666 Y31.5465 ;  Move Only (16 mm)
G1 X44.2443 Y31.4593 ;  Move Only (0.24 mm)
G1 X44.0389 Y31.5741 ;  Move Only (0.24 mm)
G1 X43.8598 Y31.7268 ;  Move Only (0.24 mm)
G1 X39.7990 Y35.9436 ;  Move Only (5.9 mm)
G1 X39.7118 Y36.1659 ;  Move Only (0.24 mm)
G1 X39.8266 Y36.3713 ;  Move Only (0.24 mm)
G1 X39.9793 Y36.5503 ;  Move Only (0.24 mm)
G1 X48.1885 Y44.4553 ;  Move Only (11 mm)
G1 X48.2123 Y44.5666 ;  Move Only (0.11 mm)
G1 X48.2060 Y44.6393 ;  Move Only (0.073 mm)
G1 X48.1933 Y44.6922 ;  Move Only (0.054 mm)
G1 X48.1517 Y44.7203 ;  Move Only (0.05 mm)
G1 X36.0554 ;  Move Only (12 mm)
G1 X35.7624 Y44.6683 ;  Move Only (0.3 mm)
G1 X35.5052 Y44.5188 ;  Move Only (0.3 mm)
G1 X20.1754 Y31.5471 ;  Move Only (20 mm)
G1 X19.9479 Y31.4744 ;  Move Only (0.24 mm)
G1 X19.7503 Y31.6022 ;  Move Only (0.24 mm)
G1 X19.5814 Y31.7661 ;  Move Only (0.24 mm)
G1 X17.4363 Y34.3011 ;  Move Only (3.3 mm)
G1 X17.3110 Y34.3211 ;  Move Only (0.13 mm)
G1 X17.2222 Y34.3033 ;  Move Only (0.091 mm)
G1 X17.1580 Y34.2780 ;  Move Only (0.069 mm)
G1 X17.1403 Y34.2222 ;  Move Only (0.059 mm)
G1 X17.3317 Y33.7741 ;  Move Only (0.49 mm)
G1 X18.2069 Y32.0121 ;  Move Only (2 mm)
G1 X19.1826 Y30.3033 ;  Move Only (2 mm)
G1 X20.2548 Y28.6540 ;  Move Only (2 mm)
G1 X21.4223 Y27.0666 ;  Move Only (2 mm)
G1 X22.6763 Y25.5520 ;  Move Only (2 mm)
G1 X24.0160 Y24.1126 ;  Move Only (2 mm)
G1 X25.4379 Y22.7507 ;  Move Only (2 mm)
G1 X26.9342 Y21.4745 ;  Move Only (2 mm)
G1 X28.5024 Y20.2862 ;  Move Only (2 mm)
G1 X30.1397 Y19.1878 ;  Move Only (2 mm)
G1 X31.8310 Y18.1897 ;  Move Only (2 mm)
G1 X33.5815 Y17.2882 ;  Move Only (2 mm)
G1 X35.3788 Y16.4900 ;  Move Only (2 mm)
G1 X37.2216 Y15.7958 ;  Move Only (2 mm)
G1 X39.1017 Y15.2086 ;  Move Only (2 mm)
G1 X41.0070 Y14.7325 ;  Move Only (2 mm)
G1 X42.9428 Y14.3656 ;  Move Only (2 mm)
G1 X44.8925 Y14.1114 ;  Move Only (2 mm)
G1 X46.8550 Y13.9694 ;  Move Only (2 mm)
G1 X48.8230 Y13.9412 ;  Move Only (2 mm)
G1 X50.7907 Y14.0262 ;  Move Only (2 mm)
G1 X52.7473 Y14.2243 ;  Move Only (2 mm)
G1 X54.6906 Y14.5350 ;  Move Only (2 mm)
G1 X56.6116 Y14.9569 ;  Move Only (2 mm)
G1 X58.5076 Y15.4893 ;  Move Only (2 mm)
G1 X60.3676 Y16.1295 ;  Move Only (2 mm)
G1 X62.1864 Y16.8753 ;  Move Only (2 mm)
G1 X63.9626 Y17.7263 ;  Move Only (2 mm)
G1 X65.6852 Y18.6769 ;  Move Only (2 mm)
G1 X67.3516 Y19.7265 ;  Move Only (2 mm)
G1 X68.9505 Y20.8669 ;  Move Only (2 mm)
G1 X70.4859 Y22.1019 ;  Move Only (2 mm)
G1 X71.9467 Y23.4221 ;  Move Only (2 mm)
G1 X73.3255 Y24.8209 ;  Move Only (2 mm)
G1 X74.6257 Y26.3020 ;  Move Only (2 mm)
G1 X75.8354 Y27.8514 ;  Move Only (2 mm)
G1 X76.9561 Y29.4713 ;  Move Only (2 mm)
G1 X77.9808 Y31.1512 ;  Move Only (2 mm)
G1 X78.9051 Y32.8843 ;  Move Only (2 mm)
G1 X79.7312 Y34.6741 ;  Move Only (2 mm)
G1 X80.4515 Y36.5060 ;  Move Only (2 mm)
G1 X81.0637 Y38.3720 ;  Move Only (2 mm)
G1 X81.5692 Y40.2773 ;  Move Only (2 mm)
G1 X81.9635 Y42.2048 ;  Move Only (2 mm)
G1 X82.2459 Y44.1508 ;  Move Only (2 mm)
G1 X82.3890 Y45.8013 ;  Move Only (1.7 mm)
G1 X82.4993 Y46.0101 ;  Move Only (0.24 mm)
G1 X82.7279 Y46.0531 ;  Move Only (0.23 mm)
G1 X82.9605 Y46.0499 ;  Move Only (0.23 mm)
G1 X97.1371 Y44.4302 ;  Move Only (14 mm)
G1 X96.6414 Y46.3389 E95.27250 F540 ; AbsE 1.0000 (4.56/-0.12 mm/s) 
G1 X97.1371 Y44.4302 F4800 ;  Move Only (2 mm)
G1 X96.6414 Y46.3389 E95.29877 F1200
G1 X96.2355 Y48.2629 E95.32497
G1 X95.9179 Y50.2095 E95.35125
G1 X95.6916 Y52.1613 E95.37743
G1 X95.5093 Y56.1033 E95.43000
G1 X95.5548 Y58.0706 E95.45622
G1 X95.6913 Y60.0345 E95.48244
G1 X95.9179 Y61.9900 E95.50867
G1 X96.2355 Y63.9365 E95.53494
G1 X96.6414 Y65.8607 E95.56114
G1 X97.1371 Y67.7695 E95.58742
G1 X97.7206 Y69.6528 E95.61368
G1 X98.3877 Y71.5013 E95.63987
G1 X99.1431 Y73.3250 E95.66616
G1 X99.9789 Y75.1056 E95.69237
G1 X100.8976 Y76.8486 E95.71862
G1 X101.8965 Y78.5486 E95.74489
G1 X102.9718 Y80.1984 E95.77112
G1 X104.1219 Y81.7968 E95.79736
G1 X105.3450 Y83.3410 E95.82360
G1 X106.6374 Y84.8263 E95.84983
G1 X107.9984 Y86.2514 E95.87609
G1 X109.4240 Y87.6127 E95.90235
G1 X110.9089 Y88.9050 E95.92857
G1 X112.4528 Y90.1275 E95.95481
G1 X114.0524 Y91.2790 E95.98107
G1 X115.7029 Y92.3544 E96.00731
G1 X117.4000 Y93.3516 E96.03354
G1 X119.1457 Y94.2719 E96.05983
G1 X120.9253 Y95.1072 E96.08602
G1 X122.7482 Y95.8626 E96.11231
G1 X124.5976 Y96.5300 E96.13850
G1 X126.4804 Y97.1133 E96.16476
G1 X128.3897 Y97.6090 E96.19104
G1 X130.3137 Y98.0148 E96.21724
G1 X132.2596 Y98.3323 E96.24350
G1 X134.2161 Y98.5591 E96.26974
G1 X136.1799 Y98.6955 E96.29597
G1 X138.1507 Y98.7411 E96.32223
G1 X140.1211 Y98.6955 E96.34849
G1 X142.0850 Y98.5591 E96.37472
G1 X144.0413 Y98.3323 E96.40096
G1 X145.9875 Y98.0148 E96.42723
G1 X147.9115 Y97.6090 E96.45342
G1 X149.8206 Y97.1133 E96.47970
G1 X151.7036 Y96.5300 E96.50596
G1 X153.5527 Y95.8626 E96.53215
G1 X155.3759 Y95.1072 E96.55845
G1 X157.1552 Y94.2719 E96.58463
G1 X158.9005 Y93.3519 E96.61092
G1 X160.5989 Y92.3540 E96.63716
G1 X162.2487 Y91.2790 E96.66340
G1 X163.8483 Y90.1275 E96.68965
G1 X165.3922 Y88.9050 E96.71589
G1 X166.8758 Y87.6139 E96.74209
G1 X168.3028 Y86.2514 E96.76838
G1 X169.6646 Y84.8250 E96.79465
G1 X170.9561 Y83.3410 E96.82086
G1 X172.1785 Y81.7977 E96.84709
G1 X173.3301 Y80.1973 E96.87336
G1 X174.4044 Y78.5486 E96.89957
G1 X175.4036 Y76.8486 E96.92584
G1 X176.3217 Y75.1064 E96.95208
G1 X177.1583 Y73.3242 E96.97831
G1 X177.9134 Y71.5013 E97.00460
G1 X178.5807 Y69.6528 E97.03078
G1 X179.1641 Y67.7695 E97.05705
G1 X179.6597 Y65.8607 E97.08332
G1 X180.0655 Y63.9365 E97.10952
G1 X180.3831 Y61.9901 E97.13579
G1 X180.6100 Y60.0341 E97.16203
G1 X180.7462 Y58.0706 E97.18825
G1 X180.7919 Y56.0994 E97.21452
G1 X180.7462 Y54.1285 E97.24078
G1 X180.6100 Y52.1653 E97.26700
G1 X180.3830 Y50.2088 E97.29324
G1 X180.0654 Y48.2622 E97.31952
G1 X179.6597 Y46.3389 E97.34570
G1 X179.1639 Y44.4295 E97.37198
G1 X178.5807 Y42.5467 E97.39824
G1 X177.9131 Y40.6976 E97.42443
G1 X177.1583 Y38.8755 E97.45071
G1 X176.3217 Y37.0932 E97.47694
G1 X175.4032 Y35.3508 E97.50318
G1 X174.4047 Y33.6513 E97.52944
G1 X173.3297 Y32.0017 E97.55567
G1 X172.1785 Y30.4019 E97.58193
G1 X170.9558 Y28.8582 E97.60817
G1 X169.6646 Y27.3743 E97.63437
G1 X168.3013 Y25.9466 E97.66067
G1 X166.8773 Y24.5869 E97.68690
G1 X165.3917 Y23.2941 E97.71314
G1 X163.8483 Y22.0719 E97.73937
G1 X162.2481 Y20.9203 E97.76563
G1 X160.5983 Y19.8453 E97.79187
G1 X158.9003 Y18.8473 E97.81811
G1 X157.1571 Y17.9285 E97.84436
G1 X155.3750 Y17.0920 E97.87059
G1 X153.5527 Y16.3371 E97.89687
G1 X151.7036 Y15.6698 E97.92306
G1 X149.8206 Y15.0864 E97.94932
G1 X147.9115 Y14.5907 E97.97560
G1 X145.9875 Y14.1847 E98.00179
G1 X144.0413 Y13.8673 E98.02807
G1 X142.0850 Y13.6404 E98.05430
G1 X140.1211 Y13.5042 E98.08053
G1 X138.1507 Y13.4585 E98.10679
G1 X136.1799 Y13.5042 E98.13305
G1 X134.2161 Y13.6404 E98.15928
G1 X132.2596 Y13.8673 E98.18552
G1 X130.3137 Y14.1847 E98.21178
G1 X128.3897 Y14.5907 E98.23798
G1 X126.4804 Y15.0864 E98.26426
G1 X124.5976 Y15.6698 E98.29052
G1 X122.7482 Y16.3371 E98.31672
G1 X120.9253 Y17.0923 E98.34300
G1 X119.1449 Y17.9282 E98.36921
G1 X117.4009 Y18.8473 E98.39547
G1 X115.7029 Y19.8453 E98.42171
G1 X114.0528 Y20.9203 E98.44795
G1 X112.4523 Y22.0722 E98.47422
G1 X110.9089 Y23.2945 E98.50045
G1 X109.4240 Y24.5869 E98.52667
G1 X107.9984 Y25.9480 E98.55293
G1 X106.6377 Y27.3732 E98.57918
G1 X105.3447 Y28.8585 E98.60542
G1 X104.1226 Y30.4019 E98.63165
G1 X102.9709 Y32.0023 E98.65792
G1 X101.8960 Y33.6519 E98.68415
G1 X100.8981 Y35.3502 E98.71039
G1 X99.9789 Y37.0940 E98.73665
G1 X99.1431 Y38.8744 E98.76285
G1 X98.3877 Y40.6983 E98.78916
G1 X97.7206 Y42.5467 E98.81534
G1 X97.1371 Y44.4302 E98.84160
G1 X97.4372 Y44.5141 F4800 ;  Move Only (0.31 mm)
G1 X97.1371 Y44.4302 ;  Move Only (0.31 mm)
G1 X97.3268 Y44.5776 ;  Move Only (0.24 mm)
G1 X97.3355 Y44.8143 E98.84476 F1200
G1 X97.2985 Y45.0482 E98.84792
G1 X96.9447 Y46.4106 E98.86667
G1 X96.5420 Y48.3200 E98.89267
G1 X96.2266 Y50.2526 E98.91875
G1 X96.0024 Y52.1870 E98.94470
G1 X95.8210 Y56.1061 E98.99697
G1 X95.8660 Y58.0555 E99.02294
G1 X96.0016 Y60.0058 E99.04899
G1 X96.2266 Y61.9468 E99.07502
G1 X96.5420 Y63.8791 E99.10111
G1 X96.9447 Y65.7885 E99.12710
G1 X97.4372 Y67.6851 E99.15321
G1 X98.0160 Y69.5523 E99.17925
G1 X98.6776 Y71.3870 E99.20524
G1 X99.4295 Y73.2018 E99.23141
G1 X100.2571 Y74.9650 E99.25736
G1 X101.1695 Y76.6966 E99.28343
G1 X102.1614 Y78.3842 E99.30951
G1 X103.2278 Y80.0203 E99.33553
G1 X104.3712 Y81.6093 E99.36161
G1 X105.5853 Y83.1424 E99.38766
G1 X106.8667 Y84.6148 E99.41367
G1 X108.2174 Y86.0292 E99.43972
G1 X109.6354 Y87.3831 E99.46584
G1 X111.1087 Y88.6655 E99.49187
G1 X112.6404 Y89.8783 E99.51789
G1 X114.2277 Y91.0210 E99.54395
G1 X115.8671 Y92.0891 E99.57002
G1 X117.5507 Y93.0785 E99.59604
G1 X119.2867 Y93.9937 E99.62218
G1 X121.0498 Y94.8213 E99.64813
G1 X122.8595 Y95.5715 E99.67423
G1 X124.6977 Y96.2346 E99.70026
G1 X126.5639 Y96.8126 E99.72629
G1 X128.4616 Y97.3051 E99.75241
G1 X130.3709 Y97.7079 E99.77841
G1 X132.3023 Y98.0232 E99.80448
G1 X134.2443 Y98.2483 E99.83052
G1 X136.1946 Y98.3836 E99.85657
G1 X138.1507 Y98.4289 E99.88264
G1 X140.1063 Y98.3838 E99.90870
G1 X142.0566 Y98.2483 E99.93474
G1 X143.9984 Y98.0232 E99.96079
G1 X145.9302 Y97.7079 E99.98686
G1 X147.8395 Y97.3051 E100.01286
G1 X149.7367 Y96.8126 E100.03897
G1 X151.6031 Y96.2346 E100.06500
G1 X153.4408 Y95.5715 E100.09103
G1 X155.2511 Y94.8213 E100.11714
G1 X157.0147 Y93.9933 E100.14309
G1 X158.7478 Y93.0796 E100.16920
G1 X160.4350 Y92.0884 E100.19527
G1 X162.0732 Y91.0210 E100.22132
G1 X163.6602 Y89.8783 E100.24737
G1 X165.1920 Y88.6655 E100.27340
G1 X166.6642 Y87.3841 E100.29940
G1 X168.0821 Y86.0304 E100.32552
G1 X169.4361 Y84.6122 E100.35164
G1 X170.7152 Y83.1424 E100.37760
G1 X171.9287 Y81.6102 E100.40364
G1 X173.0744 Y80.0180 E100.42977
G1 X174.1386 Y78.3851 E100.45574
G1 X175.1315 Y76.6957 E100.48184
G1 X176.0425 Y74.9666 E100.50788
G1 X176.8719 Y73.2001 E100.53388
G1 X177.6230 Y71.3870 E100.56003
G1 X178.2853 Y69.5523 E100.58601
G1 X178.8636 Y67.6852 E100.61205
G1 X179.3558 Y65.7885 E100.63816
G1 X179.7588 Y63.8789 E100.66416
G1 X180.0740 Y61.9468 E100.69024
G1 X180.2992 Y60.0058 E100.71627
G1 X180.4344 Y58.0557 E100.74232
G1 X180.4797 Y56.0990 E100.76839
G1 X180.4344 Y54.1424 E100.79447
G1 X180.2992 Y52.1934 E100.82049
G1 X180.0739 Y50.2510 E100.84655
G1 X179.7588 Y48.3196 E100.87262
G1 X179.3559 Y46.4106 E100.89861
G1 X178.8632 Y44.5125 E100.92474
G1 X178.2854 Y42.6473 E100.95075
G1 X177.6220 Y40.8104 E100.97677
G1 X176.8715 Y38.9984 E101.00290
G1 X176.0429 Y37.2332 E101.02888
G1 X175.1308 Y35.5032 E101.05493
G1 X174.1389 Y33.8149 E101.08102
G1 X173.0727 Y32.1783 E101.10704
G1 X171.9283 Y30.5883 E101.13314
G1 X170.7153 Y29.0570 E101.15917
G1 X169.4350 Y27.5855 E101.18515
G1 X168.0814 Y26.1679 E101.21127
G1 X166.6666 Y24.8173 E101.23733
G1 X165.1903 Y23.5322 E101.26340
G1 X163.6615 Y22.3218 E101.28938
G1 X162.0702 Y21.1765 E101.31550
G1 X160.4337 Y20.1102 E101.34152
G1 X158.7481 Y19.1196 E101.36757
G1 X157.0165 Y18.2067 E101.39365
G1 X155.2520 Y17.3785 E101.41962
G1 X153.4389 Y16.6275 E101.44576
G1 X151.6031 Y15.9650 E101.47176
G1 X149.7367 Y15.3867 E101.49780
G1 X147.8395 Y14.8941 E101.52391
G1 X145.9301 Y14.4911 E101.54991
G1 X143.9986 Y14.1763 E101.57598
G1 X142.0566 Y13.9509 E101.60203
G1 X140.1063 Y13.8156 E101.62807
G1 X138.1507 Y13.7704 E101.65413
G1 X136.1946 Y13.8156 E101.68020
G1 X134.2443 Y13.9509 E101.70624
G1 X132.3021 Y14.1763 E101.73229
G1 X130.3709 Y14.4911 E101.75836
G1 X128.4616 Y14.8941 E101.78436
G1 X126.5639 Y15.3867 E101.81048
G1 X124.6969 Y15.9651 E101.83652
G1 X122.8603 Y16.6276 E101.86253
G1 X121.0516 Y17.3773 E101.88861
G1 X119.2836 Y18.2074 E101.91464
G1 X117.5527 Y19.1196 E101.94070
G1 X115.8671 Y20.1102 E101.96675
G1 X114.2296 Y21.1769 E101.99279
G1 X112.6386 Y22.3220 E102.01890
G1 X111.1096 Y23.5328 E102.04489
G1 X109.6330 Y24.8181 E102.07097
G1 X108.2195 Y26.1674 E102.09700
G1 X106.8667 Y27.5847 E102.12310
G1 X105.5835 Y29.0585 E102.14914
G1 X104.3725 Y30.5883 E102.17513
G1 X103.2273 Y32.1795 E102.20125
G1 X102.1609 Y33.8159 E102.22727
G1 X101.1699 Y35.5026 E102.25333
G1 X100.2571 Y37.2343 E102.27941
G1 X99.4295 Y38.9973 E102.30536
G1 X98.6776 Y40.8123 E102.33153
G1 X98.0160 Y42.6466 E102.35751
G1 X97.4811 Y44.3724 E102.38158
G1 X97.4922 Y44.4841 E102.38308
G1 X97.5193 Y44.5056 F4800 ;  Move Only (0.035 mm)
G1 X97.6187 Y44.5565 ;  Move Only (0.11 mm)
G1 X97.6942 Y44.5859 ;  Move Only (0.081 mm)
G1 X97.7260 Y44.6413 E102.38350 F1440
G1 X97.2478 Y46.4827 E102.40885 F1200
G1 X96.8485 Y48.3767 E102.43464
G1 X96.5354 Y50.2958 E102.46054
G1 X96.3132 Y52.2127 E102.48625
G1 X96.1326 Y56.1090 E102.53822
G1 X96.1776 Y58.0428 E102.56399
G1 X96.3119 Y59.9752 E102.58979
G1 X96.5354 Y61.9034 E102.61565
G1 X96.8485 Y63.8215 E102.64155
G1 X97.2479 Y65.7162 E102.66734
G1 X97.7371 Y67.6003 E102.69328
G1 X98.3111 Y69.4512 E102.71909
G1 X98.9687 Y71.2758 E102.74493
G1 X99.7145 Y73.0750 E102.77088
G1 X100.5362 Y74.8262 E102.79665
G1 X101.4409 Y76.5437 E102.82251
G1 X102.4268 Y78.2206 E102.84843
G1 X103.4838 Y79.8422 E102.87422
G1 X104.6212 Y81.4231 E102.90016
G1 X105.8250 Y82.9429 E102.92599
G1 X107.0959 Y84.4033 E102.95179
G1 X108.4373 Y85.8082 E102.97766
G1 X109.8447 Y87.1515 E103.00358
G1 X111.3094 Y88.4268 E103.02946
G1 X112.8282 Y89.6291 E103.05526
G1 X114.4030 Y90.7631 E103.08112
G1 X116.0312 Y91.8239 E103.10701
G1 X117.7014 Y92.8054 E103.13282
G1 X119.4261 Y93.7146 E103.15879
G1 X121.1756 Y94.5358 E103.18454
G1 X122.9725 Y95.2808 E103.21045
G1 X124.7969 Y95.9388 E103.23629
G1 X126.6478 Y96.5121 E103.26211
G1 X128.5327 Y97.0011 E103.28805
G1 X130.4277 Y97.4010 E103.31385
G1 X132.3451 Y97.7141 E103.33974
G1 X134.2725 Y97.9375 E103.36559
G1 X136.2092 Y98.0719 E103.39145
G1 X138.1507 Y98.1167 E103.41732
G1 X140.0914 Y98.0720 E103.44318
G1 X142.0284 Y97.9375 E103.46905
G1 X143.9552 Y97.7141 E103.49489
G1 X145.8730 Y97.4010 E103.52078
G1 X147.7675 Y97.0012 E103.54658
G1 X149.6529 Y96.5120 E103.57253
G1 X151.5028 Y95.9392 E103.59833
G1 X153.3288 Y95.2804 E103.62419
G1 X155.1254 Y94.5358 E103.65010
G1 X156.8741 Y93.7145 E103.67584
G1 X158.5960 Y92.8069 E103.70177
G1 X160.2710 Y91.8228 E103.72765
G1 X161.8965 Y90.7639 E103.75350
G1 X163.4732 Y89.6283 E103.77938
G1 X164.9908 Y88.4268 E103.80517
G1 X166.4545 Y87.1524 E103.83103
G1 X167.8606 Y85.8105 E103.85692
G1 X169.2075 Y84.3995 E103.88291
G1 X170.4751 Y82.9429 E103.90864
G1 X171.6788 Y81.4231 E103.93446
G1 X172.8179 Y79.8399 E103.96045
G1 X173.8734 Y78.2207 E103.98620
