; generated by Slic3r 1.0.1-dev on 2014-02-22 at 08:34:45

; Joe Racette  2014

; perimeters extrusion width = 0.35mm
; infill extrusion width = 0.39mm
; solid infill extrusion width = 0.39mm
; top infill extrusion width = 0.39mm

G21 ; set units to millimeters
M107 ; disable fan
M190 S115 ; wait for bed temperature to be reached
M104 S232 ; set temperature
G28 ; home all axes
G1 Z5 F5000 ; lift nozzle
M117 ..... Printing .....
M109 S232 ; wait for temperature to be reached
G90 ; use absolute coordinates
M83 ; use relative distances for extrusion
G1 F1800.000 E-1.00000 ; retract
G1 Z0.350 F6000.000 ; move to next layer (0)
G1 X70.439 Y71.846 F6000.000 ; move to first skirt point
G1 E1.00000 F1800.000 ; compensate retraction
G1 X72.126 Y70.175 E0.07348 F540 ; skirt
G1 X73.908 Y68.605 E0.07347 ; skirt
G1 X75.777 Y67.141 E0.07347 ; skirt
G1 X77.729 Y65.788 E0.07348 ; skirt
G1 X79.756 Y64.551 E0.07348 ; skirt
G1 X81.851 Y63.434 E0.07346 ; skirt
G1 X84.008 Y62.440 E0.07348 ; skirt
G1 X86.219 Y61.574 E0.07348 ; skirt
G1 X88.477 Y60.838 E0.07347 ; skirt
G1 X90.773 Y60.234 E0.07347 ; skirt
G1 X93.101 Y59.765 E0.07347 ; skirt
G1 X95.453 Y59.431 E0.07349 ; skirt
G1 X97.819 Y59.236 E0.07346 ; skirt
G1 X100.193 Y59.178 E0.07348 ; skirt
G1 X102.566 Y59.258 E0.07346 ; skirt
G1 X104.931 Y59.476 E0.07349 ; skirt
G1 X107.278 Y59.832 E0.07347 ; skirt
G1 X109.602 Y60.323 E0.07347 ; skirt
G1 X111.892 Y60.948 E0.07347 ; skirt
G1 X114.143 Y61.706 E0.07348 ; skirt
G1 X116.346 Y62.593 E0.07348 ; skirt
G1 X118.493 Y63.606 E0.07346 ; skirt
G1 X120.578 Y64.743 E0.07348 ; skirt
G1 X122.593 Y66.000 E0.07348 ; skirt
G1 X124.532 Y67.371 E0.07347 ; skirt
G1 X126.387 Y68.852 E0.07346 ; skirt
G1 X128.154 Y70.439 E0.07348 ; skirt
G1 X129.825 Y72.127 E0.07348 ; skirt
G1 X131.395 Y73.908 E0.07346 ; skirt
G1 X132.859 Y75.777 E0.07347 ; skirt
G1 X134.212 Y77.729 E0.07348 ; skirt
G1 X135.449 Y79.756 E0.07348 ; skirt
G1 X136.566 Y81.851 E0.07346 ; skirt
G1 X137.560 Y84.008 E0.07348 ; skirt
G1 X138.426 Y86.219 E0.07348 ; skirt
G1 X139.162 Y88.477 E0.07347 ; skirt
G1 X139.766 Y90.773 E0.07347 ; skirt
G1 X140.235 Y93.101 E0.07347 ; skirt
G1 X140.569 Y95.453 E0.07349 ; skirt
G1 X140.764 Y97.819 E0.07346 ; skirt
G1 X140.822 Y100.193 E0.07348 ; skirt
G1 X140.742 Y102.566 E0.07346 ; skirt
G1 X140.524 Y104.931 E0.07349 ; skirt
G1 X140.168 Y107.278 E0.07347 ; skirt
G1 X139.677 Y109.602 E0.07347 ; skirt
G1 X139.052 Y111.892 E0.07347 ; skirt
G1 X138.294 Y114.143 E0.07348 ; skirt
G1 X137.407 Y116.346 E0.07348 ; skirt
G1 X136.394 Y118.493 E0.07346 ; skirt
G1 X135.257 Y120.578 E0.07348 ; skirt
G1 X134.000 Y122.593 E0.07348 ; skirt
G1 X132.629 Y124.532 E0.07347 ; skirt
G1 X131.148 Y126.387 E0.07346 ; skirt
G1 X129.561 Y128.154 E0.07348 ; skirt
G1 X127.873 Y129.825 E0.07348 ; skirt
G1 X126.092 Y131.395 E0.07346 ; skirt
G1 X124.223 Y132.859 E0.07347 ; skirt
G1 X122.271 Y134.212 E0.07348 ; skirt
G1 X120.244 Y135.449 E0.07348 ; skirt
G1 X118.149 Y136.566 E0.07346 ; skirt
G1 X115.992 Y137.560 E0.07348 ; skirt
G1 X113.781 Y138.426 E0.07348 ; skirt
G1 X111.523 Y139.162 E0.07347 ; skirt
G1 X109.227 Y139.766 E0.07347 ; skirt
G1 X106.899 Y140.235 E0.07347 ; skirt
G1 X104.547 Y140.569 E0.07349 ; skirt
G1 X102.181 Y140.764 E0.07346 ; skirt
G1 X99.807 Y140.822 E0.07348 ; skirt
G1 X97.434 Y140.742 E0.07346 ; skirt
G1 X95.069 Y140.524 E0.07349 ; skirt
G1 X92.722 Y140.168 E0.07347 ; skirt
G1 X90.398 Y139.677 E0.07347 ; skirt
G1 X88.108 Y139.052 E0.07347 ; skirt
G1 X85.857 Y138.294 E0.07348 ; skirt
G1 X83.654 Y137.407 E0.07347 ; skirt
G1 X81.507 Y136.394 E0.07346 ; skirt
G1 X79.422 Y135.257 E0.07348 ; skirt
G1 X77.407 Y134.000 E0.07348 ; skirt
G1 X75.468 Y132.629 E0.07347 ; skirt
G1 X73.613 Y131.148 E0.07346 ; skirt
G1 X71.846 Y129.561 E0.07348 ; skirt
G1 X70.175 Y127.873 E0.07348 ; skirt
G1 X68.605 Y126.092 E0.07346 ; skirt
G1 X67.141 Y124.223 E0.07347 ; skirt
G1 X65.788 Y122.271 E0.07348 ; skirt
G1 X64.551 Y120.244 E0.07348 ; skirt
G1 X63.434 Y118.149 E0.07346 ; skirt
G1 X62.440 Y115.992 E0.07348 ; skirt
G1 X61.574 Y113.781 E0.07348 ; skirt
G1 X60.838 Y111.523 E0.07347 ; skirt
G1 X60.234 Y109.227 E0.07347 ; skirt
G1 X59.765 Y106.899 E0.07347 ; skirt
G1 X59.431 Y104.547 E0.07349 ; skirt
G1 X59.236 Y102.181 E0.07346 ; skirt
G1 X59.178 Y99.807 E0.07348 ; skirt
G1 X59.258 Y97.434 E0.07346 ; skirt
G1 X59.476 Y95.069 E0.07349 ; skirt
G1 X59.832 Y92.722 E0.07347 ; skirt
G1 X60.323 Y90.398 E0.07347 ; skirt
G1 X60.948 Y88.108 E0.07347 ; skirt
G1 X61.706 Y85.857 E0.07348 ; skirt
G1 X62.593 Y83.654 E0.07348 ; skirt
G1 X63.606 Y81.507 E0.07346 ; skirt
G1 X64.743 Y79.422 E0.07348 ; skirt
G1 X66.000 Y77.407 E0.07348 ; skirt
G1 X67.371 Y75.468 E0.07347 ; skirt
G1 X68.852 Y73.613 E0.07346 ; skirt
G1 X70.404 Y71.885 E0.07186 ; skirt
G1 F1800.000 E-1.00000 ; retract
G1 X92.389 Y105.852 F6000.000 ; move to first perimeter point
G1 E1.00000 F1800.000 ; compensate retraction
G1 X93.585 Y104.500 E0.05585 F540 ; perimeter
G1 X112.759 Y104.500 E0.59328 ; perimeter
G1 X113.472 Y105.341 E0.03412 ; perimeter
G1 X131.157 Y90.377 E0.71681 ; perimeter
G1 X131.721 Y92.482 E0.06742 ; perimeter
G1 X132.104 Y94.339 E0.05867 ; perimeter
G1 X132.379 Y96.215 E0.05867 ; perimeter
G1 X132.544 Y98.104 E0.05867 ; perimeter
G1 X132.600 Y100.000 E0.05867 ; perimeter
G1 X132.544 Y101.896 E0.05867 ; perimeter
G1 X132.379 Y103.785 E0.05867 ; perimeter
G1 X132.104 Y105.661 E0.05867 ; perimeter
G1 X131.721 Y107.518 E0.05867 ; perimeter
G1 X131.230 Y109.350 E0.05867 ; perimeter
G1 X130.634 Y111.150 E0.05867 ; perimeter
G1 X129.933 Y112.912 E0.05867 ; perimeter
G1 X129.132 Y114.631 E0.05868 ; perimeter
G1 X128.232 Y116.300 E0.05867 ; perimeter
G1 X127.237 Y117.914 E0.05867 ; perimeter
G1 X126.149 Y119.467 E0.05867 ; perimeter
G1 X124.973 Y120.955 E0.05868 ; perimeter
G1 X123.712 Y122.371 E0.05867 ; perimeter
G1 X122.371 Y123.712 E0.05867 ; perimeter
G1 X120.955 Y124.973 E0.05867 ; perimeter
G1 X119.467 Y126.149 E0.05868 ; perimeter
G1 X117.914 Y127.237 E0.05867 ; perimeter
G1 X116.300 Y128.232 E0.05867 ; perimeter
G1 X114.631 Y129.132 E0.05867 ; perimeter
G1 X112.912 Y129.933 E0.05868 ; perimeter
G1 X111.150 Y130.634 E0.05867 ; perimeter
G1 X109.350 Y131.230 E0.05867 ; perimeter
G1 X107.518 Y131.721 E0.05867 ; perimeter
G1 X105.661 Y132.104 E0.05867 ; perimeter
G1 X103.785 Y132.379 E0.05867 ; perimeter
G1 X101.896 Y132.544 E0.05867 ; perimeter
G1 X100.000 Y132.600 E0.05867 ; perimeter
G1 X98.104 Y132.544 E0.05867 ; perimeter
G1 X96.215 Y132.379 E0.05867 ; perimeter
G1 X94.339 Y132.104 E0.05867 ; perimeter
G1 X92.482 Y131.721 E0.05867 ; perimeter
G1 X90.650 Y131.230 E0.05867 ; perimeter
G1 X88.850 Y130.634 E0.05867 ; perimeter
G1 X87.088 Y129.933 E0.05867 ; perimeter
G1 X85.369 Y129.132 E0.05868 ; perimeter
G1 X83.700 Y128.232 E0.05867 ; perimeter
G1 X82.086 Y127.237 E0.05867 ; perimeter
G1 X80.533 Y126.149 E0.05867 ; perimeter
G1 X79.045 Y124.973 E0.05868 ; perimeter
G1 X77.629 Y123.712 E0.05867 ; perimeter
G1 X76.288 Y122.371 E0.05867 ; perimeter
G1 X75.027 Y120.955 E0.05868 ; perimeter
G1 X73.851 Y119.467 E0.05868 ; perimeter
G1 X72.763 Y117.914 E0.05867 ; perimeter
G1 X71.768 Y116.300 E0.05867 ; perimeter
G1 X71.337 Y115.500 E0.02812 ; perimeter
G1 X72.197 Y115.500 E0.02663 ; perimeter
G1 X76.880 Y120.363 E0.20888 ; perimeter
G1 X92.160 Y105.649 E0.65633 ; perimeter
G1 X92.350 Y105.817 E0.00785 ; perimeter
G1 X76.897 Y119.479 F6000.000 ; move to first perimeter point
G1 X92.142 Y104.799 E0.65485 F540 ; perimeter
G1 X92.335 Y104.970 E0.00799 ; perimeter
G1 X93.303 Y103.875 E0.04523 ; perimeter
G1 X113.049 Y103.875 E0.61096 ; perimeter
G1 X113.545 Y104.461 E0.02375 ; perimeter
G1 X131.446 Y89.314 E0.72554 ; perimeter
G1 X131.829 Y90.471 E0.03770 ; perimeter
G1 X132.329 Y92.338 E0.05980 ; perimeter
G1 X132.720 Y94.231 E0.05980 ; perimeter
G1 X133.000 Y96.143 E0.05980 ; perimeter
G1 X133.168 Y98.068 E0.05980 ; perimeter
G1 X133.225 Y100.000 E0.05980 ; perimeter
G1 X133.168 Y101.932 E0.05980 ; perimeter
G1 X133.000 Y103.857 E0.05980 ; perimeter
G1 X132.720 Y105.769 E0.05980 ; perimeter
G1 X132.329 Y107.662 E0.05980 ; perimeter
G1 X131.829 Y109.529 E0.05980 ; perimeter
G1 X131.221 Y111.364 E0.05980 ; perimeter
G1 X130.507 Y113.160 E0.05980 ; perimeter
G1 X129.691 Y114.911 E0.05980 ; perimeter
G1 X128.773 Y116.612 E0.05980 ; perimeter
G1 X127.759 Y118.257 E0.05980 ; perimeter
G1 X126.650 Y119.840 E0.05980 ; perimeter
G1 X125.452 Y121.356 E0.05980 ; perimeter
G1 X124.167 Y122.800 E0.05980 ; perimeter
G1 X122.800 Y124.167 E0.05980 ; perimeter
G1 X121.356 Y125.452 E0.05980 ; perimeter
G1 X119.840 Y126.650 E0.05980 ; perimeter
G1 X118.257 Y127.759 E0.05980 ; perimeter
G1 X116.612 Y128.773 E0.05980 ; perimeter
G1 X114.911 Y129.691 E0.05980 ; perimeter
G1 X113.160 Y130.507 E0.05980 ; perimeter
G1 X111.364 Y131.221 E0.05980 ; perimeter
G1 X109.529 Y131.829 E0.05980 ; perimeter
G1 X107.662 Y132.329 E0.05980 ; perimeter
G1 X105.769 Y132.720 E0.05980 ; perimeter
G1 X103.857 Y133.000 E0.05980 ; perimeter
G1 X101.932 Y133.168 E0.05980 ; perimeter
G1 X100.000 Y133.225 E0.05980 ; perimeter
G1 X98.068 Y133.168 E0.05980 ; perimeter
G1 X96.143 Y133.000 E0.05980 ; perimeter
G1 X94.231 Y132.720 E0.05980 ; perimeter
G1 X92.338 Y132.329 E0.05980 ; perimeter
G1 X90.471 Y131.829 E0.05980 ; perimeter
G1 X88.636 Y131.221 E0.05980 ; perimeter
G1 X86.840 Y130.507 E0.05980 ; perimeter
G1 X85.089 Y129.691 E0.05980 ; perimeter
G1 X83.388 Y128.773 E0.05980 ; perimeter
G1 X81.743 Y127.759 E0.05980 ; perimeter
G1 X80.160 Y126.650 E0.05980 ; perimeter
G1 X78.644 Y125.452 E0.05980 ; perimeter
G1 X77.200 Y124.167 E0.05980 ; perimeter
G1 X75.833 Y122.800 E0.05980 ; perimeter
G1 X74.548 Y121.356 E0.05980 ; perimeter
G1 X73.350 Y119.840 E0.05980 ; perimeter
G1 X72.241 Y118.257 E0.05980 ; perimeter
G1 X71.227 Y116.612 E0.05980 ; perimeter
G1 X70.290 Y114.875 E0.06108 ; perimeter
G1 X72.463 Y114.875 E0.06725 ; perimeter
G1 X76.860 Y119.441 E0.19614 ; perimeter
G1 X76.913 Y118.595 F6000.000 ; move to first perimeter point
G1 X92.124 Y103.948 E0.65336 F378 ; perimeter
G1 X92.281 Y104.088 E0.00650 ; perimeter
G1 X93.022 Y103.250 E0.03460 ; perimeter
G1 X113.339 Y103.250 E0.62863 ; perimeter
G1 X113.618 Y103.580 E0.01339 ; perimeter
G1 X131.748 Y88.240 E0.73482 ; perimeter
G1 X132.428 Y90.292 E0.06688 ; perimeter
G1 X132.937 Y92.194 E0.06092 ; perimeter
G1 X133.336 Y94.122 E0.06092 ; perimeter
G1 X133.621 Y96.070 E0.06092 ; perimeter
G1 X133.793 Y98.032 E0.06092 ; perimeter
G1 X133.850 Y100.000 E0.06092 ; perimeter
G1 X133.793 Y101.968 E0.06092 ; perimeter
G1 X133.621 Y103.930 E0.06092 ; perimeter
G1 X133.336 Y105.878 E0.06092 ; perimeter
G1 X132.937 Y107.806 E0.06092 ; perimeter
G1 X132.428 Y109.708 E0.06092 ; perimeter
G1 X131.808 Y111.577 E0.06092 ; perimeter
G1 X131.081 Y113.407 E0.06092 ; perimeter
G1 X130.249 Y115.192 E0.06092 ; perimeter
G1 X129.315 Y116.925 E0.06092 ; perimeter
G1 X128.281 Y118.601 E0.06092 ; perimeter
G1 X127.152 Y120.214 E0.06092 ; perimeter
G1 X125.930 Y121.758 E0.06092 ; perimeter
G1 X124.622 Y123.229 E0.06093 ; perimeter
G1 X123.229 Y124.622 E0.06092 ; perimeter
G1 X121.758 Y125.930 E0.06093 ; perimeter
G1 X120.214 Y127.152 E0.06092 ; perimeter
G1 X118.601 Y128.281 E0.06092 ; perimeter
G1 X116.925 Y129.315 E0.06092 ; perimeter
G1 X115.192 Y130.249 E0.06092 ; perimeter
G1 X113.407 Y131.081 E0.06092 ; perimeter
G1 X111.577 Y131.808 E0.06092 ; perimeter
G1 X109.708 Y132.428 E0.06092 ; perimeter
G1 X107.806 Y132.937 E0.06092 ; perimeter
G1 X105.878 Y133.336 E0.06092 ; perimeter
G1 X103.930 Y133.621 E0.06092 ; perimeter
G1 X101.968 Y133.793 E0.06092 ; perimeter
G1 X100.000 Y133.850 E0.06092 ; perimeter
G1 X98.032 Y133.793 E0.06092 ; perimeter
G1 X96.070 Y133.621 E0.06092 ; perimeter
G1 X94.122 Y133.336 E0.06092 ; perimeter
G1 X92.194 Y132.937 E0.06092 ; perimeter
G1 X90.292 Y132.428 E0.06092 ; perimeter
G1 X88.423 Y131.808 E0.06092 ; perimeter
G1 X86.593 Y131.081 E0.06092 ; perimeter
G1 X84.808 Y130.249 E0.06092 ; perimeter
G1 X83.075 Y129.315 E0.06092 ; perimeter
G1 X81.399 Y128.281 E0.06092 ; perimeter
G1 X79.786 Y127.152 E0.06092 ; perimeter
G1 X78.242 Y125.930 E0.06092 ; perimeter
G1 X76.771 Y124.622 E0.06093 ; perimeter
G1 X75.378 Y123.229 E0.06092 ; perimeter
G1 X74.070 Y121.758 E0.06093 ; perimeter
G1 X72.848 Y120.214 E0.06092 ; perimeter
G1 X71.719 Y118.601 E0.06092 ; perimeter
G1 X70.685 Y116.925 E0.06092 ; perimeter
G1 X69.751 Y115.192 E0.06092 ; perimeter
G1 X69.312 Y114.250 E0.03215 ; perimeter
G1 X72.729 Y114.250 E0.10574 ; perimeter
G1 X76.877 Y118.558 E0.18503 ; perimeter
G1 X77.156 Y118.847 F6000.000 ; move inwards before travel
G1 F1800.000 E-1.00000 ; retract
G1 X72.648 Y88.389 F6000.000 ; move to first perimeter point
G1 E1.00000 F1800.000 ; compensate retraction
G1 X85.397 Y99.667 E0.52667 F540 ; perimeter
G1 X78.301 Y106.500 E0.30482 ; perimeter
G1 X68.069 Y106.500 E0.31659 ; perimeter
G1 X67.896 Y105.661 E0.02652 ; perimeter
G1 X67.621 Y103.785 E0.05867 ; perimeter
G1 X67.456 Y101.896 E0.05867 ; perimeter
G1 X67.400 Y100.000 E0.05867 ; perimeter
G1 X67.456 Y98.104 E0.05867 ; perimeter
G1 X67.621 Y96.215 E0.05867 ; perimeter
G1 X67.896 Y94.339 E0.05867 ; perimeter
G1 X68.279 Y92.482 E0.05867 ; perimeter
G1 X68.770 Y90.650 E0.05867 ; perimeter
G1 X69.366 Y88.850 E0.05867 ; perimeter
G1 X70.067 Y87.088 E0.05867 ; perimeter
G1 X70.868 Y85.369 E0.05868 ; perimeter
G1 X71.768 Y83.700 E0.05867 ; perimeter
G1 X72.763 Y82.086 E0.05867 ; perimeter
G1 X73.851 Y80.533 E0.05867 ; perimeter
G1 X75.027 Y79.045 E0.05868 ; perimeter
G1 X76.288 Y77.629 E0.05867 ; perimeter
G1 X77.629 Y76.288 E0.05867 ; perimeter
G1 X79.045 Y75.027 E0.05867 ; perimeter
G1 X80.533 Y73.851 E0.05868 ; perimeter
G1 X82.086 Y72.763 E0.05867 ; perimeter
G1 X83.700 Y71.768 E0.05867 ; perimeter
G1 X85.369 Y70.868 E0.05867 ; perimeter
G1 X87.088 Y70.067 E0.05868 ; perimeter
G1 X88.850 Y69.366 E0.05867 ; perimeter
G1 X90.650 Y68.770 E0.05867 ; perimeter
G1 X92.482 Y68.279 E0.05867 ; perimeter
G1 X94.339 Y67.896 E0.05867 ; perimeter
G1 X96.215 Y67.621 E0.05867 ; perimeter
G1 X98.104 Y67.456 E0.05867 ; perimeter
G1 X100.000 Y67.400 E0.05867 ; perimeter
G1 X101.896 Y67.456 E0.05867 ; perimeter
G1 X103.785 Y67.621 E0.05867 ; perimeter
G1 X105.661 Y67.896 E0.05867 ; perimeter
G1 X107.518 Y68.279 E0.05867 ; perimeter
G1 X109.350 Y68.770 E0.05867 ; perimeter
G1 X111.150 Y69.366 E0.05867 ; perimeter
G1 X112.912 Y70.067 E0.05867 ; perimeter
G1 X114.631 Y70.868 E0.05868 ; perimeter
G1 X116.300 Y71.768 E0.05867 ; perimeter
G1 X117.914 Y72.763 E0.05867 ; perimeter
G1 X119.467 Y73.851 E0.05867 ; perimeter
G1 X120.955 Y75.027 E0.05868 ; perimeter
G1 X122.371 Y76.288 E0.05867 ; perimeter
G1 X123.712 Y77.629 E0.05867 ; perimeter
G1 X124.973 Y79.045 E0.05867 ; perimeter
G1 X126.149 Y80.533 E0.05868 ; perimeter
G1 X127.157 Y81.973 E0.05438 ; perimeter
G1 X111.170 Y95.500 E0.64798 ; perimeter
G1 X102.698 Y95.500 E0.26212 ; perimeter
G1 X110.363 Y88.120 E0.32921 ; perimeter
G1 X104.120 Y81.637 E0.27846 ; perimeter
G1 X91.901 Y93.404 E0.52489 ; perimeter
G1 X78.611 Y81.648 E0.54899 ; perimeter
G1 X72.683 Y88.350 E0.27684 ; perimeter
G1 F1800.000 E-1.00000 ; retract
G1 X127.455 Y82.539 F6000.000 ; move to first perimeter point
G1 E1.00000 F1800.000 ; compensate retraction
G1 X111.399 Y96.125 E0.65079 F540 ; perimeter
G1 X101.149 Y96.125 E0.31715 ; perimeter
G1 X109.479 Y88.103 E0.35783 ; perimeter
G1 X104.103 Y82.521 E0.23979 ; perimeter
G1 X91.919 Y94.255 E0.52340 ; perimeter
G1 X78.665 Y82.530 E0.54751 ; perimeter
G1 X73.530 Y88.335 E0.23979 ; perimeter
G1 X86.318 Y99.647 E0.52828 ; perimeter
G1 X78.553 Y107.125 E0.33356 ; perimeter
G1 X69.125 Y107.125 E0.29171 ; perimeter
G1 X69.125 Y110.738 E0.11178 ; perimeter
G1 X68.600 Y110.823 E0.01647 ; perimeter
G1 X68.171 Y109.529 E0.04217 ; perimeter
G1 X67.671 Y107.662 E0.05980 ; perimeter
G1 X67.280 Y105.769 E0.05980 ; perimeter
G1 X67.000 Y103.857 E0.05980 ; perimeter
G1 X66.832 Y101.932 E0.05980 ; perimeter
G1 X66.775 Y100.000 E0.05980 ; perimeter
G1 X66.832 Y98.068 E0.05980 ; perimeter
G1 X67.000 Y96.143 E0.05980 ; perimeter
