; GCode by Repsnapper, Tue, 02/25/2014

; Startcode
; GCode generated by RepSnapper:
;   Model by Joe Racette 2014
; http://reprap.org/wiki/RepSnapper_Manual:Introduction
G21             ; metric is good!
G90             ; absolute positioning
M83            ; Relative E Code
T0                ; select extruder
;  Get the heating started asap
M117 ..... Preheat ......
; M104 S200.0     ; set extruder temperature (220 PLA / 230 ABS)
; M140 S100.0     ; bed heater temperature (50 PLA / 110 ABS)
; 
G28                        ; go home - because who knows where the extruder is now
G92 E0                  ; set extruder home
;      
;   Set the actual temperatures
;   - set long term temps on "Next Layer" tab
;   - remember to comment Layer 0 temps in "Result" tab after gcode is built
;   - bed takes longer to heat up so start first
;   - start with bed temperature hot (60 PLA / 115 ABS)
;   - after first layer temp can drop (50 PLA / 110 ABS)
M190 S115        ; bed heater temperature 
;
;   - start with extruder temperature hot (225 PLA / 232 ABS)
;   - after first layer temp can drop (220 PLA / 230 ABS)
M109 S232.0     ; set  / wait for extruder  to reach temp
;
M117 ..... Printing .....
; G1 X20 Y20 F500 ; move away from 0.0, to use the same reset for each layer
; End Startcode

G21 ; Millimeters
G90 ; Absolute Pos
M82 ; Absolute E Code

; Layerchange GCode
; Comment this out for Layer 0 !!
; M104 S230.0     ; set extruder temperature (220 PLA / 230 ABS)
; M140 S110.0        ; bed heater temperature (50 PLA / 110 ABS); End Layerchange GCode

; Layer S0 ; Layer at Z=0.3094 No=0, thickn=0.26, 1 skins, 8 polys, 3 shells, 8 fullfill polys, 0 bridge polys, 0 skin fullfill polys, 0 support polys, infill:  normal 0, full 18, support 0, skinfills 0
; Skirt
G1 X23.5519 Y23.4540 Z0.3094 E0.00000 F4800 ;  Z-Change
G1 X20.6207 Y26.6647 E0.07053 F1200
G1 X16.9421 Y31.7730 E0.17266
G1 X13.0886 Y39.5116 E0.31292
G1 X11.2410 Y45.4782 E0.41426
G1 X10.0379 Y54.4251 E0.56072
G1 X10.0007 Y147.3693 E2.06864
G1 X10.4449 Y153.6890 E2.17143
G1 X11.7415 Y159.8489 E2.27356
G1 X13.9567 Y165.9839 E2.37938
G1 X18.0790 Y173.3694 E2.51660
G1 X23.4539 Y179.8480 E2.65318
G1 X28.3346 Y184.1006 E2.75820
G1 X35.4898 Y188.5354 E2.89478
G1 X41.4688 Y191.0165 E2.99980
G1 X47.6972 Y192.6270 E3.10417
G1 X56.0306 Y193.3992 E3.23995
G1 X147.3000 Y193.4000 E4.72071
G1 X155.7906 Y192.6111 E4.85905
G1 X161.8842 Y191.0313 E4.96118
G1 X165.9391 Y189.4636 E5.03172
G1 X171.5090 Y186.5309 E5.13384
G1 X175.0977 Y184.0763 E5.20438
G1 X179.8480 Y179.9459 E5.30651
G1 X182.7792 Y176.7351 E5.37705
G1 X186.4577 Y171.6271 E5.47917
G1 X188.5759 Y167.8301 E5.54971
G1 X190.3112 Y163.8883 E5.61959
G1 X192.1588 Y157.9217 E5.72092
G1 X193.3531 Y149.3598 E5.86118
G1 X193.3533 Y54.0484 E7.40751
G1 X192.9475 Y49.6623 E7.47897
G1 X191.6584 Y43.5510 E7.58030
G1 X189.4431 Y37.4163 E7.68612
G1 X185.3485 Y30.0709 E7.82256
G1 X181.3209 Y24.9919 E7.92773
G1 X175.1042 Y19.3288 E8.06416
G1 X169.6714 Y15.7928 E8.16933
G1 X161.9774 Y12.3991 E8.30576
G1 X155.7026 Y10.7729 E8.41092
G1 X147.3000 Y10.0000 E8.54782
G1 X56.1000 E10.02745
G1 X47.6090 Y10.7887 E10.16580
G1 X41.5155 Y12.3686 E10.26793
G1 X37.4605 Y13.9362 E10.33847
G1 X31.8907 Y16.8691 E10.44059
G1 X28.3022 Y19.3236 E10.51113
G1 X23.7873 Y23.2493 E10.60819
G1 X23.6856 Y23.4600 E10.61199
; Shell
G1 X23.7881 Y23.6663 F4800 ;  Move Only (0.23 mm)
G1 X23.9302 Y23.8478 ;  Move Only (0.23 mm)
G1 X25.9477 Y25.9482 ;  Move Only (2.9 mm)
G1 X24.5858 Y27.3745 E10.63826 F1200
G1 X25.9477 Y25.9482 F4800 ;  Move Only (2 mm)
G1 X24.5858 Y27.3745 E10.66454 F1200
G1 X23.2942 Y28.8590 E10.69075
G1 X22.0720 Y30.4020 E10.71698
G1 X20.9203 Y32.0023 E10.74324
G1 X19.8460 Y33.6511 E10.76946
G1 X18.8469 Y35.3513 E10.79573
G1 X17.9284 Y37.0940 E10.82198
G1 X17.0924 Y38.8746 E10.84819
G1 X16.3370 Y40.6983 E10.87448
G1 X15.6702 Y42.5456 E10.90065
G1 X15.0863 Y44.4302 E10.92693
G1 X14.5908 Y46.3386 E10.95320
G1 X14.1847 Y48.2635 E10.97941
G1 X13.8672 Y50.2095 E11.00568
G1 X13.6407 Y52.1635 E11.03189
G1 X13.4953 Y54.5115 E11.06323
G1 X13.4585 Y56.1004 E11.08440
G1 X13.5041 Y58.0704 E11.11065
G1 X13.6404 Y60.0341 E11.13688
G1 X13.8672 Y61.9903 E11.16312
G1 X14.1847 Y63.9361 E11.18938
G1 X14.5908 Y65.8607 E11.21559
G1 X15.0863 Y67.7695 E11.24186
G1 X15.6699 Y69.6531 E11.26813
G1 X16.3370 Y71.5013 E11.29431
G1 X17.0924 Y73.3250 E11.32061
G1 X17.9284 Y75.1056 E11.34681
G1 X18.8469 Y76.8485 E11.37306
G1 X19.8460 Y78.5486 E11.39933
G1 X20.9205 Y80.1978 E11.42555
G1 X22.0717 Y81.7974 E11.45181
G1 X23.2942 Y83.3406 E11.47804
G1 X24.5858 Y84.8254 E11.50426
G1 X25.9477 Y86.2516 E11.53053
G1 X27.3745 Y87.6139 E11.55681
G1 X28.8573 Y88.9042 E11.58300
G1 X30.4030 Y90.1286 E11.60927
G1 X32.0017 Y91.2789 E11.63551
G1 X33.6511 Y92.3538 E11.66174
G1 X35.3513 Y93.3529 E11.68801
G1 X37.0940 Y94.2715 E11.71425
G1 X38.8746 Y95.1072 E11.74046
G1 X40.6956 Y95.8617 E11.76672
G1 X42.5486 Y96.5304 E11.79297
G1 X44.4298 Y97.1131 E11.81920
G1 X46.3386 Y97.6090 E11.84548
G1 X48.2633 Y98.0148 E11.87168
G1 X50.2089 Y98.3323 E11.89795
G1 X52.1653 Y98.5591 E11.92418
G1 X54.1292 Y98.6955 E11.95041
G1 X56.1000 Y98.7411 E11.97668
G1 X58.0706 Y98.6955 E12.00294
G1 X60.0341 Y98.5591 E12.02916
G1 X61.9907 Y98.3323 E12.05540
G1 X63.9361 Y98.0148 E12.08166
G1 X65.8608 Y97.6090 E12.10787
G1 X67.7699 Y97.1131 E12.13414
G1 X69.6508 Y96.5304 E12.16038
G1 X71.5038 Y95.8617 E12.18662
G1 X73.3250 Y95.1072 E12.21288
G1 X75.1056 Y94.2715 E12.23909
G1 X76.8485 Y93.3529 E12.26534
G1 X78.5486 Y92.3538 E12.29161
G1 X80.1980 Y91.2789 E12.31784
G1 X81.7964 Y90.1286 E12.34407
G1 X83.3424 Y88.9042 E12.37035
G1 X84.8254 Y87.6139 E12.39654
G1 X86.2521 Y86.2516 E12.42282
G1 X87.6139 Y84.8254 E12.44909
G1 X88.9046 Y83.3419 E12.47529
G1 X90.1286 Y81.7964 E12.50155
G1 X91.2793 Y80.1974 E12.52780
G1 X92.3538 Y78.5486 E12.55402
G1 X93.3529 Y76.8485 E12.58029
G1 X94.2715 Y75.1056 E12.60653
G1 X95.1072 Y73.3250 E12.63274
G1 X95.8620 Y71.5031 E12.65901
G1 X96.5304 Y69.6508 E12.68525
G1 X97.1132 Y67.7695 E12.71149
G1 X97.6090 Y65.8607 E12.73776
G1 X98.0148 Y63.9361 E12.76396
G1 X98.3324 Y61.9903 E12.79023
G1 X98.5591 Y60.0341 E12.81647
G1 X98.6955 Y58.0704 E12.84269
G1 X98.7323 Y56.4802 E12.86388
G1 X98.6955 Y54.1293 E12.89521
G1 X98.5591 Y52.1653 E12.92144
G1 X98.3323 Y50.2086 E12.94768
G1 X98.0147 Y48.2626 E12.97395
G1 X97.6090 Y46.3386 E13.00014
G1 X97.1130 Y44.4295 E13.02642
G1 X96.5304 Y42.5486 E13.05265
G1 X95.8617 Y40.6956 E13.07890
G1 X95.1072 Y38.8746 E13.10516
G1 X94.2715 Y37.0940 E13.13136
G1 X93.3529 Y35.3513 E13.15761
G1 X92.3538 Y33.6511 E13.18388
G1 X91.2789 Y32.0017 E13.21011
G1 X90.1286 Y30.4030 E13.23635
G1 X88.9042 Y28.8573 E13.26262
G1 X87.6139 Y27.3745 E13.28881
G1 X86.2516 Y25.9477 E13.31509
G1 X84.8254 Y24.5858 E13.34136
G1 X83.3406 Y23.2942 E13.36758
G1 X81.7975 Y22.0718 E13.39381
G1 X80.1978 Y20.9205 E13.42006
G1 X78.5486 Y19.8460 E13.44629
G1 X76.8485 Y18.8469 E13.47256
G1 X75.1056 Y17.9284 E13.49881
G1 X73.3250 Y17.0924 E13.52501
G1 X71.5020 Y16.3373 E13.55130
G1 X69.6531 Y15.6699 E13.57749
G1 X67.7699 Y15.0864 E13.60376
G1 X65.8608 Y14.5908 E13.63003
G1 X63.9361 Y14.1847 E13.65624
G1 X61.9907 Y13.8673 E13.68250
G1 X60.0341 Y13.6404 E13.70874
G1 X58.0706 Y13.5042 E13.73496
G1 X56.1000 Y13.4585 E13.76122
G1 X54.1292 Y13.5042 E13.78749
G1 X52.1653 Y13.6404 E13.81371
G1 X50.2089 Y13.8673 E13.83995
G1 X48.2635 Y14.1847 E13.86621
G1 X46.3386 Y14.5908 E13.89242
G1 X44.4298 Y15.0864 E13.91870
G1 X42.5467 Y15.6699 E13.94496
G1 X40.6976 Y16.3373 E13.97115
G1 X38.8746 Y17.0924 E13.99744
G1 X37.0940 Y17.9284 E14.02364
G1 X35.3513 Y18.8469 E14.04989
G1 X33.6511 Y19.8460 E14.07616
G1 X32.0017 Y20.9207 E14.10239
G1 X30.4020 Y22.0720 E14.12865
G1 X28.8585 Y23.2946 E14.15488
G1 X27.3745 Y24.5858 E14.18109
G1 X25.9477 Y25.9482 E14.20737
G1 X26.1679 Y26.1689 F4800 ;  Move Only (0.31 mm)
G1 X25.9477 Y25.9482 ;  Move Only (0.31 mm)
G1 X26.0410 Y26.1703 ;  Move Only (0.24 mm)
G1 X25.9329 Y26.3818 E14.21053 F1200
G1 X25.7863 Y26.5686 E14.21370
G1 X24.8140 Y27.5870 E14.23246
G1 X23.5348 Y29.0572 E14.25842
G1 X22.3208 Y30.5896 E14.28446
G1 X21.1765 Y32.1795 E14.31056
G1 X20.1110 Y33.8151 E14.33657
G1 X19.1190 Y35.5031 E14.36265
G1 X18.2076 Y37.2325 E14.38870
G1 X17.3777 Y39.0001 E14.41471
G1 X16.6274 Y40.8113 E14.44083
G1 X15.9658 Y42.6449 E14.46680
G1 X15.3865 Y44.5141 E14.49287
G1 X14.8942 Y46.4101 E14.51897
G1 X14.4911 Y48.3207 E14.54498
G1 X14.1761 Y50.2526 E14.57106
G1 X13.9512 Y52.1911 E14.59706
G1 X13.8069 Y54.5239 E14.62820
G1 X13.7704 Y56.1002 E14.64920
G1 X13.8156 Y58.0554 E14.67526
G1 X13.9509 Y60.0058 E14.70131
G1 X14.1761 Y61.9470 E14.72734
G1 X14.4911 Y63.8785 E14.75341
G1 X14.8941 Y65.7881 E14.77941
G1 X15.3865 Y67.6852 E14.80553
G1 X15.9651 Y69.5527 E14.83157
G1 X16.6273 Y71.3877 E14.85756
G1 X17.3772 Y73.1979 E14.88367
G1 X18.2076 Y74.9666 E14.90970
G1 X19.1188 Y76.6962 E14.93574
G1 X20.1110 Y78.3842 E14.96183
G1 X21.1768 Y80.0202 E14.98784
G1 X22.3203 Y81.6090 E15.01392
G1 X23.5348 Y83.1422 E15.03998
G1 X24.8150 Y84.6139 E15.06597
G1 X26.1669 Y86.0295 E15.09204
G1 X27.5870 Y87.3853 E15.11820
G1 X29.0547 Y88.6627 E15.14412
G1 X30.5900 Y89.8791 E15.17022
G1 X32.1787 Y91.0221 E15.19629
G1 X33.8151 Y92.0886 E15.22232
G1 X35.5031 Y93.0806 E15.24840
G1 X37.2343 Y93.9928 E15.27447
G1 X38.9992 Y94.8213 E15.30045
G1 X40.8069 Y95.5705 E15.32652
G1 X42.6485 Y96.2350 E15.35260
G1 X44.5133 Y96.8125 E15.37861
G1 X46.4106 Y97.3055 E15.40472
G1 X48.3200 Y97.7079 E15.43072
G1 X50.2515 Y98.0232 E15.45679
G1 X52.1934 Y98.2483 E15.48284
G1 X54.1439 Y98.3836 E15.50889
G1 X56.1000 Y98.4289 E15.53495
G1 X58.0555 Y98.3838 E15.56101
G1 X60.0058 Y98.2483 E15.58706
G1 X61.9476 Y98.0232 E15.61310
G1 X63.8793 Y97.7079 E15.63918
G1 X65.7884 Y97.3055 E15.66517
G1 X67.6861 Y96.8125 E15.69129
G1 X69.5505 Y96.2349 E15.71729
G1 X71.3900 Y95.5711 E15.74335
G1 X73.2018 Y94.8204 E15.76948
G1 X74.9650 Y93.9928 E15.79543
G1 X76.6965 Y93.0806 E15.82150
G1 X78.3842 Y92.0886 E15.84758
G1 X80.0209 Y91.0218 E15.87361
G1 X81.6085 Y89.8792 E15.89967
G1 X83.1446 Y88.6629 E15.92577
G1 X84.6128 Y87.3853 E15.95170
G1 X86.0316 Y86.0307 E15.97783
G1 X87.3854 Y84.6127 E16.00395
G1 X88.6636 Y83.1436 E16.02990
G1 X89.8792 Y81.6085 E16.05598
G1 X91.0227 Y80.0198 E16.08206
G1 X92.0886 Y78.3842 E16.10807
G1 X93.0808 Y76.6962 E16.13416
G1 X93.9928 Y74.9650 E16.16022
G1 X94.8204 Y73.2018 E16.18617
G1 X95.5715 Y71.3894 E16.21231
G1 X96.2350 Y69.5505 E16.23836
G1 X96.8127 Y67.6852 E16.26437
G1 X97.3056 Y65.7878 E16.29049
G1 X97.7079 Y63.8793 E16.31647
G1 X98.0233 Y61.9464 E16.34256
G1 X98.2483 Y60.0058 E16.36859
G1 X98.3836 Y58.0554 E16.39464
G1 X98.4199 Y56.4791 E16.41564
G1 X98.3835 Y54.1407 E16.44680
G1 X98.2483 Y52.1934 E16.47281
G1 X98.0232 Y50.2510 E16.49886
G1 X97.7078 Y48.3189 E16.52494
G1 X97.3051 Y46.4101 E16.55093
G1 X96.8124 Y44.5125 E16.57705
G1 X96.2349 Y42.6485 E16.60305
G1 X95.5702 Y40.8069 E16.62913
G1 X94.8213 Y38.9992 E16.65520
G1 X93.9928 Y37.2343 E16.68117
G1 X93.0806 Y35.5031 E16.70724
G1 X92.0886 Y33.8151 E16.73333
G1 X91.0221 Y32.1787 E16.75935
G1 X89.8791 Y30.5900 E16.78542
G1 X88.6622 Y29.0541 E16.81153
G1 X87.3853 Y27.5870 E16.83744
G1 X86.0295 Y26.1669 E16.86360
G1 X84.6139 Y24.8150 E16.88968
G1 X83.1422 Y23.5348 E16.91567
G1 X81.6083 Y22.3199 E16.94173
G1 X80.0216 Y21.1777 E16.96778
G1 X78.3842 Y20.1110 E16.99382
G1 X76.6965 Y19.1190 E17.01990
G1 X74.9666 Y18.2076 E17.04595
G1 X73.2000 Y17.3779 E17.07195
G1 X71.3883 Y16.6276 E17.09807
G1 X69.5528 Y15.9651 E17.12407
G1 X67.6863 Y15.3867 E17.15010
G1 X65.7888 Y14.8942 E17.17622
G1 X63.8785 Y14.4911 E17.20223
G1 X61.9477 Y14.1763 E17.22829
G1 X60.0058 Y13.9509 E17.25434
G1 X58.0555 Y13.8156 E17.28038
G1 X56.1000 Y13.7704 E17.30644
G1 X54.1439 Y13.8156 E17.33251
G1 X52.1934 Y13.9509 E17.35856
G1 X50.2515 Y14.1763 E17.38460
G1 X48.3207 Y14.4911 E17.41067
G1 X46.4101 Y14.8942 E17.43668
G1 X44.5133 Y15.3867 E17.46279
G1 X42.6466 Y15.9651 E17.48883
G1 X40.8110 Y16.6276 E17.51482
G1 X38.9992 Y17.3779 E17.54095
G1 X37.2325 Y18.2077 E17.56695
G1 X35.5031 Y19.1190 E17.59300
G1 X33.8151 Y20.1110 E17.61908
G1 X32.1789 Y21.1769 E17.64510
G1 X30.5896 Y22.3208 E17.67119
G1 X29.0562 Y23.5351 E17.69724
G1 X27.5870 Y24.8141 E17.72320
G1 X26.2752 Y26.0664 E17.74736
G1 X26.2303 Y26.1697 E17.74886
G1 X26.2434 Y26.2019 F4800 ;  Move Only (0.035 mm)
G1 X26.3276 Y26.3290 ;  Move Only (0.15 mm)
G1 X26.3290 Y26.4513 E17.74967 F1440
G1 X25.0432 Y27.7983 E17.77448 F1200
G1 X23.7758 Y29.2547 E17.80020
G1 X22.5699 Y30.7772 E17.82608
G1 X21.4321 Y32.3578 E17.85202
G1 X20.3764 Y33.9782 E17.87779
G1 X19.3910 Y35.6556 E17.90371
G1 X18.4859 Y37.3727 E17.92957
G1 X17.6641 Y39.1229 E17.95533
G1 X16.9175 Y40.9254 E17.98132
G1 X16.2609 Y42.7449 E18.00709
G1 X15.6868 Y44.5980 E18.03293
G1 X15.1976 Y46.4819 E18.05887
G1 X14.7975 Y48.3778 E18.08468
G1 X14.4849 Y50.2954 E18.11056
G1 X14.2620 Y52.2172 E18.13634
G1 X14.1185 Y54.5362 E18.16729
G1 X14.0824 Y56.1002 E18.18814
G1 X14.1270 Y58.0398 E18.21398
G1 X14.2616 Y59.9775 E18.23986
G1 X14.4849 Y61.9040 E18.26570
G1 X14.7975 Y63.8211 E18.29158
G1 X15.1970 Y65.7143 E18.31735
G1 X15.6868 Y67.6010 E18.34332
G1 X16.2602 Y69.4522 E18.36914
G1 X16.9179 Y71.2751 E18.39496
G1 X17.6628 Y73.0729 E18.42089
G1 X18.4858 Y74.8262 E18.44669
G1 X19.3904 Y76.5433 E18.47255
G1 X20.3771 Y78.2215 E18.49848
G1 X21.4320 Y79.8407 E18.52423
G1 X22.5692 Y81.4210 E18.55017
G1 X23.7755 Y82.9437 E18.57605
G1 X25.0433 Y84.4012 E18.60178
G1 X26.3877 Y85.8092 E18.62772
G1 X27.7974 Y87.1549 E18.65368
G1 X29.2535 Y88.4221 E18.67940
G1 X30.7770 Y89.6295 E18.70530
G1 X32.3557 Y90.7653 E18.73121
G1 X33.9786 Y91.8230 E18.75702
G1 X35.6556 Y92.8083 E18.78293
G1 X37.3744 Y93.7141 E18.80881
G1 X39.1240 Y94.5353 E18.83456
G1 X40.9182 Y95.2791 E18.86044
G1 X42.7483 Y95.9393 E18.88636
G1 X44.5967 Y96.5120 E18.91214
G1 X46.4832 Y97.0020 E18.93810
G1 X48.3759 Y97.4010 E18.96387
G1 X50.2946 Y97.7141 E18.98977
G1 X52.2214 Y97.9375 E19.01562
G1 X54.1585 Y98.0719 E19.04149
G1 X56.1000 Y98.1167 E19.06736
G1 X58.0407 Y98.0720 E19.09322
G1 X59.9775 Y97.9375 E19.11909
G1 X61.9044 Y97.7141 E19.14493
G1 X63.8226 Y97.4010 E19.17082
G1 X65.7160 Y97.0020 E19.19660
G1 X67.6022 Y96.5120 E19.22256
G1 X69.4500 Y95.9393 E19.24834
G1 X71.2782 Y95.2800 E19.27423
G1 X73.0772 Y94.5342 E19.30017
G1 X74.8245 Y93.7141 E19.32589
G1 X76.5434 Y92.8087 E19.35177
G1 X78.2206 Y91.8227 E19.37769
G1 X79.8437 Y90.7648 E19.40350
G1 X81.4218 Y89.6290 E19.42941
G1 X82.9455 Y88.4223 E19.45530
G1 X84.3999 Y87.1568 E19.48099
G1 X85.8114 Y85.8092 E19.50699
G1 X87.1570 Y84.3999 E19.53294
G1 X88.4236 Y82.9441 E19.55865
G1 X89.6303 Y81.4201 E19.58455
G1 X90.7652 Y79.8435 E19.61043
G1 X91.8227 Y78.2207 E19.63624
G1 X92.8088 Y76.5433 E19.66216
G1 X93.7146 Y74.8237 E19.68805
G1 X94.5344 Y73.0768 E19.71376
G1 X95.2802 Y71.2779 E19.73970
G1 X95.9397 Y69.4487 E19.76561
G1 X96.5122 Y67.6009 E19.79138
G1 X97.0024 Y65.7143 E19.81735
G1 X97.4010 Y63.8224 E19.84311
G1 X97.7142 Y61.9031 E19.86902
G1 X97.9375 Y59.9775 E19.89484
G1 X98.0720 Y58.0398 E19.92072
G1 X98.1077 Y56.4780 E19.94153
G1 X98.0715 Y54.1523 E19.97252
G1 X97.9375 Y52.2214 E19.99831
G1 X97.7141 Y50.2936 E20.02416
G1 X97.4009 Y48.3750 E20.05006
G1 X97.0014 Y46.4819 E20.07584
G1 X96.5117 Y44.5956 E20.10180
G1 X95.9392 Y42.7483 E20.12757
G1 X95.2787 Y40.9174 E20.15350
G1 X94.5353 Y39.1238 E20.17937
G1 X93.7141 Y37.3744 E20.20511
G1 X92.8083 Y35.6556 E20.23100
G1 X91.8230 Y33.9786 E20.25691
G1 X90.7653 Y32.3557 E20.28272
G1 X89.6295 Y30.7771 E20.30863
G1 X88.4225 Y29.2537 E20.33452
G1 X87.1537 Y27.7961 E20.36026
G1 X85.8096 Y26.3880 E20.38620
G1 X84.4012 Y25.0433 E20.41214
G1 X82.9437 Y23.7755 E20.43788
G1 X81.4194 Y22.5678 E20.46379
G1 X79.8445 Y21.4342 E20.48964
G1 X78.2215 Y20.3771 E20.51544
G1 X76.5434 Y19.3907 E20.54138
G1 X74.8279 Y18.4867 E20.56721
G1 X73.0745 Y17.6633 E20.59302
G1 X71.2754 Y16.9182 E20.61896
G1 X69.4526 Y16.2603 E20.64478
G1 X67.6025 Y15.6870 E20.67058
G1 X65.7166 Y15.1976 E20.69654
G1 X63.8211 Y14.7975 E20.72235
G1 X61.9050 Y14.4851 E20.74821
G1 X59.9773 Y14.2616 E20.77407
G1 X58.0407 Y14.1271 E20.79993
G1 X56.1000 Y14.0824 E20.82579
G1 X54.1585 Y14.1271 E20.85166
G1 X52.2216 Y14.2616 E20.87753
G1 X50.2939 Y14.4851 E20.90338
G1 X48.3778 Y14.7975 E20.92925
G1 X46.4819 Y15.1976 E20.95506
G1 X44.5967 Y15.6870 E20.98101
G1 X42.7466 Y16.2603 E21.00682
G1 X40.9228 Y16.9185 E21.03265
G1 X39.1253 Y17.6628 E21.05857
G1 X37.3710 Y18.4867 E21.08439
G1 X35.6556 Y19.3910 E21.11022
G1 X33.9775 Y20.3768 E21.13615
G1 X32.3551 Y21.4339 E21.16195
G1 X30.7774 Y22.5693 E21.18785
G1 X29.2555 Y23.7746 E21.21371
G1 X27.7975 Y25.0443 E21.23947
G1 X26.6137 Y26.1741 E21.26127
G1 X26.4962 Y26.4043 E21.26471
G1 X26.5681 Y26.6496 F4800 ;  Move Only (0.26 mm)
G1 X26.6801 Y26.8795 ;  Move Only (0.26 mm)
G1 X28.3666 Y29.7092 ;  Move Only (3.3 mm)
G1 X28.5452 Y29.8259 ;  Move Only (0.21 mm)
G1 X28.7340 Y29.7359 E21.26750 F1200
G1 X28.8978 Y29.6057 E21.27029
G1 X29.9772 Y28.5263 E21.29062
G1 X31.5075 Y27.1526 E21.31802
G1 X33.1146 Y25.8612 E21.34549
G1 X34.7851 Y24.6613 E21.37289
G1 X36.5171 Y23.5541 E21.40027
G1 X38.3110 Y22.5399 E21.42773
G1 X40.1501 Y21.6280 E21.45508
G1 X42.0371 Y20.8161 E21.48245
G1 X43.9754 Y20.1037 E21.50996
G1 X45.9370 Y19.5018 E21.53729
G1 X47.9342 Y19.0047 E21.56471
G1 X49.9543 Y18.6174 E21.59212
G1 X51.9938 Y18.3397 E21.61954
G1 X54.0434 Y18.1726 E21.64694
G1 X56.1000 Y18.1169 E21.67434
G1 X58.1554 Y18.1726 E21.70174
G1 X60.2055 Y18.3397 E21.72914
G1 X62.2449 Y18.6174 E21.75656
G1 X64.2650 Y19.0047 E21.78396
G1 X66.2616 Y19.5018 E21.81138
G1 X68.2232 Y20.1037 E21.83871
G1 X70.1618 Y20.8160 E21.86623
G1 X72.0466 Y21.6264 E21.89356
G1 X73.8894 Y22.5410 E21.92097
G1 X75.6825 Y23.5547 E21.94841
G1 X77.4140 Y24.6613 E21.97579
G1 X79.0844 Y25.8612 E22.00319
G1 X80.6913 Y27.1526 E22.03065
G1 X82.2219 Y28.5263 E22.05805
G1 X83.6728 Y29.9772 E22.08539
G1 X85.0466 Y31.5075 E22.11279
G1 X86.3375 Y33.1146 E22.14025
G1 X87.5367 Y34.7843 E22.16764
G1 X88.6449 Y36.5171 E22.19504
G1 X89.6588 Y38.3113 E22.22250
G1 X90.5714 Y40.1510 E22.24986
G1 X91.3831 Y42.0371 E22.27721
G1 X92.0950 Y43.9750 E22.30472
G1 X92.6978 Y45.9374 E22.33207
G1 X93.1939 Y47.9342 E22.35948
G1 X93.5816 Y49.9543 E22.38688
G1 X93.8594 Y51.9930 E22.41429
G1 X94.0265 Y54.0448 E22.44172
G1 X94.0714 Y56.4948 E22.47437
G1 X94.0263 Y58.1554 E22.49650
G1 X93.8594 Y60.2055 E22.52390
G1 X93.5816 Y62.2449 E22.55132
G1 X93.1939 Y64.2650 E22.57872
G1 X92.6978 Y66.2611 E22.60613
G1 X92.0950 Y68.2238 E22.63348
G1 X91.3831 Y70.1618 E22.66099
G1 X90.5716 Y72.0479 E22.68834
G1 X89.6592 Y73.8873 E22.71570
G1 X88.6438 Y75.6832 E22.74318
G1 X87.5375 Y77.4140 E22.77055
G1 X86.3375 Y79.0844 E22.79795
G1 X85.0466 Y80.6913 E22.82541
G1 X83.6728 Y82.2219 E22.85281
G1 X82.2219 Y83.6728 E22.88015
G1 X80.6913 Y85.0466 E22.90755
G1 X79.0844 Y86.3375 E22.93501
G1 X77.4140 Y87.5375 E22.96241
G1 X75.6832 Y88.6438 E22.98978
G1 X73.8873 Y89.6592 E23.01726
G1 X72.0479 Y90.5716 E23.04462
G1 X70.1618 Y91.3831 E23.07197
G1 X68.2238 Y92.0950 E23.09948
G1 X66.2611 Y92.6978 E23.12683
G1 X64.2650 Y93.1939 E23.15423
G1 X62.2449 Y93.5816 E23.18164
G1 X60.2055 Y93.8594 E23.20906
G1 X58.1554 Y94.0263 E23.23646
G1 X56.1000 Y94.0821 E23.26386
G1 X54.0434 Y94.0263 E23.29126
G1 X51.9938 Y93.8594 E23.31866
G1 X49.9543 Y93.5816 E23.34608
G1 X47.9342 Y93.1939 E23.37349
G1 X45.9374 Y92.6978 E23.40090
G1 X43.9750 Y92.0950 E23.42825
G1 X42.0371 Y91.3831 E23.45575
G1 X40.1510 Y90.5714 E23.48311
G1 X38.3113 Y89.6588 E23.51047
G1 X36.5171 Y88.6449 E23.53792
G1 X34.7843 Y87.5367 E23.56533
G1 X33.1146 Y86.3375 E23.59271
G1 X31.5042 Y85.0441 E23.62023
G1 X29.7043 Y83.3994 E23.65272
G1 X28.5232 Y82.2189 E23.67496
G1 X27.1526 Y80.6913 E23.70231
G1 X25.8612 Y79.0844 E23.72977
G1 X24.6613 Y77.4140 E23.75717
G1 X23.5547 Y75.6825 E23.78455
G1 X22.5410 Y73.8894 E23.81199
G1 X21.6264 Y72.0466 E23.83940
G1 X20.8160 Y70.1618 E23.86673
G1 X20.1037 Y68.2232 E23.89425
G1 X19.5018 Y66.2616 E23.92158
G1 X19.0047 Y64.2650 E23.94899
G1 X18.6174 Y62.2449 E23.97640
G1 X18.3397 Y60.2055 E24.00382
G1 X18.1726 Y58.1554 E24.03122
G1 X18.1169 Y56.0998 E24.05862
G1 X18.1619 Y54.4333 E24.08083
G1 X18.3388 Y51.9989 E24.11334
G1 X18.6174 Y49.9543 E24.14084
G1 X19.0047 Y47.9342 E24.16824
G1 X19.5018 Y45.9370 E24.19566
G1 X20.1037 Y43.9754 E24.22300
G1 X20.8161 Y42.0371 E24.25051
G1 X21.6280 Y40.1501 E24.27788
G1 X22.5399 Y38.3110 E24.30522
G1 X23.5541 Y36.5171 E24.33268
G1 X24.6613 Y34.7851 E24.36006
G1 X25.8612 Y33.1146 E24.38747
G1 X27.1526 Y31.5075 E24.41493
G1 X28.4270 Y30.0878 E24.44035
G1 X28.5287 Y30.0400 E24.44185
G1 X28.5611 Y30.0522 F4800 ;  Move Only (0.035 mm)
G1 X28.6557 Y30.1117 ;  Move Only (0.11 mm)
G1 X28.7197 Y30.1616 ;  Move Only (0.081 mm)
G1 X28.7839 Y30.1608 E24.44227 F1440
G1 X30.1925 Y28.7522 E24.46881 F1200
G1 X31.7106 Y27.3897 E24.49599
G1 X33.3034 Y26.1100 E24.52321
G1 X34.9600 Y24.9199 E24.55039
G1 X36.6780 Y23.8216 E24.57755
G1 X38.4566 Y22.8161 E24.60477
G1 X40.2816 Y21.9112 E24.63191
G1 X42.1539 Y21.1055 E24.65906
G1 X44.0736 Y20.4002 E24.68631
G1 X46.0213 Y19.8023 E24.71346
G1 X48.0014 Y19.3096 E24.74064
G1 X50.0050 Y18.9253 E24.76782
G1 X52.0274 Y18.6500 E24.79501
G1 X54.0602 Y18.4842 E24.82218
G1 X56.1000 Y18.4290 E24.84937
G1 X58.1387 Y18.4842 E24.87654
G1 X60.1721 Y18.6500 E24.90372
G1 X62.1945 Y18.9253 E24.93091
G1 X64.1979 Y19.3096 E24.95809
G1 X66.1777 Y19.8023 E24.98527
G1 X68.1255 Y20.4002 E25.01241
G1 X70.0453 Y21.1055 E25.03966
G1 X71.9161 Y21.9101 E25.06679
G1 X73.7443 Y22.8171 E25.09398
G1 X75.5213 Y23.8216 E25.12118
G1 X77.2393 Y24.9199 E25.14834
G1 X78.8961 Y26.1100 E25.17552
G1 X80.4889 Y27.3897 E25.20274
G1 X82.0070 Y28.7522 E25.22992
G1 X83.4473 Y30.1925 E25.25705
G1 X84.8096 Y31.7106 E25.28423
G1 X86.0892 Y33.3034 E25.31145
G1 X87.2793 Y34.9600 E25.33862
G1 X88.3771 Y36.6772 E25.36578
G1 X89.3835 Y38.4574 E25.39302
G1 X90.2883 Y40.2816 E25.42015
G1 X91.0938 Y42.1539 E25.44730
G1 X91.7991 Y44.0736 E25.47455
G1 X92.3973 Y46.0213 E25.50169
G1 X92.8895 Y48.0014 E25.52888
G1 X93.2741 Y50.0050 E25.55606
G1 X93.5495 Y52.0274 E25.58325
G1 X93.7153 Y54.0615 E25.61044
G1 X93.7598 Y56.4922 E25.64283
G1 X93.7149 Y58.1387 E25.66477
G1 X93.5495 Y60.1721 E25.69195
G1 X93.2741 Y62.1945 E25.71914
G1 X92.8895 Y64.1979 E25.74632
G1 X92.3973 Y66.1777 E25.77350
G1 X91.7991 Y68.1255 E25.80065
G1 X91.0938 Y70.0453 E25.82789
G1 X90.2887 Y71.9169 E25.85504
G1 X89.3830 Y73.7428 E25.88219
G1 X88.3771 Y75.5219 E25.90942
G1 X87.2794 Y77.2393 E25.93658
G1 X86.0892 Y78.8961 E25.96375
G1 X84.8096 Y80.4889 E25.99097
G1 X83.4473 Y82.0070 E26.01815
G1 X82.0070 Y83.4473 E26.04528
G1 X80.4889 Y84.8096 E26.07246
G1 X78.8961 Y86.0892 E26.09968
G1 X77.2393 Y87.2794 E26.12686
G1 X75.5219 Y88.3771 E26.15401
G1 X73.7428 Y89.3830 E26.18124
G1 X71.9169 Y90.2887 E26.20839
G1 X70.0453 Y91.0938 E26.23554
G1 X68.1255 Y91.7991 E26.26278
G1 X66.1777 Y92.3973 E26.28993
G1 X64.1979 Y92.8895 E26.31711
G1 X62.1945 Y93.2741 E26.34429
G1 X60.1721 Y93.5495 E26.37148
G1 X58.1387 Y93.7149 E26.39866
G1 X56.1000 Y93.7704 E26.42583
G1 X54.0602 Y93.7149 E26.45302
G1 X52.0274 Y93.5495 E26.48019
G1 X50.0050 Y93.2741 E26.50738
G1 X48.0014 Y92.8895 E26.53456
G1 X46.0213 Y92.3973 E26.56174
G1 X44.0736 Y91.7991 E26.58889
G1 X42.1539 Y91.0938 E26.61613
G1 X40.2816 Y90.2883 E26.64329
G1 X38.4574 Y89.3835 E26.67042
G1 X36.6772 Y88.3771 E26.69766
G1 X34.9600 Y87.2793 E26.72481
G1 X33.3034 Y86.0892 E26.75199
G1 X31.7081 Y84.8078 E26.77925
G1 X29.9193 Y83.1736 E26.81153
G1 X28.7503 Y82.0048 E26.83355
G1 X27.3897 Y80.4889 E26.86069
G1 X26.1100 Y78.8961 E26.88791
G1 X24.9199 Y77.2393 E26.91509
G1 X23.8216 Y75.5213 E26.94225
G1 X22.8171 Y73.7443 E26.96945
G1 X21.9101 Y71.9161 E26.99664
G1 X21.1055 Y70.0453 E27.02377
G1 X20.4002 Y68.1255 E27.05102
G1 X19.8023 Y66.1777 E27.07816
G1 X19.3096 Y64.1979 E27.10534
G1 X18.9253 Y62.1945 E27.13252
G1 X18.6500 Y60.1721 E27.15971
G1 X18.4842 Y58.1387 E27.18689
G1 X18.4290 Y56.0998 E27.21406
G1 X18.4737 Y54.4494 E27.23606
G1 X18.6494 Y52.0310 E27.26836
G1 X18.9253 Y50.0050 E27.29561
G1 X19.3096 Y48.0014 E27.32279
G1 X19.8023 Y46.0213 E27.34997
G1 X20.4002 Y44.0736 E27.37711
G1 X21.1055 Y42.1539 E27.40436
G1 X21.9112 Y40.2816 E27.43152
G1 X22.8161 Y38.4566 E27.45865
G1 X23.8216 Y36.6780 E27.48587
G1 X24.9199 Y34.9600 E27.51304
G1 X26.1100 Y33.3034 E27.54021
G1 X27.3897 Y31.7106 E27.56744
G1 X28.6529 Y30.3031 E27.59263
G1 X28.7547 Y30.2553 E27.59413
G1 X28.7870 Y30.2675 F4800 ;  Move Only (0.035 mm)
G1 X28.8816 Y30.3270 ;  Move Only (0.11 mm)
G1 X28.9456 Y30.3769 ;  Move Only (0.081 mm)
G1 X28.9781 Y30.4078 ;  Move Only (0.045 mm)
G1 X30.4078 Y28.9781 E27.62107 F1200
G1 X28.9781 Y30.4078 F4800 ;  Move Only (2 mm)
G1 X30.4078 Y28.9781 E27.64800 F1200
G1 X31.9135 Y27.6271 E27.67495
G1 X33.4919 Y26.3588 E27.70193
G1 X35.1349 Y25.1783 E27.72888
G1 X36.8390 Y24.0891 E27.75583
G1 X38.6021 Y23.0924 E27.78281
G1 X40.4130 Y22.1942 E27.80974
G1 X42.2708 Y21.3950 E27.83668
G1 X44.1723 Y20.6963 E27.86367
G1 X46.1052 Y20.1030 E27.89061
G1 X48.0686 Y19.6145 E27.91756
G1 X50.0558 Y19.2333 E27.94452
G1 X52.0609 Y18.9602 E27.97148
G1 X54.0772 Y18.7959 E27.99843
G1 X56.1000 Y18.7411 E28.02539
G1 X58.1222 Y18.7959 E28.05234
G1 X60.1388 Y18.9602 E28.07930
G1 X62.1440 Y19.2333 E28.10626
G1 X64.1310 Y19.6145 E28.13321
G1 X66.0943 Y20.1030 E28.16017
G1 X68.0273 Y20.6963 E28.18711
G1 X69.9289 Y21.3950 E28.21410
G1 X71.7859 Y22.1937 E28.24103
G1 X73.5982 Y23.0928 E28.26798
G1 X75.3606 Y24.0891 E28.29495
G1 X77.0647 Y25.1783 E28.32190
G1 X78.7079 Y26.3588 E28.34885
G1 X80.2863 Y27.6271 E28.37583
G1 X81.7920 Y28.9781 E28.40278
G1 X83.2216 Y30.4078 E28.42971
G1 X84.5727 Y31.9135 E28.45667
G1 X85.8409 Y33.4919 E28.48364
G1 X87.0213 Y35.1349 E28.51059
G1 X88.1104 Y36.8390 E28.53754
G1 X89.1073 Y38.6021 E28.56452
G1 X90.0055 Y40.4130 E28.59145
G1 X90.8046 Y42.2708 E28.61839
G1 X91.5033 Y44.1723 E28.64538
G1 X92.0968 Y46.1052 E28.67232
G1 X92.5851 Y48.0686 E28.69928
G1 X92.9663 Y50.0558 E28.72623
G1 X93.2396 Y52.0609 E28.75319
G1 X93.4039 Y54.0782 E28.78016
G1 X93.4481 Y56.4895 E28.81229
G1 X93.4036 Y58.1222 E28.83405
G1 X93.2396 Y60.1388 E28.86100
G1 X92.9663 Y62.1440 E28.88796
G1 X92.5851 Y64.1310 E28.91492
G1 X92.0968 Y66.0943 E28.94187
G1 X91.5033 Y68.0273 E28.96881
G1 X90.8046 Y69.9289 E28.99580
G1 X90.0059 Y71.7859 E29.02273
G1 X89.1069 Y73.5982 E29.04968
G1 X88.1104 Y75.3606 E29.07666
G1 X87.0213 Y77.0647 E29.10360
G1 X85.8409 Y78.7079 E29.13056
G1 X84.5727 Y80.2863 E29.15753
G1 X83.2216 Y81.7920 E29.18448
G1 X81.7920 Y83.2216 E29.21142
G1 X80.2863 Y84.5727 E29.23837
G1 X78.7079 Y85.8409 E29.26535
G1 X77.0647 Y87.0213 E29.29230
G1 X75.3606 Y88.1104 E29.31924
G1 X73.5982 Y89.1069 E29.34622
G1 X71.7859 Y90.0059 E29.37317
G1 X69.9289 Y90.8046 E29.40010
G1 X68.0273 Y91.5033 E29.42709
G1 X66.0943 Y92.0968 E29.45403
G1 X64.1310 Y92.5851 E29.48098
G1 X62.1440 Y92.9663 E29.50794
G1 X60.1388 Y93.2396 E29.53490
G1 X58.1222 Y93.4036 E29.56185
G1 X56.1000 Y93.4585 E29.58880
G1 X54.0772 Y93.4036 E29.61576
G1 X52.0609 Y93.2396 E29.64271
G1 X50.0558 Y92.9663 E29.66967
G1 X48.0686 Y92.5851 E29.69663
G1 X46.1052 Y92.0968 E29.72359
G1 X44.1723 Y91.5033 E29.75052
G1 X42.2708 Y90.8046 E29.77751
G1 X40.4130 Y90.0055 E29.80446
G1 X38.6021 Y89.1073 E29.83139
G1 X36.8390 Y88.1104 E29.85837
G1 X35.1349 Y87.0213 E29.88531
G1 X33.4919 Y85.8409 E29.91227
G1 X31.9120 Y84.5715 E29.93927
G1 X30.1343 Y82.9478 E29.97134
G1 X28.9772 Y81.7909 E29.99314
G1 X27.6271 Y80.2863 E30.02007
G1 X26.3588 Y78.7079 E30.04705
G1 X25.1783 Y77.0647 E30.07400
G1 X24.0891 Y75.3606 E30.10095
G1 X23.0928 Y73.5982 E30.12792
G1 X22.1937 Y71.7859 E30.15487
G1 X21.3950 Y69.9289 E30.18180
G1 X20.6963 Y68.0273 E30.20879
G1 X20.1030 Y66.0943 E30.23573
G1 X19.6145 Y64.1310 E30.26269
G1 X19.2333 Y62.1440 E30.28964
G1 X18.9602 Y60.1388 E30.31660
G1 X18.7959 Y58.1222 E30.34356
G1 X18.7411 Y56.0998 E30.37051
G1 X18.7854 Y54.4652 E30.39230
G1 X18.9600 Y52.0631 E30.42438
G1 X19.2333 Y50.0558 E30.45137
G1 X19.6145 Y48.0686 E30.47833
G1 X20.1030 Y46.1052 E30.50528
G1 X20.6963 Y44.1723 E30.53222
G1 X21.3950 Y42.2708 E30.55921
G1 X22.1942 Y40.4130 E30.58615
G1 X23.0924 Y38.6021 E30.61308
G1 X24.0891 Y36.8390 E30.64007
G1 X25.1783 Y35.1349 E30.66701
G1 X26.3588 Y33.4919 E30.69396
G1 X27.6271 Y31.9135 E30.72094
G1 X28.7377 Y30.6758 E30.74310
G1 X28.9781 Y30.4078 E29.74789 F540 ; AbsE -1.0000 (-25.00/-0.12 mm/s) 
; Infill
G1 X27.6271 Y31.9135 F4800 ;  Move Only (2 mm)
G1 X28.9781 Y30.4078 ;  Move Only (2 mm)
G1 X27.6271 Y31.9135 ;  Move Only (2 mm)
G1 X26.3588 Y33.4919 ;  Move Only (2 mm)
G1 X25.1783 Y35.1349 ;  Move Only (2 mm)
G1 X24.0891 Y36.8390 ;  Move Only (2 mm)
G1 X23.0924 Y38.6021 ;  Move Only (2 mm)
G1 X22.1942 Y40.4130 ;  Move Only (2 mm)
G1 X21.3950 Y42.2708 ;  Move Only (2 mm)
G1 X20.6963 Y44.1723 ;  Move Only (2 mm)
G1 X20.1030 Y46.1052 ;  Move Only (2 mm)
G1 X19.6145 Y48.0686 ;  Move Only (2 mm)
G1 X19.2921 Y49.7494 ;  Move Only (1.7 mm)
G1 X19.1639 Y49.9202 ;  Move Only (0.21 mm)
G1 X18.9554 Y49.9005 ;  Move Only (0.21 mm)
G1 X18.7567 Y49.8343 ;  Move Only (0.21 mm)
G1 X18.6994 Y49.8077 ;  Move Only (0.063 mm)
G1 X18.4937 Y49.8151 ;  Move Only (0.21 mm)
G1 X18.4015 Y49.9944 E30.03119 F1080 ; AbsE 0.2800 (25.00/-0.29 mm/s) 
G1 X18.3537 Y50.1903 E30.31449 ; AbsE 0.2800 (25.00/-0.29 mm/s) 
G1 X18.3152 Y50.5047 E30.75957 ; AbsE 0.4399 (25.00/-0.29 mm/s) 
G1 X18.0613 Y52.5825 E30.79353 F1200
G1 X18.0234 Y52.5423 E30.79443
G1 Y39.2563 E31.00998
G1 X18.0574 Y38.9520 E31.01495
G1 X18.1575 Y38.6626 E31.01992
G1 X18.6755 Y37.5749 E31.03946
G1 X18.8096 Y37.7427 E31.04295
G1 Y47.3719 E31.19917
G1 X18.9126 Y47.3034 E31.20118
G1 X19.5144 Y45.0800 E31.23855
G1 X19.5754 Y44.7761 E31.24358
G1 X19.5959 Y44.4668 E31.24861
G1 Y36.1132 E31.38414
G1 X19.6361 Y35.8121 E31.38907
G1 X19.7538 Y35.5321 E31.39399
G1 X20.2242 Y34.7300 E31.40908
G1 X20.3821 Y34.9365 E31.41330
G1 Y42.1818 E31.53084
G1 X20.5472 Y42.0933 E31.53388
G1 X21.0495 Y40.8745 E31.55527
G1 X21.1384 Y40.5801 E31.56026
G1 X21.1684 Y40.2740 E31.56525
G1 Y33.5316 E31.67464
G1 X21.2131 Y33.2333 E31.67953
G1 X21.3434 Y32.9613 E31.68442
G1 X21.7796 Y32.3172 E31.69705
G1 X21.9061 Y32.4067 E31.69956
G1 X21.9546 Y32.7089 E31.70452
G1 Y38.6170 E31.80038
G1 X22.1716 Y38.5203 E31.80423
G1 X22.5945 Y37.7237 E31.81886
G1 X22.7037 Y37.4389 E31.82381
G1 X22.7408 Y37.1361 E31.82876
G1 Y31.2787 E31.92379
G1 X22.7905 Y30.9839 E31.92864
G1 X22.9341 Y30.7218 E31.93349
G1 X23.3338 Y30.2153 E31.94396
G1 X23.4738 Y30.3203 E31.94680
G1 X23.5137 Y30.4891 E31.94961
G1 X23.5271 Y30.6620 E31.95243
G1 Y35.7835 E32.03552
G1 X23.7894 Y35.6851 E32.04006
G1 X24.1453 Y35.1285 E32.05078
G1 X24.2704 Y34.8531 E32.05569
G1 X24.3133 Y34.5536 E32.06060
G1 Y29.3291 E32.14536
G1 X24.3662 Y29.0369 E32.15018
G1 X24.5181 Y28.7817 E32.15500
G1 X24.8948 Y28.3486 E32.16431
G1 X25.0434 Y28.4642 E32.16736
G1 X25.0855 Y28.6460 E32.17039
G1 X25.0996 Y28.8321 E32.17342
G1 Y33.4349 E32.24809
G1 X25.2662 Y33.4359 E32.25080
G1 X25.3925 Y33.3297 E32.25347
G1 X25.5008 Y33.2052 E32.25615
G1 X25.7001 Y32.9361 E32.26158
G1 X25.8382 Y32.6697 E32.26645
G1 X25.8858 Y32.3734 E32.27132
G1 Y27.5884 E32.34895
G1 X25.9421 Y27.2991 E32.35373
G1 X26.1026 Y27.0520 E32.35851
G1 X26.4552 Y26.6872 E32.36675
G1 X26.6127 Y26.8148 E32.37004
G1 X26.6571 Y27.0109 E32.37330
G1 X26.6720 Y27.2114 E32.37656
G1 Y31.3949 E32.44443
G1 X26.8585 Y31.4045 E32.44746
G1 X27.0078 Y31.2951 E32.45047
G1 X27.1389 Y31.1643 E32.45347
G1 X27.2548 Y31.0296 E32.45635
G1 X27.4058 Y30.7736 E32.46118
G1 X27.4583 Y30.4811 E32.46600
G1 Y26.0246 E32.53830
G1 X27.5181 Y25.7387 E32.54304
G1 X27.6987 Y25.5107 E32.54776
G1 X27.9018 Y25.3025 E32.55248
G1 X28.0154 Y25.1975 E32.55499
G1 X28.1627 Y25.1727 E32.55741
G1 X28.2445 Y25.4471 E32.56205
G1 Y29.6053 E32.62952
G1 X28.4491 Y29.6245 E32.63285
G1 X28.6205 Y29.5143 E32.63616
G1 X28.7738 Y29.3802 E32.63946
G1 X28.8118 Y29.3416 E32.64034
G1 X28.9739 Y29.0961 E32.64511
G1 X29.0308 Y28.8074 E32.64989
G1 Y24.6128 E32.71794
G1 X29.0938 Y24.3304 E32.72264
G1 X29.2822 Y24.1125 E32.72731
G1 X29.4934 Y23.9166 E32.73198
G1 X29.5770 Y23.8471 E32.73375
G1 X29.7328 Y23.8272 E32.73629
G1 X29.8170 Y24.1169 E32.74119
G1 Y28.0225 E32.80455
G1 X29.8995 Y28.1496 E32.80701
G1 X30.1620 Y28.0249 E32.81173
G1 X30.3710 Y27.8372 E32.81628
G1 X30.5425 Y27.6017 E32.82101
G1 X30.5880 Y27.3152 E32.82572
G1 X30.6032 Y27.0255 E32.83042
G1 Y23.3374 E32.89026
G1 X30.6691 Y23.0584 E32.89491
G1 X30.8643 Y22.8504 E32.89954
G1 X31.0823 Y22.6664 E32.90417
G1 X31.1398 Y22.6233 E32.90533
G1 X31.3032 Y22.6086 E32.90799
G1 X31.3675 Y22.7544 E32.91058
G1 X31.3895 Y22.9123 E32.91317
G1 Y26.6150 E32.97324
G1 X31.4744 Y26.7499 E32.97582
G1 X31.7569 Y26.6318 E32.98079
G1 X31.9325 Y26.4907 E32.98445
G1 X32.1118 Y26.2646 E32.98913
G1 X32.1597 Y25.9815 E32.99379
G1 X32.1757 Y25.6948 E32.99844
G1 Y22.1824 E33.05543
G1 X32.2442 Y21.9067 E33.06004
G1 X32.4452 Y21.7081 E33.06462
G1 X32.6688 Y21.5354 E33.06921
G1 X32.7039 Y21.5115 E33.06990
G1 X32.8741 Y21.5022 E33.07266
G1 X32.9396 Y21.6544 E33.07535
G1 X32.9620 Y21.8186 E33.07804
G1 Y25.3516 E33.13536
G1 X33.0490 Y25.4940 E33.13806
G1 X33.2075 Y25.4599 E33.14069
G1 X33.3509 Y25.3842 E33.14333
G1 X33.4948 Y25.2808 E33.14620
G1 X33.6812 Y25.0643 E33.15083
G1 X33.7314 Y24.7847 E33.15544
G1 X33.7482 Y24.5011 E33.16005
G1 Y21.1357 E33.21465
G1 X33.8191 Y20.8633 E33.21922
G1 X34.0250 Y20.6739 E33.22376
G1 X34.2534 Y20.5121 E33.22830
G1 X34.2688 Y20.5026 E33.22859
G1 X34.4451 Y20.4987 E33.23146
G1 X34.5117 Y20.6570 E33.23424
G1 X34.5344 Y20.8271 E33.23703
G1 Y24.2218 E33.29210
G1 X34.6229 Y24.3706 E33.29491
G1 X34.7889 Y24.3414 E33.29764
G1 X34.9411 Y24.2693 E33.30038
G1 X35.0592 Y24.1925 E33.30266
G1 X35.2511 Y23.9846 E33.30725
G1 X35.3032 Y23.7082 E33.31181
G1 X35.3207 Y23.4275 E33.31638
G1 Y20.1890 E33.36892
G1 X35.3937 Y19.9197 E33.37345
G1 X35.6038 Y19.7389 E33.37794
G1 X35.8359 Y19.5874 E33.38244
G1 X36.0169 Y19.5889 E33.38538
G1 X36.0840 Y19.7520 E33.38824
G1 X36.1069 Y19.9269 E33.39110
G1 Y23.2078 E33.44433
G1 X36.1967 Y23.3623 E33.44723
G1 X36.3691 Y23.3381 E33.45005
G1 X36.5292 Y23.2699 E33.45288
G1 X36.6247 Y23.2134 E33.45468
G1 X36.8214 Y23.0135 E33.45923
G1 X36.8752 Y22.7402 E33.46375
G1 X36.8932 Y22.4621 E33.46827
G1 Y19.3324 E33.51904
G1 X36.9681 Y19.0662 E33.52353
G1 X36.9713 Y19.0632 E33.52360
G1 X37.1815 Y18.8933 E33.52799
G1 X37.4130 Y18.7538 E33.53237
G1 X37.5918 Y18.7604 E33.53527
G1 X37.6571 Y18.9223 E33.53811
G1 X37.6794 Y19.0955 E33.54094
G1 Y22.2980 E33.59290
G1 X37.7701 Y22.4577 E33.59588
G1 X37.9482 Y22.4383 E33.59878
G1 X38.1153 Y22.3740 E33.60169
G1 X38.1912 Y22.3329 E33.60309
G1 X38.3918 Y22.1404 E33.60760
G1 X38.4471 Y21.8699 E33.61208
G1 X38.4656 Y21.5944 E33.61656
G1 Y18.5600 E33.66579
G1 X38.5422 Y18.2968 E33.67024
G1 X38.5493 Y18.2906 E33.67039
G1 X38.7585 Y18.1316 E33.67465
G1 X38.9881 Y18.0037 E33.67892
G1 X39.1661 Y18.0152 E33.68181
G1 X39.2301 Y18.1771 E33.68463
G1 X39.2519 Y18.3499 E33.68746
G1 Y21.4825 E33.73828
G1 X39.3434 Y21.6470 E33.74134
G1 X39.5265 Y21.6324 E33.74432
G1 X39.7000 Y21.5723 E33.74730
G1 X39.7586 Y21.5432 E33.74836
G1 X39.9625 Y21.3577 E33.75283
G1 X40.0191 Y21.0899 E33.75727
G1 X40.0381 Y20.8169 E33.76171
G1 Y17.8667 E33.80957
G1 X40.1168 Y17.6073 E33.81397
G1 X40.1279 Y17.5982 E33.81421
G1 X40.3361 Y17.4515 E33.81834
G1 X40.5635 Y17.3371 E33.82247
G1 X40.7405 Y17.3545 E33.82535
G1 X40.8031 Y17.5167 E33.82817
G1 X40.8244 Y17.6893 E33.83100
G1 Y20.7538 E33.88071
G1 X40.9169 Y20.9254 E33.88388
G1 X41.1072 Y20.9186 E33.88697
G1 X41.2900 Y20.8654 E33.89005
G1 X41.3240 Y20.8508 E33.89066
G1 X41.5325 Y20.6761 E33.89507
G1 X41.5910 Y20.4126 E33.89945
G1 X41.6106 Y20.1435 E33.90383
G1 Y17.2473 E33.95081
G1 X41.6913 Y16.9920 E33.95516
G1 X41.7059 Y16.9808 E33.95545
G1 X41.9132 Y16.8462 E33.95947
G1 X42.1387 Y16.7448 E33.96348
G1 X42.3149 Y16.7684 E33.96636
G1 X42.3760 Y16.9311 E33.96918
G1 X42.3968 Y17.1038 E33.97200
G1 Y20.1057 E34.02071
G1 X42.4899 Y20.2843 E34.02397
G1 X42.6870 Y20.2860 E34.02717
G1 X42.8787 Y20.2407 E34.03037
G1 X42.8902 Y20.2365 E34.03057
G1 X43.1026 Y20.0727 E34.03492
G1 X43.1629 Y19.8138 E34.03923
G1 X43.1831 Y19.5487 E34.04354
G1 Y16.6981 E34.08979
G1 X43.2656 Y16.4469 E34.09408
G1 X43.2828 Y16.4348 E34.09442
G1 X43.4897 Y16.3110 E34.09833
G1 X43.7136 Y16.2216 E34.10224
G1 X43.8890 Y16.2512 E34.10513
G1 X43.9490 Y16.4149 E34.10796
G1 X43.9693 Y16.5880 E34.11079
G1 Y19.5325 E34.15856
G1 X44.0628 Y19.7179 E34.16193
G1 X44.2660 Y19.7286 E34.16523
G1 X44.4661 Y19.6919 E34.16853
G1 X44.6754 Y19.5437 E34.17269
G1 X44.7354 Y19.2969 E34.17681
G1 X44.7556 Y19.0437 E34.18093
G1 Y16.2152 E34.22682
G1 X44.8399 Y15.9684 E34.23105
G1 X44.8588 Y15.9560 E34.23142
G1 X45.0656 Y15.8428 E34.23524
G1 X45.2882 Y15.7650 E34.23907
G1 X45.4631 Y15.8009 E34.24197
G1 X45.5219 Y15.9659 E34.24481
G1 X45.5418 Y16.1398 E34.24765
G1 Y19.0496 E34.29486
G1 X45.6355 Y19.2389 E34.29828
G1 X45.8419 Y19.2551 E34.30164
G1 X46.0466 Y19.2238 E34.30500
G1 X46.2496 Y19.0870 E34.30897
G1 X46.3083 Y18.8519 E34.31291
G1 X46.3280 Y18.6104 E34.31684
G1 Y15.8072 E34.36232
G1 X46.4135 Y15.5637 E34.36650
G1 X46.4330 Y15.5515 E34.36688
G1 X46.6400 Y15.4454 E34.37065
G1 X46.8619 Y15.3756 E34.37442
G1 X47.0366 Y15.4160 E34.37733
G1 X47.0946 Y15.5821 E34.38019
G1 X47.1143 Y15.7570 E34.38304
G1 Y18.6393 E34.42981
G1 X47.2080 Y18.8316 E34.43328
G1 X47.4168 Y18.8521 E34.43668
G1 X47.6249 Y18.8251 E34.44009
G1 X47.8234 Y18.6965 E34.44392
G1 X47.8811 Y18.4697 E34.44772
G1 X47.9005 Y18.2364 E34.45152
G1 Y15.4652 E34.49648
G1 X47.9869 Y15.2244 E34.50063
G1 X48.0066 Y15.2126 E34.50100
G1 X48.2139 Y15.1122 E34.50474
G1 X48.4353 Y15.0489 E34.50847
G1 X48.6099 Y15.0931 E34.51140
G1 X48.6673 Y15.2604 E34.51427
G1 X48.6868 Y15.4361 E34.51713
G1 Y18.2942 E34.56350
G1 X48.7804 Y18.4930 E34.56707
G1 X48.9940 Y18.5232 E34.57057
G1 X49.2090 Y18.5061 E34.57407
G1 X49.3985 Y18.3939 E34.57764
G1 X49.4542 Y18.1834 E34.58117
G1 X49.4730 Y17.9665 E34.58471
G1 Y15.1835 E34.62986
G1 X49.5604 Y14.9458 E34.63397
G1 X49.5800 Y14.9347 E34.63433
G1 X49.7877 Y14.8404 E34.63803
G1 X50.0087 Y14.7840 E34.64173
G1 X50.1832 Y14.8326 E34.64467
G1 X50.2400 Y15.0012 E34.64756
G1 X50.2592 Y15.1781 E34.65044
G1 Y18.0119 E34.69642
G1 X50.3524 Y18.2171 E34.70008
G1 X50.5702 Y18.2578 E34.70367
G1 X50.7917 Y18.2514 E34.70727
G1 X50.9731 Y18.1537 E34.71061
G1 X51.0273 Y17.9574 E34.71391
G1 X51.0455 Y17.7547 E34.71722
G1 Y14.9608 E34.76254
G1 X51.1342 Y14.7278 E34.76659
G1 X51.1528 Y14.7182 E34.76693
G1 X51.3615 Y14.6328 E34.77059
G1 X51.5822 Y14.5867 E34.77424
G1 X51.7568 Y14.6419 E34.77721
G1 X51.8128 Y14.8130 E34.78014
G1 X51.8317 Y14.9920 E34.78306
G1 Y17.7979 E34.82858
G1 X51.9245 Y18.0083 E34.83231
G1 X51.9269 Y18.0091 E34.83235
G1 X52.1452 Y18.0581 E34.83598
G1 X52.3689 Y18.0611 E34.83961
G1 X52.5464 Y17.9730 E34.84282
G1 X52.5999 Y17.7849 E34.84600
G1 X52.6180 Y17.5901 E34.84917
G1 Y14.7961 E34.89450
G1 X52.7079 Y14.5680 E34.89848
G1 X52.7246 Y14.5600 E34.89878
G1 X52.9347 Y14.4831 E34.90241
G1 X53.1554 Y14.4468 E34.90604
G1 X53.3303 Y14.5088 E34.90905
G1 X53.3855 Y14.6828 E34.91201
G1 X53.4042 Y14.8644 E34.91497
G1 Y17.6623 E34.96036
G1 X53.4967 Y17.8750 E34.96413
G1 X53.5017 Y17.8768 E34.96421
G1 X53.7186 Y17.9292 E34.96783
G1 X53.9416 Y17.9364 E34.97145
G1 X54.1186 Y17.8519 E34.97464
G1 X54.1723 Y17.6660 E34.97777
G1 X54.1904 Y17.4734 E34.98091
G1 Y14.6878 E35.02611
G1 X54.2813 Y14.4647 E35.03002
G1 X54.2951 Y14.4587 E35.03026
G1 X54.5070 Y14.3900 E35.03387
G1 X54.7282 Y14.3634 E35.03749
G1 X54.9036 Y14.4325 E35.04055
G1 X54.9582 Y14.6100 E35.04356
G1 X54.9767 Y14.7947 E35.04657
G1 Y17.5857 E35.09185
G1 X55.0686 Y17.8033 E35.09568
G1 X55.0781 Y17.8070 E35.09585
G1 X55.2925 Y17.8669 E35.09946
G1 X55.5144 Y17.8831 E35.10307
G1 X55.6905 Y17.8060 E35.10619
G1 X55.7446 Y17.6243 E35.10927
G1 X55.7629 Y17.4356 E35.11234
G1 Y14.6516 E35.15751
G1 X55.8543 Y14.4313 E35.16138
G1 X55.8660 Y14.4265 E35.16158
G1 X56.0792 Y14.3625 E35.16520
G1 X56.3008 Y14.3414 E35.16881
G1 X56.4765 Y14.4147 E35.17190
G1 X56.5308 Y14.5943 E35.17494
G1 X56.5492 Y14.7810 E35.17799
G1 Y17.5675 E35.22319
G1 X56.6400 Y17.7911 E35.22711
G1 X56.6541 Y17.7972 E35.22736
G1 X56.8659 Y17.8666 E35.23097
G1 X57.0870 Y17.8940 E35.23459
G1 X57.2622 Y17.8255 E35.23764
G1 X57.3169 Y17.6484 E35.24065
G1 X57.3354 Y17.4640 E35.24365
G1 Y14.6723 E35.28895
G1 X57.4273 Y14.4549 E35.29278
G1 X57.4367 Y14.4512 E35.29294
G1 X57.6511 Y14.3916 E35.29655
G1 X57.8731 Y14.3757 E35.30016
G1 X58.0493 Y14.4531 E35.30328
G1 X58.1033 Y14.6349 E35.30636
G1 X58.1216 Y14.8237 E35.30944
G1 Y17.6100 E35.35464
G1 X58.2113 Y17.8391 E35.35863
G1 X58.2284 Y17.8473 E35.35894
G1 X58.4382 Y17.9258 E35.36258
G1 X58.6590 Y17.9640 E35.36621
G1 X58.8338 Y17.9033 E35.36921
G1 X58.8892 Y17.7299 E35.37217
G1 X58.9079 Y17.5488 E35.37512
G1 Y14.7494 E35.42054
G1 X59.0004 Y14.5366 E35.42430
G1 X59.0055 Y14.5348 E35.42439
G1 X59.2223 Y14.4821 E35.42801
G1 X59.4453 Y14.4747 E35.43163
G1 X59.6222 Y14.5590 E35.43481
G1 X59.6760 Y14.7448 E35.43795
G1 X59.6941 Y14.9374 E35.44109
G1 Y17.7356 E35.48648
G1 X59.7833 Y17.9668 E35.49050
G1 X59.8012 Y17.9759 E35.49083
G1 X60.0104 Y18.0581 E35.49448
G1 X60.2312 Y18.1007 E35.49813
G1 X60.4058 Y18.0430 E35.50111
G1 X60.4616 Y17.8709 E35.50405
G1 X60.4804 Y17.6909 E35.50698
G1 Y14.8829 E35.55254
G1 X60.5735 Y14.6754 E35.55623
G1 X60.7926 Y14.6308 E35.55986
G1 X61.0163 Y14.6330 E35.56348
G1 X61.1949 Y14.7258 E35.56675
G1 X61.2485 Y14.9173 E35.56998
G1 X61.2666 Y15.1154 E35.57320
G1 Y17.9203 E35.61871
G1 X61.3548 Y18.1553 E35.62278
G1 X61.3739 Y18.1656 E35.62314
G1 X61.5821 Y18.2547 E35.62681
G1 X61.8029 Y18.3052 E35.63049
G1 X61.9774 Y18.2529 E35.63344
G1 X62.0337 Y18.0829 E35.63635
G1 X62.0528 Y17.9048 E35.63925
G1 Y15.0736 E35.68519
G1 X62.1462 Y14.8715 E35.68880
G1 X62.3620 Y14.8360 E35.69235
G1 X62.5804 Y14.8478 E35.69589
G1 X62.7657 Y14.9524 E35.69935
G1 X62.8206 Y15.1554 E35.70276
G1 X62.8391 Y15.3649 E35.70617
G1 Y18.1651 E35.75160
G1 X62.9256 Y18.4056 E35.75575
G1 X62.9454 Y18.4173 E35.75612
G1 X63.1527 Y18.5170 E35.75985
G1 X63.3740 Y18.5796 E35.76358
G1 X63.5485 Y18.5349 E35.76651
G1 X63.6059 Y18.3676 E35.76938
G1 X63.6253 Y18.1917 E35.77225
G1 Y15.3303 E35.81867
G1 X63.7189 Y15.1327 E35.82222
G1 X63.9317 Y15.1043 E35.82570
G1 X64.1454 Y15.1233 E35.82918
G1 X64.3366 Y15.2385 E35.83280
G1 X64.3927 Y15.4519 E35.83638
G1 X64.4116 Y15.6718 E35.83996
G1 Y18.4718 E35.88539
G1 X64.4963 Y18.7176 E35.88961
G1 X64.5154 Y18.7300 E35.88998
G1 X64.7222 Y18.8411 E35.89379
G1 X64.9446 Y18.9165 E35.89760
G1 X65.1194 Y18.8792 E35.90050
G1 X65.1780 Y18.7140 E35.90334
G1 X65.1978 Y18.5398 E35.90619
G1 Y15.6551 E35.95299
G1 X65.2915 Y15.4609 E35.95649
G1 X65.5017 Y15.4377 E35.95992
G1 X65.7119 Y15.4619 E35.96335
G1 X65.9077 Y15.5855 E35.96711
G1 X65.9648 Y15.8074 E35.97082
G1 X65.9840 Y16.0357 E35.97454
G1 Y18.8632 E36.02041
G1 X66.0676 Y19.1119 E36.02467
G1 X66.0857 Y19.1243 E36.02503
G1 X66.2926 Y19.2420 E36.02889
G1 X66.5157 Y19.3249 E36.03275
G1 X66.6909 Y19.2917 E36.03564
G1 X66.7502 Y19.1273 E36.03848
G1 X66.7703 Y18.9538 E36.04131
G1 Y16.0408 E36.08857
G1 X66.8640 Y15.8500 E36.09202
G1 X67.0716 Y15.8319 E36.09540
G1 X67.2779 Y15.8611 E36.09878
G1 X67.4787 Y15.9939 E36.10269
G1 X67.5369 Y16.2250 E36.10655
G1 X67.5565 Y16.4625 E36.11042
G1 Y19.3259 E36.15688
G1 X67.6390 Y19.5771 E36.16117
G1 X67.6561 Y19.5892 E36.16151
G1 X67.8631 Y19.7130 E36.16542
G1 X68.0870 Y19.8025 E36.16933
G1 X68.2625 Y19.7729 E36.17222
G1 X68.3225 Y19.6092 E36.17505
G1 X68.3428 Y19.4361 E36.17788
G1 Y16.4895 E36.22568
G1 X68.4363 Y16.3044 E36.22905
G1 X68.6392 Y16.2942 E36.23234
G1 X68.8389 Y16.3313 E36.23564
G1 X69.0486 Y16.4804 E36.23981
G1 X69.1088 Y16.7282 E36.24395
G1 X69.1290 Y16.9823 E36.24808
G1 Y19.8587 E36.29475
G1 X69.2095 Y20.1146 E36.29910
G1 X69.2236 Y20.1255 E36.29939
G1 X69.4311 Y20.2616 E36.30342
G1 X69.6568 Y20.3646 E36.30744
G1 X69.8330 Y20.3419 E36.31033
G1 X69.8944 Y20.1792 E36.31315
G1 X69.9152 Y20.0066 E36.31597
G1 Y17.0046 E36.36467
G1 X70.0084 Y16.8253 E36.36795
G1 X70.2061 Y16.8227 E36.37116
G1 X70.3987 Y16.8671 E36.37437
G1 X70.4080 Y16.8705 E36.37453
G1 X70.6208 Y17.0331 E36.37887
G1 X70.6812 Y17.2915 E36.38318
G1 X70.7015 Y17.5562 E36.38748
G1 Y20.4644 E36.43467
G1 X70.7796 Y20.7250 E36.43908
G1 X70.7896 Y20.7334 E36.43929
G1 X70.9980 Y20.8835 E36.44346
G1 X71.2260 Y21.0019 E36.44763
G1 X71.4033 Y20.9862 E36.45051
G1 X71.4663 Y20.8242 E36.45334
G1 X71.4877 Y20.6516 E36.45616
G1 Y17.5881 E36.50586
G1 X71.5804 Y17.4147 E36.50905
G1 X71.7724 Y17.4194 E36.51216
G1 X71.9576 Y17.4707 E36.51528
G1 X71.9857 Y17.4823 E36.51578
G1 X72.1953 Y17.6543 E36.52017
G1 X72.2542 Y17.9166 E36.52454
G1 X72.2740 Y18.1848 E36.52890
G1 Y21.1485 E36.57698
G1 X72.3495 Y21.4137 E36.58145
G1 X72.3542 Y21.4179 E36.58156
G1 X72.5640 Y21.5837 E36.58590
G1 X72.7948 Y21.7190 E36.59024
G1 X72.9733 Y21.7105 E36.59313
G1 X73.0381 Y21.5486 E36.59596
G1 X73.0602 Y21.3757 E36.59879
G1 Y18.2440 E36.64960
G1 X73.1521 Y18.0767 E36.65270
G1 X73.3381 Y18.0883 E36.65572
G1 X73.5154 Y18.1458 E36.65874
G1 X73.5640 Y18.1686 E36.65962
G1 X73.7698 Y18.3498 E36.66407
G1 X73.8272 Y18.6159 E36.66848
G1 X73.8464 Y18.8875 E36.67290
G1 Y21.9288 E36.72224
G1 X73.9198 Y22.1975 E36.72676
G1 X74.1307 Y22.3765 E36.73125
G1 X74.3635 Y22.5259 E36.73574
G1 X74.5435 Y22.5233 E36.73866
G1 X74.6100 Y22.3610 E36.74150
G1 X74.6327 Y22.1870 E36.74435
G1 Y18.9825 E36.79634
G1 X74.7238 Y18.8207 E36.79935
G1 X74.9041 Y18.8380 E36.80229
G1 X75.0741 Y18.9004 E36.80523
G1 X75.1422 Y18.9359 E36.80647
G1 X75.3443 Y19.1252 E36.81097
G1 X75.4002 Y19.3946 E36.81543
G1 X75.4189 Y19.6690 E36.81989
G1 Y22.8071 E36.87081
G1 X75.4903 Y23.0787 E36.87536
G1 X75.6974 Y23.2659 E36.87989
G1 X75.9268 Y23.4250 E36.88442
G1 X75.9379 Y23.4317 E36.88463
G1 X76.1156 Y23.4342 E36.88751
G1 X76.1824 Y23.2745 E36.89032
G1 X76.2052 Y23.1030 E36.89313
G1 Y19.8064 E36.94661
G1 X76.2954 Y19.6498 E36.94955
G1 X76.4701 Y19.6721 E36.95240
G1 X76.6331 Y19.7388 E36.95526
G1 X76.7205 Y19.7887 E36.95689
G1 X76.9188 Y19.9856 E36.96143
G1 X76.9732 Y20.2578 E36.96593
G1 X76.9914 Y20.5348 E36.97043
G1 Y23.7829 E37.02313
G1 X77.0606 Y24.0577 E37.02773
G1 X77.2630 Y24.2537 E37.03230
G1 X77.4880 Y24.4234 E37.03687
G1 X77.5174 Y24.4428 E37.03744
G1 X77.6893 Y24.4506 E37.04024
G1 X77.7551 Y24.2967 E37.04295
G1 X77.7776 Y24.1308 E37.04567
G1 Y20.7175 E37.10105
G1 X77.8667 Y20.5664 E37.10389
G1 X78.0352 Y20.5936 E37.10666
G1 X78.1907 Y20.6642 E37.10943
G1 X78.2995 Y20.7323 E37.11151
G1 X78.4934 Y20.9369 E37.11609
G1 X78.5462 Y21.2121 E37.12063
G1 X78.5639 Y21.4918 E37.12518
G1 Y24.8679 E37.17995
G1 X78.6305 Y25.1461 E37.18459
G1 X78.8272 Y25.3517 E37.18921
G1 X79.0467 Y25.5329 E37.19383
G1 X79.0982 Y25.5706 E37.19486
G1 X79.2634 Y25.5839 E37.19755
G1 X79.3280 Y25.4365 E37.20017
G1 X79.3501 Y25.2770 E37.20278
G1 Y21.7220 E37.26045
G1 X79.4378 Y21.5769 E37.26320
G1 X79.5995 Y21.6089 E37.26588
G1 X79.7467 Y21.6832 E37.26855
G1 X79.8795 Y21.7747 E37.27117
G1 X80.0683 Y21.9875 E37.27579
G1 X80.1193 Y22.2658 E37.28038
G1 X80.1364 Y22.5482 E37.28497
G1 Y26.0745 E37.34218
G1 X80.2000 Y26.3562 E37.34686
G1 X80.3900 Y26.5719 E37.35153
G1 X80.6028 Y26.7652 E37.35619
G1 X80.6804 Y26.8282 E37.35781
G1 X80.8379 Y26.8470 E37.36038
G1 X80.9226 Y26.5543 E37.36533
G1 Y22.8296 E37.42576
G1 X81.0086 Y22.6910 E37.42840
G1 X81.1626 Y22.7277 E37.43097
G1 X81.3008 Y22.8052 E37.43354
G1 X81.4605 Y22.9266 E37.43680
G1 X81.6433 Y23.1480 E37.44146
G1 X81.6924 Y23.4294 E37.44609
G1 X81.7088 Y23.7146 E37.45073
G1 Y27.4183 E37.51081
G1 X81.7690 Y27.7037 E37.51555
G1 X81.9508 Y27.9303 E37.52026
G1 X82.1551 Y28.1367 E37.52497
G1 X82.2644 Y28.2362 E37.52737
G1 X82.4130 Y28.2604 E37.52981
G1 X82.4951 Y27.9838 E37.53449
G1 Y24.0505 E37.59831
G1 X82.5790 Y23.9188 E37.60084
G1 X82.8533 Y24.0399 E37.60570
G1 X83.0425 Y24.1990 E37.60972
G1 X83.2187 Y24.4290 E37.61442
G1 X83.2656 Y24.7136 E37.61910
G1 X83.2813 Y25.0016 E37.62377
G1 Y28.9208 E37.68736
G1 X83.3377 Y29.2100 E37.69214
G1 X83.4985 Y29.4568 E37.69692
G1 X83.8504 Y29.8197 E37.70512
G1 X84.0082 Y29.6917 E37.70842
G1 X84.0527 Y29.4951 E37.71169
G1 X84.0676 Y29.2941 E37.71496
G1 Y25.3960 E37.77820
G1 X84.1491 Y25.2719 E37.78061
G1 X84.4036 Y25.3988 E37.78522
G1 X84.6261 Y25.6072 E37.79017
G1 X84.7944 Y25.8462 E37.79491
G1 X84.8389 Y26.1340 E37.79964
G1 X84.8538 Y26.4249 E37.80436
G1 Y30.6076 E37.87222
G1 X84.9058 Y30.9005 E37.87705
G1 X85.0554 Y31.1577 E37.88188
G1 X85.4384 Y31.6100 E37.89149
G1 X85.5846 Y31.4974 E37.89449
G1 X85.6261 Y31.3192 E37.89745
G1 X85.6400 Y31.1368 E37.90042
G1 Y26.8835 E37.96943
G1 X85.8403 Y26.8667 E37.97269
G1 X86.0064 Y26.9769 E37.97592
G1 X86.1544 Y27.1105 E37.97916
G1 X86.2109 Y27.1697 E37.98048
G1 X86.3704 Y27.4178 E37.98527
G1 X86.4263 Y27.7074 E37.99006
G1 Y32.5148 E38.06805
G1 X86.4734 Y32.8115 E38.07292
G1 X86.6101 Y33.0789 E38.07780
G1 X87.0287 Y33.6532 E38.08933
G1 X87.1617 Y33.5564 E38.09199
G1 X87.1997 Y33.3980 E38.09464
G1 X87.2125 Y33.2355 E38.09728
G1 Y28.5557 E38.17321
G1 X87.4005 Y28.5454 E38.17626
G1 X87.5517 Y28.6549 E38.17929
G1 X87.6846 Y28.7861 E38.18232
G1 X87.7940 Y28.9117 E38.18502
G1 X87.9459 Y29.1668 E38.18984
G1 X87.9988 Y29.4590 E38.19466
G1 Y34.7317 E38.28020
G1 X88.0417 Y35.0312 E38.28511
G1 X88.1669 Y35.3065 E38.29002
G1 X88.6169 Y36.0101 E38.30357
G1 X88.7850 Y35.7857 E38.30812
G1 Y30.4253 E38.39508
G1 X88.9581 Y30.4217 E38.39789
G1 X89.0918 Y30.5292 E38.40068
G1 X89.2074 Y30.6560 E38.40346
G1 X89.3796 Y30.8773 E38.40801
G1 X89.5220 Y31.1404 E38.41286
G1 X89.5712 Y31.4355 E38.41772
G1 Y37.3377 E38.51347
G1 X89.6078 Y37.6407 E38.51843
G1 X89.7154 Y37.9264 E38.52338
G1 X90.2133 Y38.8823 E38.54086
G1 X90.3575 Y38.6986 E38.54465
G1 Y32.5283 E38.64476
G1 X90.6314 Y32.6263 E38.64948
G1 X90.9704 Y33.1339 E38.65938
G1 X91.0994 Y33.4067 E38.66428
G1 X91.1437 Y33.7053 E38.66918
G1 Y40.5381 E38.78003
G1 X91.1731 Y40.8444 E38.78502
G1 X91.2603 Y41.1395 E38.79002
G1 X91.8134 Y42.5132 E38.81404
G1 X91.9300 Y42.3719 E38.81701
G1 Y34.9653 E38.93718
G1 X92.1666 Y35.0634 E38.94133
G1 X92.5603 Y35.7457 E38.95411
G1 X92.6765 Y36.0265 E38.95904
G1 X92.7162 Y36.3279 E38.96398
G1 Y44.8357 E39.10201
G1 X92.7356 Y45.1453 E39.10704
G1 X92.7936 Y45.4499 E39.11207
G1 X93.4250 Y47.9157 E39.15337
G1 X93.5024 Y47.8279 E39.15526
G1 Y37.8234 E39.31758
G1 X93.6927 Y37.9168 E39.32102
G1 X94.1561 Y38.9038 E39.33871
G1 X94.2551 Y39.1937 E39.34368
G1 X94.2887 Y39.4982 E39.34865
G1 Y72.7003 E39.88732
G1 X94.4543 Y72.6117 E39.89037
G1 X94.9557 Y71.3988 E39.91166
G1 X95.0448 Y71.1045 E39.91665
G1 X95.0749 Y70.7985 E39.92164
G1 Y41.3997 E40.39860
G1 X95.2121 Y41.4808 E40.40119
G1 X95.7583 Y43.0449 E40.42807
G1 X95.8353 Y43.3439 E40.43308
G1 X95.8612 Y43.6515 E40.43808
G1 Y68.5466 E40.84198
G1 X95.9698 Y68.4757 E40.84409
G1 X96.5622 Y66.3880 E40.87930
G1 X96.6260 Y66.0848 E40.88432
G1 X96.6474 Y65.7758 E40.88935
G1 Y46.4234 E41.20332
G1 X96.7411 Y46.2298 E41.20681
; Shell
G1 E40.20681 F1500 ; AbsE -1.0000
G1 X96.9509 Y46.2075 F4800 ;  Move Only (0.21 mm)
G1 X97.1604 Y46.2326 ;  Move Only (0.21 mm)
G1 X97.3054 Y46.2669 ;  Move Only (0.15 mm)
G1 X97.5441 Y46.4019 ;  Move Only (0.27 mm)
G1 X97.6551 Y46.6505 ;  Move Only (0.27 mm)
G1 X97.7300 Y46.9123 ;  Move Only (0.27 mm)
G1 X98.0147 Y48.2626 ;  Move Only (1.4 mm)
G1 X98.2820 Y49.9007 ;  Move Only (1.7 mm)
G1 X98.4074 Y50.0914 ;  Move Only (0.23 mm)
G1 X98.6316 Y50.1016 ;  Move Only (0.22 mm)
G1 X98.8531 Y50.0649 ;  Move Only (0.22 mm)
G1 X105.3848 Y48.2629 ;  Move Only (6.8 mm)
G1 X105.3268 Y48.6182 E41.21161 F540 ; AbsE 1.0000 (25.00/-0.12 mm/s) 
G1 X105.0673 Y50.2095 E41.23309 F1200
G1 X105.3848 Y48.2629 F4800 ;  Move Only (2 mm)
G1 X105.0673 Y50.2095 E41.25936 F1200
G1 X104.8410 Y52.1609 E41.28553
G1 X104.6587 Y56.1033 E41.33811
G1 X104.7041 Y58.0704 E41.36433
G1 X104.8406 Y60.0345 E41.39056
G1 X105.0674 Y61.9904 E41.41679
G1 X105.3848 Y63.9365 E41.44306
G1 X105.7906 Y65.8607 E41.46926
G1 X106.2865 Y67.7695 E41.49553
G1 X106.8697 Y69.6529 E41.52180
G1 X107.5368 Y71.5013 E41.54798
G1 X108.2920 Y73.3242 E41.57427
G1 X109.1287 Y75.1064 E41.60050
G1 X110.0474 Y76.8494 E41.62675
G1 X111.0454 Y78.5474 E41.65299
G1 X112.1204 Y80.1978 E41.67923
G1 X113.2713 Y81.7969 E41.70548
G1 X114.4940 Y83.3406 E41.73171
G1 X115.7857 Y84.8254 E41.75793
G1 X117.1476 Y86.2516 E41.78420
G1 X118.5746 Y87.6139 E41.81049
G1 X120.0571 Y88.9042 E41.83667
G1 X121.6026 Y90.1283 E41.86294
G1 X123.2022 Y91.2791 E41.88919
G1 X124.8511 Y92.3538 E41.91541
G1 X126.5511 Y93.3529 E41.94168
G1 X128.2940 Y94.2715 E41.96793
G1 X130.0748 Y95.1072 E41.99414
G1 X131.8958 Y95.8617 E42.02040
G1 X133.7488 Y96.5304 E42.04664
G1 X135.6296 Y97.1131 E42.07287
G1 X137.5387 Y97.6090 E42.09915
G1 X139.4634 Y98.0148 E42.12536
G1 X141.4091 Y98.3323 E42.15162
G1 X143.3653 Y98.5591 E42.17786
G1 X145.3291 Y98.6955 E42.20408
G1 X147.3000 Y98.7411 E42.23035
G1 X149.2707 Y98.6955 E42.25661
G1 X151.2342 Y98.5591 E42.28283
G1 X153.1907 Y98.3323 E42.30907
G1 X155.1362 Y98.0148 E42.33533
G1 X157.0611 Y97.6090 E42.36154
G1 X158.9700 Y97.1131 E42.38782
G1 X160.8510 Y96.5304 E42.41405
G1 X162.7040 Y95.8617 E42.44030
G1 X164.5252 Y95.1072 E42.46656
G1 X166.3057 Y94.2715 E42.49276
G1 X168.0485 Y93.3529 E42.51901
G1 X169.7486 Y92.3538 E42.54528
G1 X171.3974 Y91.2791 E42.57150
G1 X172.9971 Y90.1283 E42.59776
G1 X174.5424 Y88.9042 E42.62402
G1 X176.0253 Y87.6139 E42.65021
G1 X177.4519 Y86.2516 E42.67649
G1 X178.8138 Y84.8254 E42.70276
G1 X180.1056 Y83.3407 E42.72898
G1 X181.3283 Y81.7974 E42.75521
G1 X182.4792 Y80.1978 E42.78146
G1 X183.5543 Y78.5474 E42.80771
G1 X184.5525 Y76.8494 E42.83395
G1 X185.4715 Y75.1056 E42.86021
G1 X186.3072 Y73.3250 E42.88641
G1 X187.0624 Y71.5020 E42.91270
G1 X187.7304 Y69.6520 E42.93891
G1 X188.3134 Y67.7695 E42.96516
G1 X188.8089 Y65.8607 E42.99143
G1 X189.2148 Y63.9365 E43.01763
G1 X189.5324 Y61.9901 E43.04391
G1 X189.7593 Y60.0341 E43.07014
G1 X189.8952 Y58.0741 E43.09632
G1 Y54.1249 E43.14893
G1 X189.7593 Y52.1656 E43.17509
G1 X189.5323 Y50.2086 E43.20134
G1 X189.2148 Y48.2628 E43.22761
G1 X188.8089 Y46.3389 E43.25380
G1 X188.3132 Y44.4295 E43.28008
G1 X187.7305 Y42.5481 E43.30632
G1 X187.0619 Y40.6963 E43.33255
G1 X186.3072 Y38.8746 E43.35882
G1 X185.4715 Y37.0940 E43.38503
G1 X184.5525 Y35.3502 E43.41129
G1 X183.5543 Y33.6520 E43.43753
G1 X182.4789 Y32.0017 E43.46378
G1 X181.3277 Y30.4021 E43.49003
G1 X180.1052 Y28.8584 E43.51627
G1 X178.8137 Y27.3745 E43.54247
G1 X177.4514 Y25.9477 E43.56876
G1 X176.0253 Y24.5858 E43.59503
G1 X174.5408 Y23.2942 E43.62124
G1 X172.9981 Y22.0723 E43.64746
G1 X171.3968 Y20.9199 E43.67374
G1 X169.7486 Y19.8460 E43.69995
G1 X168.0485 Y18.8469 E43.72622
G1 X166.3057 Y17.9284 E43.75247
G1 X164.5252 Y17.0924 E43.77868
G1 X162.7020 Y16.3373 E43.80497
G1 X160.8529 Y15.6699 E43.83116
G1 X158.9700 Y15.0864 E43.85742
G1 X157.0611 Y14.5908 E43.88369
G1 X155.1361 Y14.1847 E43.90990
G1 X153.1907 Y13.8673 E43.93616
G1 X151.2342 Y13.6404 E43.96240
G1 X149.2707 Y13.5042 E43.98863
G1 X147.3000 Y13.4585 E44.01489
G1 X145.3291 Y13.5042 E44.04115
G1 X143.3653 Y13.6404 E44.06738
G1 X141.4091 Y13.8673 E44.09361
G1 X139.4634 Y14.1847 E44.11988
G1 X137.5387 Y14.5908 E44.14609
G1 X135.6296 Y15.0864 E44.17236
G1 X133.7466 Y15.6699 E44.19863
G1 X131.8977 Y16.3373 E44.22481
G1 X130.0748 Y17.0924 E44.25110
G1 X128.2940 Y17.9284 E44.27731
G1 X126.5511 Y18.8469 E44.30356
G1 X124.8511 Y19.8460 E44.32983
G1 X123.2007 Y20.9215 E44.35607
G1 X121.6029 Y22.0710 E44.38229
G1 X120.0583 Y23.2948 E44.40855
G1 X118.5746 Y24.5858 E44.43475
G1 X117.1476 Y25.9482 E44.46103
G1 X115.7858 Y27.3745 E44.48731
G1 X114.4940 Y28.8590 E44.51352
G1 X113.2720 Y30.4021 E44.53975
G1 X112.1203 Y32.0023 E44.56601
G1 X111.0454 Y33.6520 E44.59225
G1 X110.0474 Y35.3502 E44.61849
G1 X109.1287 Y37.0932 E44.64474
G1 X108.2920 Y38.8757 E44.67097
G1 X107.5368 Y40.6983 E44.69725
G1 X106.8701 Y42.5456 E44.72342
G1 X106.2865 Y44.4302 E44.74970
G1 X105.7906 Y46.3389 E44.77598
G1 X105.3848 Y48.2629 E44.80217
G1 X105.6914 Y48.3187 F4800 ;  Move Only (0.31 mm)
G1 X105.3848 Y48.2629 ;  Move Only (0.31 mm)
G1 X105.5873 Y48.3922 ;  Move Only (0.24 mm)
G1 X105.6179 Y48.6270 E44.80533 F1200
G1 X105.6026 Y48.8634 E44.80848
G1 X105.3760 Y50.2526 E44.82724
G1 X105.1518 Y52.1868 E44.85318
G1 X104.9704 Y56.1061 E44.90545
G1 X105.0154 Y58.0576 E44.93145
G1 X105.1507 Y60.0036 E44.95744
G1 X105.3764 Y61.9476 E44.98352
G1 X105.6913 Y63.8791 E45.00959
G1 X106.0938 Y65.7881 E45.03558
G1 X106.5870 Y67.6860 E45.06170
G1 X107.1646 Y69.5518 E45.08773
G1 X107.8278 Y71.3895 E45.11375
G1 X108.5776 Y73.1992 E45.13985
G1 X109.4069 Y74.9658 E45.16585
G1 X110.3189 Y76.6959 E45.19191
G1 X111.3108 Y78.3833 E45.21798
G1 X112.3771 Y80.0206 E45.24402
G1 X113.5201 Y81.6085 E45.27008
G1 X114.7346 Y83.1422 E45.29614
G1 X116.0139 Y84.6127 E45.32211
G1 X117.3685 Y86.0317 E45.34825
G1 X118.7838 Y87.3823 E45.37431
G1 X120.2568 Y88.6647 E45.40033
G1 X121.7896 Y89.8786 E45.42638
G1 X123.3794 Y91.0223 E45.45247
G1 X125.0154 Y92.0886 E45.47849
G1 X126.7028 Y93.0806 E45.50456
G1 X128.4325 Y93.9919 E45.53061
G1 X130.1996 Y94.8213 E45.55662
G1 X132.0092 Y95.5711 E45.58271
G1 X133.8487 Y96.2349 E45.60877
G1 X135.7132 Y96.8125 E45.63477
G1 X137.6107 Y97.3055 E45.66089
G1 X139.5200 Y97.7079 E45.68689
G1 X141.4516 Y98.0232 E45.71296
G1 X143.3933 Y98.2483 E45.73900
G1 X145.3437 Y98.3836 E45.76505
G1 X147.3000 Y98.4289 E45.79112
G1 X149.2556 Y98.3838 E45.81718
G1 X151.2057 Y98.2483 E45.84322
G1 X153.1478 Y98.0232 E45.86927
G1 X155.0793 Y97.7079 E45.89534
G1 X156.9886 Y97.3055 E45.92134
G1 X158.8862 Y96.8125 E45.94746
G1 X160.7505 Y96.2349 E45.97346
G1 X162.5902 Y95.5711 E45.99952
G1 X164.4019 Y94.8204 E46.02564
G1 X166.1653 Y93.9928 E46.05160
G1 X167.8963 Y93.0806 E46.07766
G1 X169.5842 Y92.0886 E46.10375
G1 X171.2199 Y91.0223 E46.12976
G1 X172.8097 Y89.8786 E46.15585
G1 X174.3443 Y88.6629 E46.18193
G1 X175.8126 Y87.3853 E46.20786
G1 X177.2315 Y86.0307 E46.23400
G1 X178.5851 Y84.6127 E46.26012
G1 X179.8646 Y83.1423 E46.28608
G1 X181.0792 Y81.6095 E46.31214
G1 X182.2232 Y80.0193 E46.33824
G1 X183.2879 Y78.3847 E46.36423
G1 X184.2806 Y76.6962 E46.39032
G1 X185.1923 Y74.9658 E46.41638
G1 X186.0208 Y73.2009 E46.44235
G1 X186.7716 Y71.3888 E46.46848
G1 X187.4352 Y69.5509 E46.49452
G1 X188.0129 Y67.6851 E46.52054
G1 X188.5050 Y65.7881 E46.54665
G1 X188.9080 Y63.8791 E46.57264
G1 X189.2231 Y61.9472 E46.59872
G1 X189.4485 Y60.0058 E46.62476
G1 X189.5833 Y58.0623 E46.65071
G1 Y54.1362 E46.70302
G1 X189.4485 Y52.1936 E46.72896
G1 X189.2230 Y50.2510 E46.75502
G1 X188.9077 Y48.3178 E46.78111
G1 X188.5050 Y46.4106 E46.80708
G1 X188.0125 Y44.5125 E46.83320
G1 X187.4352 Y42.6487 E46.85920
G1 X186.7701 Y40.8069 E46.88529
G1 X186.0212 Y38.9992 E46.91136
G1 X185.1927 Y37.2343 E46.93733
G1 X184.2804 Y35.5029 E46.96340
G1 X183.2885 Y33.8153 E46.98948
G1 X182.2210 Y32.1770 E47.01553
G1 X181.0785 Y30.5898 E47.04159
G1 X179.8658 Y29.0584 E47.06761
G1 X178.5841 Y27.5858 E47.09362
G1 X177.2294 Y26.1669 E47.11976
G1 X175.8139 Y24.8150 E47.14583
G1 X174.3422 Y23.5348 E47.17182
G1 X172.8103 Y22.3214 E47.19786
G1 X171.2184 Y21.1759 E47.22398
G1 X169.5842 Y20.1110 E47.24997
G1 X167.8963 Y19.1190 E47.27605
G1 X166.1669 Y18.2076 E47.30210
G1 X164.3994 Y17.3777 E47.32811
G1 X162.5890 Y16.6277 E47.35422
G1 X160.7527 Y15.9651 E47.38023
G1 X158.8863 Y15.3867 E47.40626
G1 X156.9892 Y14.8942 E47.43237
G1 X155.0785 Y14.4911 E47.45839
G1 X153.1478 Y14.1763 E47.48445
G1 X151.2057 Y13.9509 E47.51050
G1 X149.2556 Y13.8156 E47.53654
G1 X147.3000 Y13.7704 E47.56260
G1 X145.3437 Y13.8156 E47.58867
G1 X143.3933 Y13.9509 E47.61472
G1 X141.4516 Y14.1763 E47.64076
G1 X139.5207 Y14.4911 E47.66682
G1 X137.6106 Y14.8942 E47.69283
G1 X135.7132 Y15.3867 E47.71895
G1 X133.8465 Y15.9651 E47.74498
G1 X132.0110 Y16.6276 E47.77098
G1 X130.1996 Y17.3779 E47.79710
G1 X128.4326 Y18.2076 E47.82311
G1 X126.7028 Y19.1190 E47.84916
G1 X125.0154 Y20.1110 E47.87523
G1 X123.3765 Y21.1787 E47.90129
G1 X121.7910 Y22.3194 E47.92732
G1 X120.2559 Y23.5358 E47.95341
G1 X118.7870 Y24.8140 E47.97935
G1 X117.3676 Y26.1689 E48.00549
G1 X116.0139 Y27.5870 E48.03161
G1 X114.7338 Y29.0582 E48.05759
G1 X113.5206 Y30.5899 E48.08362
G1 X112.3776 Y32.1782 E48.10969
G1 X111.3104 Y33.8161 E48.13574
G1 X110.3195 Y35.5020 E48.16179
G1 X109.4070 Y37.2332 E48.18786
G1 X108.5776 Y39.0005 E48.21387
G1 X107.8275 Y40.8104 E48.23997
G1 X107.1654 Y42.6449 E48.26596
G1 X106.5866 Y44.5141 E48.29203
G1 X106.0939 Y46.4106 E48.31813
G1 X105.7220 Y48.1734 E48.34213
G1 X105.7434 Y48.2840 E48.34363
G1 X105.7724 Y48.3031 F4800 ;  Move Only (0.035 mm)
G1 X105.9138 Y48.3602 ;  Move Only (0.15 mm)
G1 X105.9841 Y48.4603 E48.34445 F1440
G1 X105.6848 Y50.2958 E48.36922 F1200
G1 X105.4626 Y52.2118 E48.39492
G1 X105.2820 Y56.1090 E48.44690
G1 X105.3270 Y58.0448 E48.47269
G1 X105.4609 Y59.9726 E48.49844
G1 X105.6853 Y61.9050 E48.52436
G1 X105.9978 Y63.8218 E48.55023
G1 X106.3972 Y65.7161 E48.57602
G1 X106.8875 Y67.6025 E48.60199
G1 X107.4596 Y69.4508 E48.62777
G1 X108.1185 Y71.2770 E48.65363
G1 X108.8634 Y73.0742 E48.67955
G1 X109.6852 Y74.8254 E48.70532
G1 X110.5905 Y76.5425 E48.73118
G1 X111.5762 Y78.2193 E48.75710
G1 X112.6345 Y79.8450 E48.78294
G1 X113.7688 Y81.4207 E48.80880
G1 X114.9744 Y82.9429 E48.83467
G1 X116.2419 Y84.3999 E48.86040
G1 X117.5896 Y85.8119 E48.88641
G1 X118.9929 Y87.1510 E48.91225
G1 X120.4555 Y88.4242 E48.93808
G1 X121.9764 Y89.6290 E48.96393
G1 X123.5554 Y90.7649 E48.98985
G1 X125.1789 Y91.8227 E49.01566
G1 X126.8554 Y92.8087 E49.04157
G1 X128.5708 Y93.7124 E49.06741
G1 X130.3263 Y94.5362 E49.09324
G1 X132.1206 Y95.2800 E49.11912
G1 X133.9488 Y95.9393 E49.14501
G1 X135.7966 Y96.5120 E49.17078
G1 X137.6834 Y97.0020 E49.19675
G1 X139.5758 Y97.4010 E49.22252
G1 X141.4947 Y97.7141 E49.24842
G1 X143.4215 Y97.9375 E49.27426
G1 X145.3583 Y98.0719 E49.30013
G1 X147.3000 Y98.1167 E49.32600
G1 X149.2406 Y98.0720 E49.35186
G1 X151.1773 Y97.9375 E49.37773
G1 X153.1044 Y97.7141 E49.40357
G1 X155.0229 Y97.4010 E49.42947
G1 X156.9157 Y97.0020 E49.45524
G1 X158.8018 Y96.5122 E49.48120
G1 X160.6494 Y95.9393 E49.50698
G1 X162.4797 Y95.2795 E49.53290
G1 X164.2752 Y94.5353 E49.55879
G1 X166.0266 Y93.7133 E49.58456
G1 X167.7442 Y92.8080 E49.61043
G1 X169.4198 Y91.8234 E49.63632
G1 X171.0434 Y90.7649 E49.66215
G1 X172.6213 Y89.6296 E49.68804
G1 X174.1465 Y88.4216 E49.71396
G1 X175.6000 Y87.1568 E49.73963
G1 X177.0121 Y85.8087 E49.76564
G1 X178.3565 Y84.3999 E49.79159
G1 X179.6235 Y82.9438 E49.81730
G1 X180.8302 Y81.4210 E49.84319
G1 X181.9665 Y79.8413 E49.86911
G1 X183.0215 Y78.2220 E49.89486
G1 X184.0087 Y76.5433 E49.92080
G1 X184.9128 Y74.8271 E49.94665
G1 X185.7357 Y73.0742 E49.97244
G1 X186.4807 Y71.2763 E49.99837
G1 X187.1398 Y69.4504 E50.02423
G1 X187.7132 Y67.5982 E50.05007
G1 X188.2009 Y65.7173 E50.07595
G1 X188.6012 Y63.8216 E50.10177
G1 X188.9139 Y61.9042 E50.12765
G1 X189.1377 Y59.9771 E50.15349
G1 X189.2714 Y58.0499 E50.17923
G1 Y54.1478 E50.23122
G1 X189.1375 Y52.2214 E50.25694
G1 X188.9138 Y50.2934 E50.28280
G1 X188.6009 Y48.3752 E50.30870
G1 X188.2009 Y46.4812 E50.33449
G1 X187.7119 Y44.5960 E50.36043
G1 X187.1399 Y42.7493 E50.38619
G1 X186.4780 Y40.9168 E50.41215
G1 X185.7352 Y39.1238 E50.43800
G1 X184.9141 Y37.3744 E50.46375
G1 X184.0082 Y35.6555 E50.48963
G1 X183.0225 Y33.9786 E50.51555
G1 X181.9631 Y32.3523 E50.54141
G1 X180.8293 Y30.7775 E50.56726
G1 X179.6271 Y29.2591 E50.59306
G1 X178.3537 Y27.7961 E50.61890
G1 X177.0078 Y26.3863 E50.64487
G1 X175.6011 Y25.0433 E50.67078
G1 X174.1436 Y23.7755 E50.69651
G1 X172.6224 Y22.5705 E50.72237
G1 X171.0409 Y21.4321 E50.74833
G1 X169.4198 Y20.3760 E50.77410
G1 X167.7442 Y19.3913 E50.80000
G1 X166.0279 Y18.4866 E50.82584
G1 X164.2743 Y17.6635 E50.85165
G1 X162.4751 Y16.9180 E50.87760
G1 X160.6524 Y16.2603 E50.90341
G1 X158.8026 Y15.6870 E50.92922
G1 X156.9173 Y15.1976 E50.95516
G1 X155.0210 Y14.7975 E50.98098
G1 X153.1051 Y14.4851 E51.00685
G1 X151.1771 Y14.2614 E51.03270
G1 X149.2406 Y14.1271 E51.05857
G1 X147.3000 Y14.0824 E51.08443
G1 X145.3583 Y14.1271 E51.11030
G1 X143.4217 Y14.2614 E51.13616
G1 X141.4939 Y14.4851 E51.16202
G1 X139.5781 Y14.7975 E51.18788
G1 X137.6825 Y15.1976 E51.21369
G1 X135.7965 Y15.6870 E51.23965
G1 X133.9463 Y16.2603 E51.26546
G1 X132.1244 Y16.9180 E51.29126
G1 X130.3241 Y17.6637 E51.31722
G1 X128.5712 Y18.4866 E51.34302
G1 X126.8554 Y19.3907 E51.36886
G1 X125.1776 Y20.3771 E51.39479
G1 X123.5541 Y21.4346 E51.42060
G1 X121.9789 Y22.5682 E51.44646
G1 X120.4555 Y23.7751 E51.47235
G1 X118.9963 Y25.0451 E51.49812
G1 X117.5876 Y26.3895 E51.52406
G1 X116.2430 Y27.7983 E51.55001
G1 X114.9735 Y29.2573 E51.57577
G1 X113.7705 Y30.7762 E51.60159
G1 X112.6348 Y32.3546 E51.62749
G1 X111.5753 Y33.9801 E51.65334
G1 X110.5922 Y35.6529 E51.67919
G1 X109.6856 Y37.3723 E51.70509
G1 X108.8626 Y39.1268 E51.73091
G1 X108.1182 Y40.9226 E51.75681
G1 X107.4606 Y42.7449 E51.78262
G1 X106.8867 Y44.5980 E51.80846
G1 X106.3972 Y46.4823 E51.83440
G1 X106.0623 Y48.0706 E51.85603
G1 X106.0976 Y48.3233 E51.85942
G1 X106.2981 Y48.4763 F4800 ;  Move Only (0.25 mm)
G1 X106.5220 Y48.5925 ;  Move Only (0.25 mm)
G1 X109.5292 Y49.8351 ;  Move Only (3.3 mm)
G1 X109.7472 Y49.8239 ;  Move Only (0.22 mm)
G1 X109.8540 Y49.6382 E51.86228 F1200
G1 X109.9174 Y49.4335 E51.86513
G1 X110.2051 Y47.9342 E51.88547
G1 X110.7014 Y45.9389 E51.91287
G1 X111.3043 Y43.9739 E51.94025
G1 X112.0160 Y42.0371 E51.96774
G1 X112.8272 Y40.1510 E51.99509
G1 X113.7399 Y38.3113 E52.02245
G1 X114.7544 Y36.5162 E52.04992
G1 X115.8613 Y34.7851 E52.07730
G1 X117.0615 Y33.1146 E52.10470
G1 X118.3521 Y31.5075 E52.13216
G1 X119.7260 Y29.9772 E52.15956
G1 X121.1771 Y28.5263 E52.18690
G1 X122.7079 Y27.1526 E52.21430
G1 X124.3147 Y25.8612 E52.24176
G1 X125.9849 Y24.6613 E52.26916
G1 X127.7157 Y23.5550 E52.29653
G1 X129.5126 Y22.5391 E52.32403
G1 X131.3499 Y21.6280 E52.35135
G1 X133.2374 Y20.8161 E52.37872
G1 X135.1737 Y20.1042 E52.40621
G1 X137.1391 Y19.5014 E52.43360
G1 X139.1341 Y19.0047 E52.46099
G1 X141.1542 Y18.6174 E52.48839
G1 X143.1935 Y18.3397 E52.51581
G1 X145.2436 Y18.1726 E52.54321
G1 X147.3000 Y18.1169 E52.57062
G1 X149.3557 Y18.1726 E52.59802
G1 X151.4053 Y18.3397 E52.62541
G1 X153.4447 Y18.6174 E52.65283
G1 X155.4639 Y19.0047 E52.68023
G1 X157.4612 Y19.5019 E52.70765
G1 X159.4241 Y20.1040 E52.73500
G1 X161.3616 Y20.8162 E52.76250
G1 X163.2489 Y21.6280 E52.78987
G1 X165.0865 Y22.5391 E52.81720
G1 X166.8831 Y23.5551 E52.84470
G1 X168.6138 Y24.6612 E52.87206
G1 X170.2845 Y25.8612 E52.89946
G1 X171.8914 Y27.1526 E52.92693
G1 X173.4219 Y28.5263 E52.95433
G1 X174.8730 Y29.9772 E52.98167
G1 X176.2467 Y31.5075 E53.00906
G1 X177.5373 Y33.1146 E53.03652
G1 X178.7376 Y34.7851 E53.06393
G1 X179.8439 Y36.5154 E53.09129
G1 X180.8595 Y38.3110 E53.11877
G1 X181.7719 Y40.1518 E53.14614
G1 X182.5835 Y42.0377 E53.17350
G1 X183.2946 Y43.9743 E53.20098
G1 X183.8973 Y45.9374 E53.22834
G1 X184.3940 Y47.9342 E53.25575
G1 X184.7815 Y49.9543 E53.28316
G1 X185.0592 Y51.9930 E53.31057
G1 X185.2266 Y54.0436 E53.33798
G1 X185.2822 Y56.0998 E53.36538
G1 X185.2266 Y58.1552 E53.39278
G1 X185.0593 Y60.2060 E53.42019
G1 X184.7815 Y62.2449 E53.44760
G1 X184.3940 Y64.2650 E53.47501
G1 X183.8973 Y66.2611 E53.50241
G1 X183.2946 Y68.2244 E53.52977
G1 X182.5835 Y70.1612 E53.55726
G1 X181.7719 Y72.0471 E53.58461
G1 X180.8595 Y73.8880 E53.61198
G1 X179.8439 Y75.6832 E53.63946
G1 X178.7376 Y77.4140 E53.66683
G1 X177.5373 Y79.0844 E53.69423
G1 X176.2467 Y80.6913 E53.72169
G1 X174.8730 Y82.2219 E53.74909
G1 X173.4219 Y83.6728 E53.77643
G1 X171.8914 Y85.0466 E53.80383
G1 X170.2845 Y86.3375 E53.83129
G1 X168.6138 Y87.5375 E53.85869
G1 X166.8831 Y88.6437 E53.88606
G1 X165.0866 Y89.6596 E53.91355
G1 X163.2489 Y90.5710 E53.94088
G1 X161.3616 Y91.3831 E53.96826
G1 X159.4241 Y92.0950 E53.99576
G1 X157.4609 Y92.6978 E54.02312
G1 X155.4644 Y93.1939 E54.05052
G1 X153.4447 Y93.5816 E54.07792
G1 X151.4053 Y93.8594 E54.10534
G1 X149.3557 Y94.0263 E54.13274
G1 X147.3000 Y94.0821 E54.16014
G1 X145.2436 Y94.0263 E54.18754
G1 X143.1935 Y93.8594 E54.21495
G1 X141.1542 Y93.5816 E54.24237
G1 X139.1341 Y93.1939 E54.26977
G1 X137.1378 Y92.6978 E54.29717
G1 X135.1749 Y92.0950 E54.32453
G1 X133.2374 Y91.3831 E54.35203
G1 X131.3499 Y90.5710 E54.37941
G1 X129.5124 Y89.6596 E54.40673
G1 X127.7157 Y88.6438 E54.43423
G1 X125.9849 Y87.5375 E54.46160
G1 X124.3147 Y86.3375 E54.48900
G1 X122.7037 Y85.0438 E54.51652
G1 X120.9028 Y83.3983 E54.54902
G1 X119.7243 Y82.2201 E54.57122
G1 X118.3521 Y80.6913 E54.59859
G1 X117.0615 Y79.0844 E54.62605
G1 X115.8613 Y77.4140 E54.65345
G1 X114.7544 Y75.6824 E54.68083
G1 X113.7399 Y73.8879 E54.70830
G1 X112.8272 Y72.0479 E54.73566
G1 X112.0160 Y70.1618 E54.76301
G1 X111.3043 Y68.2248 E54.79051
G1 X110.7014 Y66.2598 E54.81789
G1 X110.2051 Y64.2650 E54.84527
G1 X109.8175 Y62.2449 E54.87268
G1 X109.5396 Y60.2055 E54.90010
G1 X109.3725 Y58.1554 E54.92750
G1 X109.3166 Y56.0998 E54.95490
G1 X109.3618 Y54.4331 E54.97711
G1 X109.5390 Y51.9989 E55.00963
G1 X109.7974 Y50.1016 E55.03514
G1 X109.8548 Y50.0048 E55.03664
G1 X109.8885 Y49.9967 F4800 ;  Move Only (0.035 mm)
G1 X110.0002 Y49.9926 ;  Move Only (0.11 mm)
G1 X110.0812 Y49.9977 ;  Move Only (0.081 mm)
G1 X110.1340 Y49.9609 E55.03707 F1440
G1 X110.5099 Y48.0014 E55.06365 F1200
G1 X111.0023 Y46.0213 E55.09083
G1 X111.6001 Y44.0736 E55.11797
G1 X112.3055 Y42.1539 E55.14522
G1 X113.1109 Y40.2816 E55.17238
G1 X114.0156 Y38.4574 E55.19950
G1 X115.0220 Y36.6772 E55.22675
G1 X116.1198 Y34.9600 E55.25390
G1 X117.3101 Y33.3034 E55.28108
G1 X118.5894 Y31.7106 E55.30829
G1 X119.9521 Y30.1925 E55.33547
G1 X121.3924 Y28.7522 E55.36261
G1 X122.9108 Y27.3897 E55.38979
G1 X124.5033 Y26.1100 E55.41701
G1 X126.1599 Y24.9199 E55.44418
G1 X127.8775 Y23.8221 E55.47134
G1 X129.6573 Y22.8157 E55.49858
G1 X131.4813 Y21.9112 E55.52570
G1 X133.3542 Y21.1055 E55.55286
G1 X135.2736 Y20.4002 E55.58011
G1 X137.2215 Y19.8023 E55.60725
G1 X139.2015 Y19.3096 E55.63444
G1 X141.2049 Y18.9253 E55.66161
G1 X143.2271 Y18.6500 E55.68880
G1 X145.2606 Y18.4842 E55.71598
G1 X147.3000 Y18.4290 E55.74316
G1 X149.3391 Y18.4842 E55.77034
G1 X151.3719 Y18.6500 E55.79751
G1 X153.3942 Y18.9253 E55.82470
G1 X155.3976 Y19.3096 E55.85188
G1 X157.3787 Y19.8027 E55.87908
G1 X159.3248 Y20.3999 E55.90620
G1 X161.2452 Y21.1056 E55.93346
G1 X163.1177 Y21.9112 E55.96061
G1 X164.9421 Y22.8157 E55.98774
G1 X166.7218 Y23.8221 E56.01498
G1 X168.4393 Y24.9199 E56.04214
G1 X170.0962 Y26.1100 E56.06932
G1 X171.6887 Y27.3897 E56.09653
G1 X173.2070 Y28.7522 E56.12371
G1 X174.6473 Y30.1925 E56.15085
G1 X176.0097 Y31.7106 E56.17802
G1 X177.2891 Y33.3034 E56.20524
G1 X178.4795 Y34.9600 E56.23242
G1 X179.5771 Y36.6772 E56.25957
G1 X180.5840 Y38.4572 E56.28682
G1 X181.4882 Y40.2816 E56.31394
G1 X182.2940 Y42.1539 E56.34110
G1 X182.9991 Y44.0736 E56.36835
G1 X183.5970 Y46.0213 E56.39549
G1 X184.0897 Y48.0014 E56.42267
G1 X184.4739 Y50.0050 E56.44985
G1 X184.7494 Y52.0272 E56.47704
G1 X184.9153 Y54.0602 E56.50422
G1 X184.9705 Y56.0998 E56.53140
G1 X184.9153 Y58.1389 E56.55858
G1 X184.7494 Y60.1723 E56.58576
G1 X184.4739 Y62.1945 E56.61295
G1 X184.0897 Y64.1979 E56.64012
G1 X183.5970 Y66.1777 E56.66730
G1 X182.9991 Y68.1255 E56.69445
G1 X182.2940 Y70.0453 E56.72170
G1 X181.4882 Y71.9177 E56.74885
G1 X180.5840 Y73.7420 E56.77598
G1 X179.5771 Y75.5219 E56.80322
G1 X178.4795 Y77.2393 E56.83038
G1 X177.2891 Y78.8961 E56.85756
G1 X176.0097 Y80.4889 E56.88478
G1 X174.6473 Y82.0070 E56.91195
G1 X173.2070 Y83.4473 E56.93909
G1 X171.6887 Y84.8096 E56.96626
G1 X170.0962 Y86.0892 E56.99348
G1 X168.4393 Y87.2794 E57.02066
G1 X166.7218 Y88.3771 E57.04781
G1 X164.9420 Y89.3835 E57.07505
G1 X163.1177 Y90.2883 E57.10218
G1 X161.2452 Y91.0938 E57.12934
G1 X159.3259 Y91.7991 E57.15658
G1 X157.3775 Y92.3973 E57.18374
G1 X155.3976 Y92.8895 E57.21092
G1 X153.3942 Y93.2741 E57.23809
G1 X151.3719 Y93.5495 E57.26529
G1 X149.3391 Y93.7149 E57.29246
G1 X147.3000 Y93.7704 E57.31963
G1 X145.2606 Y93.7149 E57.34681
G1 X143.2271 Y93.5495 E57.37399
G1 X141.2049 Y93.2741 E57.40118
G1 X139.2015 Y92.8895 E57.42836
G1 X137.2215 Y92.3973 E57.45554
G1 X135.2736 Y91.7991 E57.48269
G1 X133.3542 Y91.0938 E57.50993
G1 X131.4813 Y90.2883 E57.53710
G1 X129.6573 Y89.3835 E57.56422
G1 X127.8775 Y88.3771 E57.59146
G1 X126.1599 Y87.2794 E57.61862
G1 X124.5033 Y86.0892 E57.64579
G1 X122.9078 Y84.8077 E57.67306
G1 X121.1179 Y83.1725 E57.70536
G1 X119.9512 Y82.0061 E57.72734
G1 X118.5894 Y80.4889 E57.75450
G1 X117.3101 Y78.8961 E57.78171
G1 X116.1198 Y77.2393 E57.80889
G1 X115.0220 Y75.5219 E57.83605
G1 X114.0156 Y73.7419 E57.86329
G1 X113.1109 Y71.9177 E57.89042
G1 X112.3055 Y70.0453 E57.91757
G1 X111.6001 Y68.1255 E57.94482
G1 X111.0023 Y66.1777 E57.97197
G1 X110.5099 Y64.1979 E57.99915
G1 X110.1255 Y62.1945 E58.02632
G1 X109.8499 Y60.1721 E58.05352
G1 X109.6841 Y58.1387 E58.08070
G1 X109.6288 Y56.0998 E58.10787
G1 X109.6734 Y54.4494 E58.12986
G1 X109.8494 Y52.0310 E58.16217
G1 X110.1054 Y50.1522 E58.18743
G1 X110.1628 Y50.0555 E58.18893
G1 X110.1964 Y50.0474 F4800 ;  Move Only (0.035 mm)
G1 X110.3082 Y50.0433 ;  Move Only (0.11 mm)
G1 X110.3891 Y50.0485 ;  Move Only (0.081 mm)
G1 X110.4334 Y50.0558 ;  Move Only (0.045 mm)
G1 X110.8147 Y48.0686 E58.21589 F1200
G1 X110.4334 Y50.0558 F4800 ;  Move Only (2 mm)
G1 X110.8147 Y48.0686 E58.24284 F1200
G1 X111.3029 Y46.1052 E58.26980
G1 X111.8963 Y44.1723 E58.29673
G1 X112.5951 Y42.2708 E58.32372
G1 X113.3940 Y40.4130 E58.35067
G1 X114.2921 Y38.6021 E58.37760
G1 X115.2891 Y36.8390 E58.40458
G1 X116.3784 Y35.1349 E58.43153
G1 X117.5588 Y33.4919 E58.45848
G1 X118.8269 Y31.9135 E58.48545
G1 X120.1781 Y30.4078 E58.51241
G1 X121.6077 Y28.9781 E58.53934
G1 X123.1137 Y27.6271 E58.56630
G1 X124.6918 Y26.3588 E58.59327
G1 X126.3348 Y25.1783 E58.62022
G1 X128.0389 Y24.0891 E58.64717
G1 X129.8022 Y23.0924 E58.67415
G1 X131.6129 Y22.1942 E58.70108
G1 X133.4709 Y21.3950 E58.72802
G1 X135.3722 Y20.6963 E58.75501
G1 X137.3053 Y20.1030 E58.78195
G1 X139.2687 Y19.6145 E58.80891
G1 X141.2557 Y19.2333 E58.83586
G1 X143.2607 Y18.9602 E58.86282
G1 X145.2775 Y18.7959 E58.88978
G1 X147.3000 Y18.7411 E58.91673
G1 X149.3223 Y18.7959 E58.94368
G1 X151.3387 Y18.9602 E58.97064
G1 X153.3438 Y19.2333 E58.99760
G1 X155.3308 Y19.6145 E59.02455
G1 X157.2948 Y20.1032 E59.05151
G1 X159.2271 Y20.6961 E59.07844
G1 X161.1288 Y21.3950 E59.10543
G1 X162.9866 Y22.1942 E59.13238
G1 X164.7976 Y23.0924 E59.15931
G1 X166.5607 Y24.0891 E59.18629
G1 X168.2648 Y25.1783 E59.21324
G1 X169.9079 Y26.3588 E59.24019
G1 X171.4863 Y27.6271 E59.26717
G1 X172.9921 Y28.9781 E59.29412
G1 X174.4217 Y30.4078 E59.32105
G1 X175.7727 Y31.9135 E59.34801
G1 X177.0409 Y33.4919 E59.37498
G1 X178.2213 Y35.1349 E59.40193
G1 X179.3106 Y36.8390 E59.42888
G1 X180.3076 Y38.6021 E59.45586
G1 X181.2055 Y40.4130 E59.48279
G1 X182.0047 Y42.2708 E59.50974
G1 X182.7034 Y44.1723 E59.53672
G1 X183.2968 Y46.1052 E59.56366
G1 X183.7852 Y48.0686 E59.59062
G1 X184.1664 Y50.0558 E59.61757
G1 X184.4395 Y52.0609 E59.64453
G1 X184.6039 Y54.0772 E59.67148
G1 X184.6587 Y56.1000 E59.69844
G1 X184.6039 Y58.1224 E59.72540
G1 X184.4395 Y60.1388 E59.75235
G1 X184.1664 Y62.1440 E59.77931
G1 X183.7852 Y64.1310 E59.80627
G1 X183.2968 Y66.0943 E59.83322
G1 X182.7034 Y68.0273 E59.86016
G1 X182.0047 Y69.9289 E59.88715
G1 X181.2055 Y71.7867 E59.91409
G1 X180.3076 Y73.5974 E59.94102
G1 X179.3106 Y75.3606 E59.96800
G1 X178.2213 Y77.0647 E59.99495
G1 X177.0409 Y78.7079 E60.02190
G1 X175.7727 Y80.2863 E60.04888
G1 X174.4217 Y81.7920 E60.07583
G1 X172.9921 Y83.2216 E60.10276
G1 X171.4863 Y84.5727 E60.12972
G1 X169.9079 Y85.8409 E60.15669
G1 X168.2648 Y87.0213 E60.18365
G1 X166.5607 Y88.1104 E60.21059
G1 X164.7976 Y89.1073 E60.23757
G1 X162.9866 Y90.0055 E60.26451
G1 X161.1288 Y90.8046 E60.29145
G1 X159.2276 Y91.5033 E60.31843
G1 X157.2942 Y92.0968 E60.34538
G1 X155.3308 Y92.5851 E60.37233
G1 X153.3438 Y92.9663 E60.39929
G1 X151.3387 Y93.2396 E60.42625
G1 X149.3223 Y93.4036 E60.45320
G1 X147.3000 Y93.4585 E60.48015
G1 X145.2775 Y93.4036 E60.50711
G1 X143.2607 Y93.2396 E60.53406
G1 X141.2557 Y92.9663 E60.56102
G1 X139.2687 Y92.5851 E60.58798
G1 X137.3053 Y92.0968 E60.61493
G1 X135.3722 Y91.5033 E60.64187
G1 X133.4709 Y90.8046 E60.66886
G1 X131.6129 Y90.0055 E60.69580
G1 X129.8022 Y89.1073 E60.72273
G1 X128.0389 Y88.1104 E60.74972
G1 X126.3348 Y87.0213 E60.77666
G1 X124.6918 Y85.8409 E60.80361
G1 X123.1120 Y84.5715 E60.83061
G1 X121.3330 Y82.9468 E60.86271
G1 X120.1781 Y81.7920 E60.88447
G1 X118.8269 Y80.2863 E60.91142
G1 X117.5588 Y78.7079 E60.93840
G1 X116.3784 Y77.0647 E60.96535
G1 X115.2891 Y75.3606 E60.99230
G1 X114.2921 Y73.5974 E61.01928
G1 X113.3940 Y71.7867 E61.04621
G1 X112.5951 Y69.9289 E61.07315
G1 X111.8963 Y68.0273 E61.10014
G1 X111.3029 Y66.0943 E61.12708
G1 X110.8147 Y64.1310 E61.15403
G1 X110.4334 Y62.1440 E61.18099
G1 X110.1602 Y60.1388 E61.20795
G1 X109.9958 Y58.1222 E61.23491
G1 X109.9410 Y56.1000 E61.26186
G1 X109.9853 Y54.4652 E61.28364
G1 X110.1598 Y52.0631 E61.31573
G1 X110.3848 Y50.4125 E61.33792
G1 X110.4334 Y50.0558 E60.34272 F540 ; AbsE -1.0000 (-25.00/-0.12 mm/s) 
; Infill
G1 X110.1598 Y52.0631 F4800 ;  Move Only (2 mm)
G1 X110.4334 Y50.0558 ;  Move Only (2 mm)
G1 X110.1598 Y52.0631 ;  Move Only (2 mm)
G1 X109.9853 Y54.4652 ;  Move Only (2.4 mm)
G1 X109.9495 Y55.7881 ;  Move Only (1.3 mm)
G1 X109.8526 Y56.0094 ;  Move Only (0.24 mm)
G1 X109.6245 Y56.0779 ;  Move Only (0.24 mm)
G1 X109.3874 Y56.1015 ;  Move Only (0.24 mm)
G1 X105.8434 Y56.1110 ;  Move Only (3.5 mm)
G1 X105.6333 Y56.0187 ;  Move Only (0.23 mm)
G1 X105.5840 Y55.7984 E60.65997 F1080 ; AbsE 0.3136 (25.00/-0.29 mm/s) 
G1 X105.5813 Y55.5726 E60.97722 ; AbsE 0.3136 (25.00/-0.29 mm/s) 
G1 X105.6060 Y55.3053 E61.35440 ; AbsE 0.3728 (25.00/-0.29 mm/s) 
G1 X106.2142 Y48.7322 E61.46150 F1200
G1 X106.2391 Y48.7588 E61.46209
G1 X106.0858 Y62.4784 E61.68469
G1 X106.0992 Y62.7887 E61.68973
G1 X106.1464 Y63.0958 E61.69477
G1 X106.8044 Y66.2330 E61.74678
G1 X106.8685 Y66.1620 E61.74833
G1 Y45.9711 E62.07591
G1 X106.8904 Y45.6622 E62.08093
G1 X106.9558 Y45.3596 E62.08596
G1 X107.5675 Y43.2598 E62.12144
G1 X107.6548 Y43.3605 E62.12360
G1 Y68.9262 E62.53838
G1 X107.6816 Y69.2335 E62.54338
G1 X107.7613 Y69.5315 E62.54839
G1 X108.3345 Y71.1104 E62.57564
G1 X108.4410 Y70.9836 E62.57833
G1 Y41.1071 E63.06304
G1 X108.4717 Y40.8013 E63.06803
G1 X108.5626 Y40.5078 E63.07301
G1 X109.1056 Y39.2242 E63.09562
G1 X109.2272 Y39.3729 E63.09874
G1 Y52.5319 E63.31223
G1 X109.2811 Y52.4890 E63.31335
G1 X110.0135 Y47.6697 E63.39244
G1 Y37.5971 E63.55585
G1 X110.0504 Y37.2942 E63.56080
G1 X110.1590 Y37.0091 E63.56575
G1 X110.6542 Y36.0701 E63.58298
G1 X110.7997 Y36.2560 E63.58681
G1 Y44.4556 E63.71984
G1 X110.9348 Y44.3752 E63.72239
G1 X111.4845 Y42.7782 E63.74979
G1 X111.5604 Y42.4789 E63.75480
G1 X111.5860 Y42.1712 E63.75981
G1 Y34.7659 E63.87995
G1 X111.6286 Y34.4663 E63.88486
G1 X111.7530 Y34.1904 E63.88977
G1 X112.2052 Y33.4772 E63.90347
G1 X112.3722 Y33.6996 E63.90798
G1 Y40.2651 E64.01450
G1 X112.5650 Y40.1713 E64.01798
G1 X113.0245 Y39.2039 E64.03536
G1 X113.1245 Y38.9145 E64.04033
G1 X113.1584 Y38.6101 E64.04529
G1 Y32.3654 E64.14661
G1 X113.2051 Y32.0684 E64.15148
G1 X113.3406 Y31.8001 E64.15636
G1 X113.7625 Y31.2138 E64.16808
G1 X113.8943 Y31.3092 E64.17072
G1 X113.9320 Y31.4660 E64.17334
G1 X113.9447 Y31.6267 E64.17595
G1 Y37.1296 E64.26523
G1 X114.1831 Y37.0315 E64.26942
G1 X114.5741 Y36.3589 E64.28204
G1 X114.6910 Y36.0784 E64.28697
G1 X114.7309 Y35.7772 E64.29190
G1 Y30.2768 E64.38114
G1 X114.7821 Y29.9832 E64.38597
G1 X114.9295 Y29.7242 E64.39081
G1 X115.3186 Y29.2526 E64.40072
G1 X115.4626 Y29.3624 E64.40366
G1 X115.5035 Y29.5371 E64.40657
G1 X115.5172 Y29.7161 E64.40948
G1 Y34.5478 E64.48787
G1 X115.6770 Y34.5463 E64.49047
G1 X115.7959 Y34.4418 E64.49304
G1 X115.8969 Y34.3199 E64.49560
G1 X116.1239 Y33.9971 E64.50201
G1 X116.2575 Y33.7274 E64.50689
G1 X116.3034 Y33.4299 E64.51177
G1 Y28.4204 E64.59305
G1 X116.3588 Y28.1303 E64.59784
G1 X116.5171 Y27.8811 E64.60263
G1 X116.8759 Y27.4995 E64.61113
G1 X117.0311 Y27.6239 E64.61435
G1 X117.0749 Y27.8163 E64.61755
G1 X117.0896 Y28.0130 E64.62075
G1 Y32.3687 E64.69142
G1 X117.2669 Y32.3741 E64.69430
G1 X117.4055 Y32.2659 E64.69715
G1 X117.5258 Y32.1377 E64.70000
G1 X117.6805 Y31.9450 E64.70401
G1 X117.8256 Y31.6841 E64.70886
G1 X117.8759 Y31.3898 E64.71370
G1 Y26.7709 E64.78864
G1 X117.9347 Y26.4841 E64.79339
G1 X118.1129 Y26.2531 E64.79812
G1 X118.3134 Y26.0413 E64.80285
G1 X118.4364 Y25.9239 E64.80561
G1 X118.6006 Y26.0611 E64.80908
G1 X118.6466 Y26.2683 E64.81253
G1 X118.6621 Y26.4799 E64.81597
G1 Y30.4766 E64.88081
G1 X118.8543 Y30.4890 E64.88393
G1 X119.0104 Y30.3791 E64.88703
G1 X119.1482 Y30.2471 E64.89013
G1 X119.2400 Y30.1449 E64.89236
G1 X119.3945 Y29.8921 E64.89716
G1 X119.4484 Y29.6007 E64.90197
G1 Y25.2940 E64.97184
G1 X119.5100 Y25.0101 E64.97656
G1 X119.6951 Y24.7877 E64.98125
G1 X119.9029 Y24.5864 E64.98595
G1 X119.9993 Y24.5025 E64.98802
G1 X120.1514 Y24.4804 E64.99051
G1 X120.2346 Y24.7634 E64.99530
G1 Y28.8035 E65.06084
G1 X120.4413 Y28.8240 E65.06421
G1 X120.6155 Y28.7139 E65.06756
G1 X120.7717 Y28.5794 E65.07090
G1 X120.8000 Y28.5512 E65.07155
G1 X120.9634 Y28.3070 E65.07632
G1 X121.0208 Y28.0188 E65.08108
G1 Y23.9572 E65.14698
G1 X121.0852 Y23.6763 E65.15165
G1 X121.2768 Y23.4630 E65.15631
G1 X121.4913 Y23.2726 E65.16096
G1 X121.5625 Y23.2161 E65.16244
G1 X121.7219 Y23.1986 E65.16504
G1 X121.7854 Y23.3406 E65.16756
G1 X121.8071 Y23.4947 E65.17009
G1 Y27.3132 E65.23204
G1 X121.8897 Y27.4408 E65.23450
G1 X122.1534 Y27.3164 E65.23923
G1 X122.3605 Y27.1317 E65.24373
G1 X122.5324 Y26.8967 E65.24846
G1 X122.5780 Y26.6104 E65.25316
G1 X122.5933 Y26.3208 E65.25787
G1 Y22.7452 E65.31588
G1 X122.6603 Y22.4675 E65.32051
G1 X122.8580 Y22.2634 E65.32512
G1 X123.0784 Y22.0841 E65.32973
G1 X123.1264 Y22.0496 E65.33069
G1 X123.2926 Y22.0370 E65.33340
G1 X123.3574 Y22.1855 E65.33602
G1 X123.3796 Y22.3460 E65.33865
G1 Y25.9803 E65.39762
G1 X123.4645 Y26.1152 E65.40020
G1 X123.7471 Y25.9971 E65.40517
G1 X123.9226 Y25.8562 E65.40882
G1 X124.1018 Y25.6301 E65.41350
G1 X124.1498 Y25.3470 E65.41816
G1 X124.1658 Y25.0603 E65.42282
G1 Y21.6456 E65.47822
G1 X124.2354 Y21.3713 E65.48281
G1 X124.4386 Y21.1767 E65.48738
G1 X124.6643 Y21.0088 E65.49194
G1 X124.6906 Y20.9916 E65.49245
G1 X124.8635 Y20.9846 E65.49526
G1 X124.9295 Y21.1395 E65.49799
G1 X124.9520 Y21.3063 E65.50072
G1 Y24.7838 E65.55714
G1 X125.0390 Y24.9262 E65.55984
G1 X125.1975 Y24.8921 E65.56247
G1 X125.3408 Y24.8164 E65.56511
G1 X125.4849 Y24.7128 E65.56798
G1 X125.6713 Y24.4963 E65.57262
G1 X125.7215 Y24.2167 E65.57723
G1 X125.7383 Y23.9331 E65.58184
G1 Y20.6484 E65.63513
G1 X125.8103 Y20.3776 E65.63967
G1 X126.0185 Y20.1927 E65.64419
G1 X126.2488 Y20.0363 E65.64871
G1 X126.2555 Y20.0323 E65.64883
G1 X126.4346 Y20.0313 E65.65174
G1 X126.5016 Y20.1923 E65.65457
G1 X126.5245 Y20.3653 E65.65740
G1 Y23.7079 E65.71163
G1 X126.6133 Y23.8578 E65.71446
G1 X126.7805 Y23.8295 E65.71721
G1 X126.9342 Y23.7581 E65.71996
G1 X127.0479 Y23.6855 E65.72215
G1 X127.2408 Y23.4791 E65.72673
G1 X127.2932 Y23.2033 E65.73129
G1 X127.3108 Y22.9230 E65.73584
G1 Y19.7444 E65.78741
G1 X127.3852 Y19.4773 E65.79191
G1 X127.3871 Y19.4754 E65.79195
G1 X127.5977 Y19.3022 E65.79638
G1 X127.8298 Y19.1590 E65.80080
G1 X128.0089 Y19.1642 E65.80371
G1 X128.0746 Y19.3261 E65.80655
G1 X128.0970 Y19.4995 E65.80938
G1 Y22.7407 E65.86197
G1 X128.1873 Y22.8979 E65.86491
G1 X128.3626 Y22.8761 E65.86777
G1 X128.5264 Y22.8099 E65.87064
G1 X128.6116 Y22.7618 E65.87223
G1 X128.8103 Y22.5657 E65.87676
G1 X128.8649 Y22.2938 E65.88126
G1 X128.8832 Y22.0170 E65.88576
G1 Y18.9275 E65.93588
G1 X128.9598 Y18.6641 E65.94033
G1 X128.9667 Y18.6581 E65.94048
G1 X129.1759 Y18.4986 E65.94475
G1 X129.4056 Y18.3703 E65.94902
G1 X129.5836 Y18.3816 E65.95191
G1 X129.6477 Y18.5436 E65.95474
G1 X129.6695 Y18.7164 E65.95756
G1 Y21.8707 E66.00874
G1 X129.7610 Y22.0351 E66.01179
G1 X129.9441 Y22.0205 E66.01477
G1 X130.1176 Y21.9604 E66.01775
G1 X130.1762 Y21.9313 E66.01881
G1 X130.3802 Y21.7458 E66.02328
G1 X130.4367 Y21.4780 E66.02772
G1 X130.4557 Y21.2050 E66.03217
G1 Y18.1910 E66.08106
G1 X130.5344 Y17.9316 E66.08546
G1 X130.5455 Y17.9225 E66.08570
G1 X130.7537 Y17.7758 E66.08983
G1 X130.9811 Y17.6614 E66.09396
G1 X131.1581 Y17.6788 E66.09684
G1 X131.2207 Y17.8410 E66.09966
G1 X131.2420 Y18.0136 E66.10249
G1 Y21.0906 E66.15241
G1 X131.3345 Y21.2621 E66.15557
G1 X131.5247 Y21.2553 E66.15866
G1 X131.7076 Y21.2022 E66.16175
G1 X131.7416 Y21.1876 E66.16235
G1 X131.9501 Y21.0128 E66.16676
G1 X132.0086 Y20.7493 E66.17114
G1 X132.0282 Y20.4802 E66.17552
G1 Y17.5396 E66.22323
G1 X132.1084 Y17.2833 E66.22758
G1 X132.1223 Y17.2725 E66.22787
G1 X132.3298 Y17.1351 E66.23191
G1 X132.5557 Y17.0307 E66.23594
G1 X132.7320 Y17.0528 E66.23883
G1 X132.7935 Y17.2154 E66.24165
G1 X132.8144 Y17.3880 E66.24447
G1 Y20.4140 E66.29356
G1 X132.9073 Y20.5896 E66.29679
G1 X133.1015 Y20.5876 E66.29994
G1 X133.2895 Y20.5389 E66.30309
G1 X133.3104 Y20.5306 E66.30345
G1 X133.5212 Y20.3622 E66.30783
G1 X133.5807 Y20.1013 E66.31217
G1 X133.6007 Y19.8344 E66.31651
G1 Y16.9623 E66.36311
G1 X133.6823 Y16.7088 E66.36743
G1 X133.6981 Y16.6971 E66.36775
G1 X133.9052 Y16.5676 E66.37171
G1 X134.1299 Y16.4716 E66.37568
G1 X134.3057 Y16.4980 E66.37856
G1 X134.3663 Y16.6611 E66.38139
G1 X134.3869 Y16.8339 E66.38421
G1 Y19.8152 E66.43258
G1 X134.4801 Y19.9944 E66.43586
G1 X134.6777 Y19.9970 E66.43906
G1 X134.8703 Y19.9525 E66.44227
G1 X134.8798 Y19.9491 E66.44243
G1 X135.0925 Y19.7864 E66.44678
G1 X135.1529 Y19.5279 E66.45108
G1 X135.1732 Y19.2632 E66.45539
G1 Y16.4531 E66.50098
G1 X135.2560 Y16.2025 E66.50526
G1 X135.2734 Y16.1902 E66.50561
G1 X135.4803 Y16.0679 E66.50951
G1 X135.7040 Y15.9800 E66.51341
G1 X135.8794 Y16.0104 E66.51630
G1 X135.9391 Y16.1742 E66.51913
G1 X135.9594 Y16.3474 E66.52195
G1 Y19.2900 E66.56970
G1 X136.0529 Y19.4755 E66.57307
G1 X136.2561 Y19.4862 E66.57637
G1 X136.4563 Y19.4496 E66.57967
G1 X136.6654 Y19.3016 E66.58382
G1 X136.7254 Y19.0551 E66.58794
G1 X136.7456 Y18.8021 E66.59206
G1 Y16.0104 E66.63735
G1 X136.8299 Y15.7636 E66.64158
G1 X136.8487 Y15.7512 E66.64195
G1 X137.0556 Y15.6380 E66.64577
G1 X137.2782 Y15.5602 E66.64960
G1 X137.4532 Y15.5961 E66.65250
G1 X137.5120 Y15.7611 E66.65534
G1 X137.5319 Y15.9351 E66.65818
G1 Y18.8343 E66.70522
G1 X137.6256 Y19.0264 E66.70869
G1 X137.8342 Y19.0466 E66.71209
G1 X138.0421 Y19.0192 E66.71549
G1 X138.2409 Y18.8902 E66.71933
G1 X138.2987 Y18.6628 E66.72314
G1 X138.3181 Y18.4290 E66.72695
G1 Y15.6303 E66.77235
G1 X138.4040 Y15.3880 E66.77652
G1 X138.4236 Y15.3760 E66.77690
G1 X138.6308 Y15.2725 E66.78065
G1 X138.8524 Y15.2056 E66.78441
G1 X139.0271 Y15.2477 E66.78732
G1 X139.0848 Y15.4143 E66.79019
G1 X139.1044 Y15.5896 E66.79305
G1 Y18.4441 E66.83936
G1 X139.1980 Y18.6429 E66.84292
G1 X139.4116 Y18.6731 E66.84642
G1 X139.6266 Y18.6560 E66.84992
G1 X139.8161 Y18.5438 E66.85349
G1 X139.8718 Y18.3333 E66.85703
G1 X139.8906 Y18.1164 E66.86056
G1 Y15.3111 E66.90607
G1 X139.9780 Y15.0734 E66.91018
G1 X139.9976 Y15.0623 E66.91055
G1 X140.2053 Y14.9681 E66.91425
G1 X140.4263 Y14.9117 E66.91795
G1 X140.6008 Y14.9602 E66.92089
G1 X140.6576 Y15.1289 E66.92377
G1 X140.6768 Y15.3058 E66.92666
G1 Y18.1426 E66.97268
G1 X140.7703 Y18.3442 E66.97629
G1 X140.9858 Y18.3790 E66.97983
G1 X141.2037 Y18.3666 E66.98337
G1 X141.3896 Y18.2610 E66.98684
G1 X141.4446 Y18.0571 E66.99027
G1 X141.4631 Y17.8466 E66.99370
G1 Y15.0545 E67.03900
G1 X141.5517 Y14.8211 E67.04305
G1 X141.5704 Y14.8113 E67.04339
G1 X141.7790 Y14.7252 E67.04705
G1 X141.9997 Y14.6782 E67.05071
G1 X142.1743 Y14.7328 E67.05368
G1 X142.2303 Y14.9037 E67.05660
G1 X142.2493 Y15.0825 E67.05951
G1 Y17.9043 E67.10529
G1 X142.3425 Y18.1095 E67.10895
G1 X142.5603 Y18.1502 E67.11254
G1 X142.7818 Y18.1438 E67.11614
G1 X142.9632 Y18.0461 E67.11948
G1 X143.0174 Y17.8498 E67.12279
G1 X143.0356 Y17.6471 E67.12609
G1 Y14.8693 E67.17116
G1 X143.1249 Y14.6386 E67.17517
G1 X143.1427 Y14.6298 E67.17549
G1 X143.3520 Y14.5485 E67.17913
G1 X143.5727 Y14.5071 E67.18278
G1 X143.7474 Y14.5655 E67.18576
G1 X143.8030 Y14.7380 E67.18870
G1 X143.8218 Y14.9182 E67.19164
G1 Y17.7261 E67.23720
G1 X143.9145 Y17.9376 E67.24095
G1 X143.9181 Y17.9388 E67.24101
G1 X144.1357 Y17.9894 E67.24463
G1 X144.3591 Y17.9943 E67.24826
G1 X144.5363 Y17.9079 E67.25146
G1 X144.5899 Y17.7208 E67.25461
G1 X144.6080 Y17.5271 E67.25777
G1 Y14.7412 E67.30297
G1 X144.6979 Y14.5132 E67.30694
G1 X144.7145 Y14.5053 E67.30724
G1 X144.9247 Y14.4287 E67.31087
G1 X145.1455 Y14.3926 E67.31450
G1 X145.3204 Y14.4548 E67.31751
G1 X145.3756 Y14.6290 E67.32048
G1 X145.3943 Y14.8107 E67.32344
G1 Y17.6068 E67.36880
G1 X145.4862 Y17.8244 E67.37264
G1 X145.4957 Y17.8282 E67.37280
G1 X145.7101 Y17.8881 E67.37641
G1 X145.9321 Y17.9043 E67.38003
G1 X146.1081 Y17.8272 E67.38314
G1 X146.1622 Y17.6455 E67.38622
G1 X146.1805 Y17.4568 E67.38929
G1 Y14.6696 E67.43451
G1 X146.2714 Y14.4465 E67.43842
G1 X146.2852 Y14.4405 E67.43867
G1 X146.4971 Y14.3718 E67.44228
G1 X146.7183 Y14.3452 E67.44590
G1 X146.8937 Y14.4143 E67.44895
G1 X146.9483 Y14.5918 E67.45197
G1 X146.9668 Y14.7765 E67.45498
G1 Y17.5643 E67.50021
G1 X147.0581 Y17.7854 E67.50409
G1 X147.0704 Y17.7905 E67.50431
G1 X147.2832 Y17.8559 E67.50792
G1 X147.5046 Y17.8786 E67.51153
G1 X147.6802 Y17.8065 E67.51461
G1 X147.7346 Y17.6275 E67.51764
G1 X147.7530 Y17.4414 E67.52068
G1 Y14.6542 E67.56589
G1 X147.8448 Y14.4362 E67.56973
G1 X147.8547 Y14.4322 E67.56991
G1 X148.0689 Y14.3717 E67.57352
G1 X148.2908 Y14.3546 E67.57713
G1 X148.4668 Y14.4312 E67.58024
G1 X148.5209 Y14.6125 E67.58331
G1 X148.5392 Y14.8008 E67.58638
G1 Y17.5888 E67.63161
G1 X148.6300 Y17.8124 E67.63553
G1 X148.6441 Y17.8185 E67.63578
G1 X148.8559 Y17.8879 E67.63939
G1 X149.0770 Y17.9154 E67.64301
G1 X149.2523 Y17.8469 E67.64606
G1 X149.3070 Y17.6698 E67.64907
G1 X149.3255 Y17.4853 E67.65208
G1 Y14.6950 E67.69735
G1 X149.4180 Y14.4822 E67.70111
G1 X149.4231 Y14.4804 E67.70120
G1 X149.6399 Y14.4277 E67.70482
G1 X149.8629 Y14.4203 E67.70844
G1 X150.0398 Y14.5046 E67.71162
G1 X150.0936 Y14.6904 E67.71476
G1 X150.1117 Y14.8830 E67.71789
G1 Y17.6718 E67.76314
G1 X150.2013 Y17.9012 E67.76714
G1 X150.2185 Y17.9096 E67.76745
G1 X150.4283 Y17.9887 E67.77108
G1 X150.6490 Y18.0277 E67.77472
G1 X150.8238 Y17.9675 E67.77772
G1 X150.8792 Y17.7943 E67.78067
G1 X150.8980 Y17.6133 E67.78362
G1 Y14.8042 E67.82920
G1 X150.9909 Y14.5949 E67.83291
G1 X150.9921 Y14.5945 E67.83293
G1 X151.2110 Y14.5472 E67.83657
G1 X151.4350 Y14.5462 E67.84020
G1 X151.6127 Y14.6360 E67.84343
G1 X151.6662 Y14.8251 E67.84662
G1 X151.6842 Y15.0208 E67.84981
G1 Y17.8139 E67.89512
G1 X151.7724 Y18.0489 E67.89919
G1 X151.7915 Y18.0592 E67.89955
G1 X151.9997 Y18.1484 E67.90322
G1 X152.2205 Y18.1989 E67.90690
G1 X152.3950 Y18.1466 E67.90985
G1 X152.4513 Y17.9766 E67.91276
G1 X152.4704 Y17.7985 E67.91566
G1 Y14.9744 E67.96148
G1 X152.5636 Y14.7681 E67.96515
G1 X152.7820 Y14.7257 E67.96876
G1 X153.0044 Y14.7302 E67.97237
G1 X153.1846 Y14.8257 E67.97568
G1 X153.2385 Y15.0198 E67.97895
G1 X153.2567 Y15.2204 E67.98222
G1 Y18.0279 E68.02777
G1 X153.3437 Y18.2668 E68.03189
G1 X153.3634 Y18.2782 E68.03226
G1 X153.5709 Y18.3748 E68.03598
G1 X153.7920 Y18.4339 E68.03969
G1 X153.9666 Y18.3871 E68.04262
G1 X154.0236 Y18.2190 E68.04550
G1 X154.0429 Y18.0426 E68.04838
G1 Y15.2025 E68.09446
G1 X154.1363 Y15.0004 E68.09807
G1 X154.3521 Y14.9649 E68.10162
G1 X154.5705 Y14.9767 E68.10517
G1 X154.7558 Y15.0813 E68.10862
G1 X154.8107 Y15.2843 E68.11203
G1 X154.8292 Y15.4938 E68.11544
G1 Y18.3168 E68.16124
G1 X154.9155 Y18.5580 E68.16540
G1 X154.9352 Y18.5698 E68.16577
G1 X155.1424 Y18.6709 E68.16951
G1 X155.3639 Y18.7352 E68.17325
G1 X155.5385 Y18.6914 E68.17617
G1 X155.5959 Y18.5244 E68.17904
G1 X155.6154 Y18.3488 E68.18191
G1 Y15.4898 E68.22829
G1 X155.7090 Y15.2933 E68.23182
G1 X155.9210 Y15.2666 E68.23529
G1 X156.1337 Y15.2872 E68.23875
G1 X156.3262 Y15.4049 E68.24241
G1 X156.3826 Y15.6209 E68.24604
G1 X156.4016 Y15.8433 E68.24966
G1 Y18.6688 E68.29550
G1 X156.4863 Y18.9146 E68.29972
G1 X156.5053 Y18.9270 E68.30008
G1 X156.7122 Y19.0380 E68.30389
G1 X156.9346 Y19.1134 E68.30770
G1 X157.1095 Y19.0761 E68.31061
G1 X157.1681 Y18.9108 E68.31345
G1 X157.1879 Y18.7366 E68.31630
G1 Y15.8376 E68.36333
G1 X157.2816 Y15.6467 E68.36678
G1 X157.4893 Y15.6283 E68.37016
G1 X157.6957 Y15.6574 E68.37354
G1 X157.8964 Y15.7897 E68.37744
G1 X157.9545 Y16.0204 E68.38130
G1 X157.9741 Y16.2575 E68.38516
G1 Y19.0860 E68.43105
G1 X158.0568 Y19.3369 E68.43534
G1 X158.0740 Y19.3491 E68.43568
G1 X158.2809 Y19.4721 E68.43959
G1 X158.5048 Y19.5609 E68.44349
G1 X158.6802 Y19.5308 E68.44638
G1 X158.7401 Y19.3671 E68.44921
G1 X158.7604 Y19.1939 E68.45204
G1 Y16.2469 E68.49985
G1 X158.8539 Y16.0618 E68.50322
G1 X159.0568 Y16.0516 E68.50651
G1 X159.2565 Y16.0887 E68.50981
G1 X159.4662 Y16.2378 E68.51398
G1 X159.5264 Y16.4856 E68.51812
G1 X159.5466 Y16.7397 E68.52225
G1 Y19.5710 E68.56819
G1 X159.6270 Y19.8269 E68.57254
G1 X159.6412 Y19.8378 E68.57283
G1 X159.8487 Y19.9739 E68.57686
G1 X160.0744 Y20.0770 E68.58088
G1 X160.2506 Y20.0542 E68.58377
G1 X160.3120 Y19.8916 E68.58659
G1 X160.3328 Y19.7190 E68.58941
G1 Y16.7344 E68.63783
G1 X160.4261 Y16.5533 E68.64113
G1 X160.6254 Y16.5485 E68.64437
G1 X160.8202 Y16.5908 E68.64760
G1 X160.8242 Y16.5921 E68.64767
G1 X161.0378 Y16.7519 E68.65200
G1 X161.0987 Y17.0092 E68.65629
G1 X161.1191 Y17.2728 E68.66058
G1 Y20.1489 E68.70724
G1 X161.1982 Y20.4075 E68.71163
G1 X161.2101 Y20.4172 E68.71188
G1 X161.4180 Y20.5613 E68.71598
G1 X161.6450 Y20.6732 E68.72009
G1 X161.8218 Y20.6545 E68.72297
G1 X161.8841 Y20.4923 E68.72579
G1 X161.9053 Y20.3197 E68.72861
G1 Y17.2897 E68.77777
G1 X161.9983 Y17.1127 E68.78101
G1 X162.1938 Y17.1131 E68.78419
G1 X162.3836 Y17.1602 E68.78736
G1 X162.4001 Y17.1665 E68.78764
G1 X162.6117 Y17.3328 E68.79201
G1 X162.6715 Y17.5929 E68.79634
G1 X162.6916 Y17.8589 E68.80067
G1 Y20.8044 E68.84846
G1 X162.7693 Y21.0657 E68.85288
G1 X162.7785 Y21.0736 E68.85308
G1 X162.9871 Y21.2262 E68.85727
G1 X163.2155 Y21.3472 E68.86146
G1 X163.3930 Y21.3328 E68.86435
G1 X163.4563 Y21.1708 E68.86717
G1 X163.4778 Y20.9982 E68.87000
G1 Y17.9155 E68.92001
G1 X163.5704 Y17.7429 E68.92319
G1 X163.7617 Y17.7484 E68.92629
G1 X163.9459 Y17.8005 E68.92940
G1 X163.9764 Y17.8133 E68.92993
G1 X164.1856 Y17.9864 E68.93434
G1 X164.2443 Y18.2492 E68.93871
G1 X164.2640 Y18.5178 E68.94308
G1 Y21.5407 E68.99212
G1 X164.3396 Y21.8058 E68.99659
G1 X164.3442 Y21.8101 E68.99670
G1 X164.5541 Y21.9759 E69.00103
G1 X164.7848 Y22.1110 E69.00537
G1 X164.9634 Y22.1026 E69.00827
G1 X165.0282 Y21.9406 E69.01110
G1 X165.0503 Y21.7676 E69.01393
G1 Y18.6153 E69.06508
G1 X165.1422 Y18.4480 E69.06817
G1 X165.3282 Y18.4596 E69.07120
G1 X165.5055 Y18.5170 E69.07422
G1 X165.5541 Y18.5398 E69.07509
G1 X165.7599 Y18.7210 E69.07954
G1 X165.8173 Y18.9871 E69.08396
G1 X165.8365 Y19.2587 E69.08837
G1 Y22.3646 E69.13876
G1 X165.9094 Y22.6341 E69.14329
G1 X166.1192 Y22.8154 E69.14779
G1 X166.3511 Y22.9676 E69.15229
G1 X166.5325 Y22.9664 E69.15523
G1 X166.5998 Y22.8031 E69.15810
G1 X166.6228 Y22.6279 E69.16097
G1 Y19.3941 E69.21343
G1 X166.7138 Y19.2329 E69.21643
G1 X166.8934 Y19.2509 E69.21936
G1 X167.0625 Y19.3139 E69.22229
G1 X167.1330 Y19.3511 E69.22358
G1 X167.3347 Y19.5414 E69.22808
G1 X167.3903 Y19.8111 E69.23255
G1 X167.4090 Y20.0859 E69.23702
G1 Y23.2830 E69.28889
G1 X167.4790 Y23.5566 E69.29347
G1 X167.6832 Y23.7494 E69.29803
G1 X167.9099 Y23.9151 E69.30258
G1 X167.9323 Y23.9295 E69.30301
G1 X168.1064 Y23.9354 E69.30584
G1 X168.1726 Y23.7793 E69.30859
G1 X168.1952 Y23.6113 E69.31134
G1 Y20.2577 E69.36575
G1 X168.2851 Y20.1028 E69.36866
G1 X168.4579 Y20.1266 E69.37149
G1 X168.6186 Y20.1946 E69.37432
G1 X168.7125 Y20.2498 E69.37608
G1 X168.9095 Y20.4491 E69.38063
G1 X168.9634 Y20.7223 E69.38515
G1 X168.9815 Y21.0001 E69.38967
G1 Y24.3060 E69.44330
G1 X169.0485 Y24.5836 E69.44793
G1 X169.2463 Y24.7876 E69.45254
G1 X169.4668 Y24.9667 E69.45715
G1 X169.5143 Y25.0008 E69.45810
G1 X169.6807 Y25.0133 E69.46081
G1 X169.7455 Y24.8647 E69.46344
G1 X169.7677 Y24.7041 E69.46607
G1 Y21.2126 E69.52271
G1 X169.8562 Y21.0639 E69.52552
G1 X170.0220 Y21.0931 E69.52825
G1 X170.1742 Y21.1653 E69.53098
G1 X170.2926 Y21.2424 E69.53328
G1 X170.4844 Y21.4504 E69.53787
G1 X170.5365 Y21.7269 E69.54243
G1 X170.5540 Y22.0077 E69.54700
G1 Y25.4458 E69.60278
G1 X170.6179 Y25.7272 E69.60746
G1 X170.8086 Y25.9419 E69.61212
G1 X171.0221 Y26.1340 E69.61678
G1 X171.0970 Y26.1942 E69.61834
G1 X171.2553 Y26.2124 E69.62092
G1 X171.3402 Y25.9183 E69.62589
G1 Y22.2670 E69.68513
G1 X171.4272 Y22.1248 E69.68783
G1 X171.5855 Y22.1589 E69.69046
G1 X171.7287 Y22.2347 E69.69309
G1 X171.8732 Y22.3387 E69.69598
G1 X172.0594 Y22.5553 E69.70061
G1 X172.1096 Y22.8350 E69.70522
G1 X172.1264 Y23.1187 E69.70983
G1 Y26.7163 E69.76820
G1 X172.1871 Y27.0012 E69.77293
G1 X172.3700 Y27.2264 E69.77763
G1 X172.5754 Y27.4312 E69.78234
G1 X172.6805 Y27.5255 E69.78463
G1 X172.8302 Y27.5490 E69.78709
G1 X172.9127 Y27.2703 E69.79180
G1 Y23.4309 E69.85409
G1 X172.9979 Y23.2951 E69.85670
G1 X173.1487 Y23.3335 E69.85922
G1 X173.2829 Y23.4122 E69.86175
G1 X173.4543 Y23.5480 E69.86529
G1 X173.6346 Y23.7728 E69.86997
G1 X173.6828 Y24.0555 E69.87462
G1 X173.6989 Y24.3419 E69.87927
G1 Y28.1383 E69.94087
G1 X173.7562 Y28.4266 E69.94564
G1 X173.9195 Y28.6709 E69.95040
G1 X174.2646 Y29.0160 E69.95832
G1 X174.4250 Y28.8844 E69.96169
G1 X174.4701 Y28.6836 E69.96503
G1 X174.4852 Y28.4783 E69.96836
G1 Y24.7153 E70.02942
G1 X174.5684 Y24.5859 E70.03191
G1 X174.8367 Y24.7090 E70.03670
G1 X175.0360 Y24.8823 E70.04098
G1 X175.2098 Y25.1151 E70.04570
G1 X175.2559 Y25.4007 E70.05039
G1 X175.2714 Y25.6895 E70.05508
G1 Y29.7356 E70.12073
G1 X175.3253 Y30.0270 E70.12554
G1 X175.4798 Y30.2798 E70.13034
G1 X175.8492 Y30.6911 E70.13931
G1 X176.0005 Y30.5720 E70.14244
G1 X176.0432 Y30.3859 E70.14553
G1 X176.0576 Y30.1955 E70.14863
G1 Y26.1360 E70.21449
G1 X176.2699 Y26.1121 E70.21796
G1 X176.4512 Y26.2219 E70.22140
G1 X176.6146 Y26.3568 E70.22484
G1 X176.6184 Y26.3604 E70.22492
G1 X176.7852 Y26.6012 E70.22967
G1 X176.8292 Y26.8896 E70.23441
G1 X176.8439 Y27.1810 E70.23914
G1 Y31.5406 E70.30987
G1 X176.8942 Y31.8349 E70.31471
G1 X177.0392 Y32.0959 E70.31956
G1 X177.4348 Y32.5885 E70.32981
G1 X177.5763 Y32.4817 E70.33268
G1 X177.6166 Y32.3106 E70.33554
G1 X177.6301 Y32.1354 E70.33839
G1 Y27.7116 E70.41016
G1 X177.8265 Y27.6970 E70.41335
G1 X177.9878 Y27.8071 E70.41652
G1 X178.1308 Y27.9400 E70.41969
G1 X178.2043 Y28.0193 E70.42145
G1 X178.3615 Y28.2697 E70.42624
G1 X178.4164 Y28.5602 E70.43104
G1 Y33.5988 E70.51278
G1 X178.4617 Y33.8967 E70.51767
G1 X178.5937 Y34.1675 E70.52256
G1 X179.0253 Y34.7928 E70.53489
G1 X179.1535 Y34.7014 E70.53744
G1 X179.1902 Y34.5498 E70.53997
G1 X179.2026 Y34.3944 E70.54250
G1 Y29.4633 E70.62250
G1 X179.3816 Y29.4572 E70.62541
G1 X179.5220 Y29.5657 E70.62829
G1 X179.6443 Y29.6944 E70.63117
G1 X179.7919 Y29.8759 E70.63496
G1 X179.9381 Y30.1360 E70.63980
G1 X179.9888 Y30.4300 E70.64464
G1 Y35.9671 E70.73448
G1 X180.0282 Y36.2687 E70.73941
G1 X180.1436 Y36.5500 E70.74435
G1 X180.6203 Y37.3844 E70.75994
G1 X180.7751 Y37.1832 E70.76406
G1 Y31.4415 E70.85721
G1 X180.9380 Y31.4419 E70.85985
G1 X181.0602 Y31.5472 E70.86247
G1 X181.1645 Y31.6703 E70.86509
G1 X181.3790 Y31.9681 E70.87104
G1 X181.5146 Y32.2364 E70.87592
G1 X181.5613 Y32.5333 E70.88079
G1 Y38.8534 E70.98333
G1 X181.5945 Y39.1581 E70.98830
G1 X181.6927 Y39.4484 E70.99327
G1 X182.2162 Y40.5756 E71.01344
G1 X182.3476 Y40.4120 E71.01684
G1 Y33.7116 E71.12555
G1 X182.6036 Y33.8101 E71.13000
G1 X182.9687 Y34.3955 E71.14119
G1 X183.0917 Y34.6722 E71.14611
G1 X183.1338 Y34.9722 E71.15102
G1 Y42.5008 E71.27317
G1 X183.1587 Y42.8087 E71.27818
G1 X183.2328 Y43.1087 E71.28319
G1 X183.8210 Y44.8659 E71.31326
G1 X183.9200 Y44.7495 E71.31574
G1 Y36.3355 E71.45224
G1 X184.1347 Y36.4320 E71.45606
G1 X184.5612 Y37.2437 E71.47094
G1 X184.6695 Y37.5290 E71.47589
G1 X184.7063 Y37.8319 E71.48084
G1 Y47.9266 E71.64462
G1 X184.7822 Y48.1911 E71.64908
G1 X184.9977 Y48.3590 F4800 ;  Move Only (0.27 mm)
G1 X185.2344 Y48.4953 ;  Move Only (0.27 mm)
G1 X188.3569 Y50.0133 ;  Move Only (3.5 mm)
G1 X188.5616 Y50.1972 ;  Move Only (0.28 mm)
G1 X188.6184 Y50.4644 E71.65351 F1200
G1 X188.6375 Y50.7369 E71.65794
G1 Y61.7357 E71.83639
G1 X188.6701 Y61.7074 E71.83709
G1 X188.9920 Y58.3513 E71.89179
G1 X188.9270 Y58.2351 E71.89395
G1 X188.6988 Y58.3469 F4800 ;  Move Only (0.25 mm)
