; generated by Slic3r 1.0.0 on 2014-03-30 at 23:04:12

; Joe Racette  2014

; layer_height = 0.25
; perimeters = 3
; top_solid_layers = 3
; bottom_solid_layers = 3
; fill_density = .5
; perimeter_speed = 30
; infill_speed = 60
; travel_speed = 100
; nozzle_diameter = 0.35
; filament_diameter = 3
; extrusion_multiplier = 1
; perimeters extrusion width = 0.35mm
; infill extrusion width = 0.39mm
; solid infill extrusion width = 0.39mm
; top infill extrusion width = 0.12mm
; first layer extrusion width = 0.70mm

G21 ; set units to millimeters
M107
M190 S112 ; wait for bed temperature to be reached
M104 S230 ; set temperature
G28 ; home all axes
G1 Z5 F5000 ; lift nozzle
M117 ..... Printing .....
M109 S230 ; wait for temperature to be reached
G90 ; use absolute coordinates
M83 ; use relative distances for extrusion
G1 F1800.000 E-1.00000
G1 Z0.350 F6000.000
G1 X66.340 Y65.701 F6000.000
G1 E1.00000 F1800.000
G1 X68.010 Y64.141 E0.07071 F540.000
G1 X69.630 Y62.751 E0.06605
G1 X71.180 Y61.541 E0.06084
G1 X73.040 Y60.221 E0.07057
G1 X74.830 Y59.061 E0.06600
G1 X76.520 Y58.071 E0.06060
G1 X78.540 Y57.001 E0.07073
G1 X80.450 Y56.101 E0.06533
G1 X82.260 Y55.331 E0.06086
G1 X84.260 Y54.591 E0.06598
G1 X86.280 Y53.941 E0.06566
G1 X88.500 Y53.341 E0.07115
G1 X90.560 Y52.881 E0.06531
G1 X92.490 Y52.531 E0.06069
G1 X94.780 Y52.231 E0.07146
G1 X96.880 Y52.051 E0.06522
G1 X98.840 Y51.961 E0.06071
G1 X101.150 Y51.961 E0.07147
G1 X103.110 Y52.051 E0.06071
G1 X105.210 Y52.231 E0.06522
G1 X107.500 Y52.531 E0.07146
G1 X109.430 Y52.881 E0.06069
G1 X111.490 Y53.341 E0.06531
G1 X113.540 Y53.891 E0.06567
G1 X115.730 Y54.591 E0.07114
G1 X117.730 Y55.331 E0.06598
G1 X119.540 Y56.101 E0.06086
G1 X121.450 Y57.001 E0.06533
G1 X123.470 Y58.071 E0.07073
G1 X125.310 Y59.151 E0.06601
G1 X126.940 Y60.211 E0.06016
G1 X128.810 Y61.541 E0.07100
G1 X130.360 Y62.751 E0.06084
G1 X131.980 Y64.141 E0.06605
G1 X133.650 Y65.701 E0.07071
G1 X135.020 Y67.101 E0.06061
G1 X136.440 Y68.681 E0.06573
G1 X137.890 Y70.451 E0.07080
G1 X139.070 Y72.021 E0.06077
G1 X140.360 Y73.931 E0.07131
G1 X141.390 Y75.601 E0.06071
G1 X142.420 Y77.441 E0.06525
G1 X143.380 Y79.351 E0.06614
G1 X144.250 Y81.301 E0.06607
G1 X145.100 Y83.411 E0.07038
G1 X145.740 Y85.271 E0.06086
G1 X146.380 Y87.461 E0.07060
G1 X146.860 Y89.371 E0.06094
G1 X147.310 Y91.621 E0.07100
G1 X147.630 Y93.711 E0.06542
G1 X147.870 Y95.831 E0.06601
G1 X148.000 Y97.791 E0.06078
G1 X148.040 Y99.921 E0.06592
G1 X148.000 Y102.201 E0.07056
G1 X147.870 Y104.161 E0.06078
G1 X147.630 Y106.281 E0.06601
G1 X147.280 Y108.541 E0.07076
G1 X146.860 Y110.621 E0.06566
G1 X146.380 Y112.531 E0.06094
G1 X145.740 Y114.731 E0.07089
G1 X145.100 Y116.581 E0.06057
G1 X144.310 Y118.551 E0.06567
G1 X143.380 Y120.651 E0.07106
G1 X142.430 Y122.541 E0.06545
G1 X141.470 Y124.261 E0.06095
G1 X140.360 Y126.061 E0.06543
G1 X139.070 Y127.971 E0.07131
G1 X137.890 Y129.541 E0.06077
G1 X136.450 Y131.291 E0.07012
G1 X135.020 Y132.891 E0.06640
G1 X133.650 Y134.291 E0.06061
G1 X131.970 Y135.861 E0.07115
G1 X130.360 Y137.231 E0.06541
G1 X128.810 Y138.441 E0.06084
G1 X126.950 Y139.771 E0.07075
G1 X125.160 Y140.931 E0.06600
G1 X123.470 Y141.921 E0.06060
G1 X121.450 Y142.991 E0.07073
G1 X119.670 Y143.831 E0.06090
G1 X117.710 Y144.651 E0.06574
G1 X115.560 Y145.461 E0.07109
G1 X113.560 Y146.091 E0.06488
G1 X111.490 Y146.651 E0.06635
G1 X109.430 Y147.111 E0.06531
G1 X107.500 Y147.461 E0.06069
G1 X105.210 Y147.761 E0.07146
G1 X103.110 Y147.941 E0.06522
G1 X101.150 Y148.031 E0.06071
G1 X98.840 Y148.031 E0.07147
G1 X96.880 Y147.941 E0.06071
G1 X94.780 Y147.761 E0.06522
G1 X92.490 Y147.461 E0.07146
G1 X90.560 Y147.111 E0.06069
G1 X88.500 Y146.651 E0.06531
G1 X86.430 Y146.091 E0.06635
G1 X84.430 Y145.461 E0.06488
G1 X82.280 Y144.651 E0.07109
G1 X80.320 Y143.831 E0.06574
G1 X78.540 Y142.991 E0.06090
G1 X76.520 Y141.921 E0.07073
G1 X74.680 Y140.841 E0.06601
G1 X72.890 Y139.671 E0.06617
G1 X71.180 Y138.441 E0.06518
G1 X69.630 Y137.231 E0.06084
G1 X68.020 Y135.861 E0.06541
G1 X66.340 Y134.291 E0.07115
G1 X64.970 Y132.891 E0.06061
G1 X63.540 Y131.291 E0.06640
G1 X62.100 Y129.541 E0.07012
G1 X60.920 Y127.971 E0.06077
G1 X59.630 Y126.061 E0.07131
G1 X58.520 Y124.261 E0.06543
G1 X57.560 Y122.541 E0.06095
G1 X56.610 Y120.651 E0.06545
G1 X55.680 Y118.561 E0.07078
G1 X54.890 Y116.581 E0.06596
G1 X54.250 Y114.731 E0.06057
G1 X53.610 Y112.531 E0.07089
G1 X53.130 Y110.621 E0.06094
G1 X52.710 Y108.541 E0.06566
G1 X52.360 Y106.281 E0.07076
G1 X52.120 Y104.161 E0.06601
G1 X51.990 Y102.201 E0.06078
G1 X51.950 Y100.061 E0.06623
G1 X51.990 Y97.791 E0.07025
G1 X52.120 Y95.831 E0.06078
G1 X52.360 Y93.711 E0.06601
G1 X52.680 Y91.621 E0.06542
G1 X53.130 Y89.371 E0.07100
G1 X53.610 Y87.461 E0.06094
G1 X54.250 Y85.271 E0.07060
G1 X54.890 Y83.411 E0.06086
G1 X55.740 Y81.301 E0.07038
G1 X56.610 Y79.351 E0.06607
G1 X57.570 Y77.441 E0.06614
G1 X58.600 Y75.601 E0.06525
G1 X59.630 Y73.931 E0.06071
G1 X60.920 Y72.021 E0.07131
G1 X62.100 Y70.451 E0.06077
G1 X63.550 Y68.681 E0.07080
G1 X64.970 Y67.101 E0.06573
G1 X66.274 Y65.768 E0.05771
G1 F1800.000 E-1.00000
G1 X70.055 Y69.385 F6000.000
G1 E1.00000 F1800.000
G1 X71.439 Y68.091 E0.05863 F540.000
G1 X72.878 Y66.858 E0.05862
G1 X74.371 Y65.691 E0.05863
G1 X75.913 Y64.591 E0.05862
G1 X77.503 Y63.560 E0.05863
G1 X79.137 Y62.601 E0.05862
G1 X80.812 Y61.715 E0.05862
G1 X82.524 Y60.903 E0.05863
G1 X84.270 Y60.169 E0.05863
G1 X86.048 Y59.512 E0.05862
G1 X87.852 Y58.934 E0.05863
G1 X89.681 Y58.437 E0.05863
G1 X91.529 Y58.021 E0.05863
G1 X93.394 Y57.688 E0.05863
G1 X95.272 Y57.437 E0.05863
G1 X96.732 Y57.307 E0.04535
G1 X97.160 Y57.269 E0.01328
G1 X99.053 Y57.186 E0.05863
G1 X100.947 Y57.186 E0.05863
G1 X102.840 Y57.269 E0.05862
G1 X104.728 Y57.437 E0.05863
G1 X106.606 Y57.688 E0.05862
G1 X108.471 Y58.021 E0.05863
G1 X109.901 Y58.343 E0.04535
G1 X110.319 Y58.437 E0.01328
G1 X112.148 Y58.934 E0.05863
G1 X113.952 Y59.512 E0.05862
G1 X115.730 Y60.169 E0.05863
G1 X117.476 Y60.903 E0.05863
G1 X119.188 Y61.715 E0.05863
G1 X120.863 Y62.601 E0.05863
G1 X122.497 Y63.560 E0.05862
G1 X123.727 Y64.358 E0.04535
G1 X124.087 Y64.591 E0.01328
G1 X125.630 Y65.691 E0.05863
G1 X127.122 Y66.858 E0.05862
G1 X128.561 Y68.091 E0.05862
G1 X129.945 Y69.385 E0.05863
G1 X131.270 Y70.740 E0.05863
G1 X132.533 Y72.151 E0.05863
G1 X133.733 Y73.618 E0.05863
G1 X134.611 Y74.792 E0.04535
G1 X134.867 Y75.136 E0.01328
G1 X135.933 Y76.702 E0.05863
G1 X136.928 Y78.315 E0.05863
G1 X137.852 Y79.969 E0.05863
G1 X138.700 Y81.663 E0.05863
G1 X139.474 Y83.393 E0.05863
G1 X140.170 Y85.155 E0.05863
G1 X140.787 Y86.947 E0.05862
G1 X141.324 Y88.764 E0.05863
G1 X141.781 Y90.603 E0.05863
G1 X142.156 Y92.460 E0.05863
G1 X142.382 Y93.908 E0.04535
G1 X142.448 Y94.332 E0.01328
G1 X142.657 Y96.215 E0.05863
G1 X142.783 Y98.106 E0.05863
G1 X142.825 Y100.000 E0.05863
G1 X142.783 Y101.894 E0.05863
G1 X142.657 Y103.785 E0.05863
G1 X142.448 Y105.668 E0.05863
G1 X142.156 Y107.540 E0.05863
G1 X141.781 Y109.397 E0.05862
G1 X141.324 Y111.236 E0.05863
G1 X140.787 Y113.053 E0.05863
G1 X140.170 Y114.845 E0.05862
G1 X139.474 Y116.607 E0.05863
G1 X138.700 Y118.337 E0.05863
G1 X137.852 Y120.031 E0.05862
G1 X136.928 Y121.685 E0.05863
G1 X135.933 Y123.298 E0.05863
G1 X134.867 Y124.864 E0.05863
G1 X133.733 Y126.382 E0.05863
G1 X132.534 Y127.848 E0.05862
G1 X131.270 Y129.260 E0.05863
G1 X129.945 Y130.615 E0.05863
G1 X128.561 Y131.909 E0.05863
G1 X127.122 Y133.142 E0.05863
G1 X125.629 Y134.309 E0.05863
G1 X124.087 Y135.409 E0.05862
G1 X122.497 Y136.440 E0.05863
G1 X120.863 Y137.399 E0.05862
G1 X119.188 Y138.285 E0.05862
G1 X117.476 Y139.097 E0.05863
G1 X115.730 Y139.831 E0.05863
G1 X113.952 Y140.488 E0.05862
G1 X112.148 Y141.066 E0.05863
G1 X110.319 Y141.563 E0.05863
G1 X108.471 Y141.979 E0.05863
G1 X106.606 Y142.312 E0.05862
G1 X104.728 Y142.563 E0.05863
G1 X103.268 Y142.693 E0.04535
G1 X102.840 Y142.731 E0.01328
G1 X100.947 Y142.814 E0.05863
G1 X99.053 Y142.814 E0.05863
G1 X97.160 Y142.731 E0.05862
G1 X95.272 Y142.563 E0.05863
G1 X93.394 Y142.312 E0.05862
G1 X91.529 Y141.979 E0.05863
G1 X89.681 Y141.563 E0.05862
G1 X87.852 Y141.066 E0.05863
G1 X86.048 Y140.488 E0.05862
G1 X84.270 Y139.831 E0.05863
G1 X82.919 Y139.263 E0.04535
G1 X82.524 Y139.097 E0.01328
G1 X80.812 Y138.285 E0.05863
G1 X79.137 Y137.399 E0.05863
G1 X77.503 Y136.440 E0.05862
G1 X75.913 Y135.409 E0.05863
G1 X74.370 Y134.309 E0.05863
G1 X72.878 Y133.142 E0.05862
G1 X71.439 Y131.909 E0.05862
G1 X70.055 Y130.615 E0.05863
G1 X68.730 Y129.260 E0.05863
G1 X67.467 Y127.849 E0.05863
G1 X66.267 Y126.382 E0.05863
G1 X65.133 Y124.864 E0.05862
G1 X64.067 Y123.298 E0.05863
G1 X63.072 Y121.685 E0.05863
G1 X62.148 Y120.031 E0.05863
G1 X61.300 Y118.337 E0.05863
G1 X60.526 Y116.607 E0.05863
G1 X59.830 Y114.845 E0.05863
G1 X59.213 Y113.053 E0.05862
G1 X58.676 Y111.236 E0.05862
G1 X58.219 Y109.397 E0.05863
G1 X57.844 Y107.540 E0.05863
G1 X57.552 Y105.668 E0.05863
G1 X57.343 Y103.785 E0.05863
G1 X57.217 Y101.894 E0.05863
G1 X57.175 Y100.000 E0.05863
G1 X57.217 Y98.106 E0.05863
G1 X57.343 Y96.215 E0.05863
G1 X57.505 Y94.759 E0.04535
G1 X57.552 Y94.332 E0.01328
G1 X57.844 Y92.460 E0.05863
G1 X58.219 Y90.603 E0.05862
G1 X58.676 Y88.764 E0.05863
G1 X59.213 Y86.947 E0.05863
G1 X59.830 Y85.155 E0.05862
G1 X60.526 Y83.393 E0.05863
G1 X61.300 Y81.663 E0.05863
G1 X62.148 Y79.969 E0.05862
G1 X63.072 Y78.315 E0.05863
G1 X64.067 Y76.702 E0.05863
G1 X65.133 Y75.136 E0.05863
G1 X66.267 Y73.618 E0.05863
G1 X67.466 Y72.152 E0.05862
G1 X68.730 Y70.740 E0.05863
G1 X69.990 Y69.452 E0.05573
G1 X72.482 Y66.375 F6000.000
G1 X73.996 Y65.190 E0.05948 F540.000
G1 X75.562 Y64.074 E0.05948
G1 X77.175 Y63.028 E0.05948
G1 X78.832 Y62.055 E0.05948
G1 X80.532 Y61.156 E0.05948
G1 X82.269 Y60.333 E0.05948
G1 X84.041 Y59.587 E0.05948
G1 X85.844 Y58.921 E0.05948
G1 X87.675 Y58.335 E0.05948
G1 X89.530 Y57.830 E0.05948
G1 X91.406 Y57.409 E0.05948
G1 X93.298 Y57.070 E0.05948
G1 X95.203 Y56.816 E0.05948
G1 X96.677 Y56.685 E0.04577
G1 X97.118 Y56.646 E0.01371
G1 X99.039 Y56.561 E0.05948
G1 X100.961 Y56.561 E0.05948
G1 X102.882 Y56.646 E0.05948
G1 X104.797 Y56.816 E0.05948
G1 X106.702 Y57.070 E0.05948
G1 X108.594 Y57.409 E0.05948
G1 X110.470 Y57.830 E0.05948
G1 X112.325 Y58.335 E0.05948
G1 X113.734 Y58.786 E0.04578
G1 X114.156 Y58.921 E0.01371
G1 X115.959 Y59.587 E0.05948
G1 X117.731 Y60.333 E0.05948
G1 X119.468 Y61.156 E0.05948
G1 X121.168 Y62.055 E0.05948
G1 X122.825 Y63.028 E0.05948
G1 X124.438 Y64.074 E0.05948
G1 X126.004 Y65.190 E0.05948
G1 X127.518 Y66.375 E0.05948
G1 X128.642 Y67.337 E0.04577
G1 X128.978 Y67.625 E0.01371
G1 X130.382 Y68.938 E0.05948
G1 X131.726 Y70.313 E0.05948
G1 X133.008 Y71.745 E0.05948
G1 X134.226 Y73.233 E0.05948
G1 X135.376 Y74.773 E0.05948
G1 X136.458 Y76.362 E0.05948
G1 X137.467 Y77.998 E0.05948
G1 X138.404 Y79.677 E0.05948
G1 X139.265 Y81.396 E0.05948
G1 X140.050 Y83.151 E0.05948
G1 X140.756 Y84.939 E0.05948
G1 X141.382 Y86.756 E0.05948
G1 X141.928 Y88.600 E0.05948
G1 X142.391 Y90.465 E0.05948
G1 X142.771 Y92.350 E0.05948
G1 X142.999 Y93.812 E0.04578
G1 X143.068 Y94.249 E0.01371
G1 X143.280 Y96.160 E0.05948
G1 X143.407 Y98.078 E0.05948
G1 X143.450 Y100.000 E0.05948
G1 X143.407 Y101.922 E0.05948
G1 X143.280 Y103.840 E0.05948
G1 X143.068 Y105.751 E0.05948
G1 X142.771 Y107.650 E0.05948
G1 X142.391 Y109.535 E0.05948
G1 X141.928 Y111.400 E0.05948
G1 X141.382 Y113.244 E0.05948
G1 X140.900 Y114.642 E0.04577
G1 X140.756 Y115.061 E0.01371
G1 X140.050 Y116.849 E0.05948
G1 X139.265 Y118.604 E0.05948
G1 X138.404 Y120.323 E0.05948
G1 X137.467 Y122.002 E0.05948
G1 X136.458 Y123.638 E0.05948
G1 X135.376 Y125.227 E0.05948
G1 X134.226 Y126.767 E0.05948
G1 X133.008 Y128.255 E0.05948
G1 X131.726 Y129.687 E0.05948
G1 X130.382 Y131.062 E0.05948
G1 X128.978 Y132.375 E0.05948
G1 X127.518 Y133.625 E0.05948
G1 X126.004 Y134.810 E0.05948
G1 X124.438 Y135.926 E0.05948
G1 X122.825 Y136.972 E0.05949
G1 X121.168 Y137.945 E0.05948
G1 X119.468 Y138.844 E0.05948
G1 X117.731 Y139.667 E0.05948
G1 X115.959 Y140.413 E0.05948
G1 X114.156 Y141.079 E0.05948
G1 X112.325 Y141.665 E0.05948
G1 X110.470 Y142.170 E0.05948
G1 X108.594 Y142.591 E0.05948
G1 X106.702 Y142.930 E0.05948
G1 X104.797 Y143.184 E0.05948
G1 X102.882 Y143.354 E0.05948
G1 X100.961 Y143.439 E0.05948
G1 X99.039 Y143.439 E0.05948
G1 X97.118 Y143.354 E0.05948
G1 X95.203 Y143.184 E0.05948
G1 X93.298 Y142.930 E0.05948
G1 X91.406 Y142.591 E0.05948
G1 X89.530 Y142.170 E0.05948
G1 X87.675 Y141.665 E0.05948
G1 X85.844 Y141.079 E0.05948
G1 X84.041 Y140.413 E0.05948
G1 X82.677 Y139.839 E0.04577
G1 X82.269 Y139.667 E0.01371
G1 X80.532 Y138.844 E0.05948
G1 X78.832 Y137.945 E0.05948
G1 X77.175 Y136.972 E0.05948
G1 X75.562 Y135.926 E0.05948
G1 X73.996 Y134.810 E0.05948
G1 X72.831 Y133.898 E0.04577
G1 X72.482 Y133.625 E0.01371
G1 X71.022 Y132.375 E0.05948
G1 X69.618 Y131.062 E0.05948
G1 X68.274 Y129.687 E0.05948
G1 X66.992 Y128.255 E0.05948
G1 X65.774 Y126.767 E0.05948
G1 X64.624 Y125.227 E0.05948
G1 X63.542 Y123.638 E0.05948
G1 X62.533 Y122.002 E0.05948
G1 X61.596 Y120.323 E0.05948
G1 X60.735 Y118.604 E0.05948
G1 X60.131 Y117.254 E0.04578
G1 X59.950 Y116.849 E0.01371
G1 X59.244 Y115.061 E0.05948
G1 X58.618 Y113.244 E0.05948
G1 X58.072 Y111.400 E0.05948
G1 X57.609 Y109.535 E0.05948
G1 X57.229 Y107.650 E0.05948
G1 X56.932 Y105.751 E0.05948
G1 X56.720 Y103.840 E0.05948
G1 X56.593 Y101.922 E0.05948
G1 X56.550 Y100.000 E0.05948
G1 X56.593 Y98.078 E0.05948
G1 X56.720 Y96.160 E0.05948
G1 X56.932 Y94.249 E0.05948
G1 X57.229 Y92.350 E0.05948
G1 X57.609 Y90.465 E0.05948
G1 X58.072 Y88.600 E0.05948
G1 X58.618 Y86.756 E0.05948
G1 X59.244 Y84.939 E0.05948
G1 X59.787 Y83.563 E0.04578
G1 X59.950 Y83.151 E0.01371
G1 X60.735 Y81.396 E0.05948
G1 X61.596 Y79.677 E0.05948
G1 X62.533 Y77.998 E0.05948
G1 X63.542 Y76.362 E0.05948
G1 X64.624 Y74.773 E0.05948
G1 X65.774 Y73.233 E0.05948
G1 X66.992 Y71.745 E0.05948
G1 X68.274 Y70.313 E0.05948
G1 X69.618 Y68.938 E0.05948
G1 X71.022 Y67.625 E0.05948
G1 X72.411 Y66.436 E0.05658
G1 X72.086 Y65.891 F6000.000
G1 X73.622 Y64.690 E0.06034 F378.000
G1 X75.210 Y63.557 E0.06034
G1 X76.846 Y62.497 E0.06034
G1 X78.528 Y61.509 E0.06034
G1 X80.251 Y60.597 E0.06034
G1 X82.014 Y59.762 E0.06034
G1 X83.811 Y59.006 E0.06034
G1 X85.640 Y58.330 E0.06034
G1 X87.498 Y57.735 E0.06034
G1 X89.379 Y57.224 E0.06034
G1 X91.282 Y56.796 E0.06034
G1 X93.201 Y56.453 E0.06034
G1 X95.134 Y56.194 E0.06034
G1 X96.622 Y56.062 E0.04620
G1 X97.077 Y56.022 E0.01413
G1 X99.025 Y55.936 E0.06034
G1 X100.975 Y55.936 E0.06034
G1 X102.923 Y56.022 E0.06034
G1 X104.866 Y56.194 E0.06034
G1 X106.798 Y56.453 E0.06034
G1 X108.718 Y56.796 E0.06034
G1 X110.621 Y57.224 E0.06034
G1 X112.502 Y57.735 E0.06034
G1 X113.925 Y58.191 E0.04620
G1 X114.360 Y58.330 E0.01413
G1 X116.189 Y59.006 E0.06034
G1 X117.986 Y59.762 E0.06034
G1 X119.749 Y60.597 E0.06034
G1 X121.472 Y61.509 E0.06034
G1 X123.154 Y62.497 E0.06034
G1 X124.790 Y63.557 E0.06034
G1 X126.378 Y64.690 E0.06034
G1 X127.914 Y65.891 E0.06034
G1 X129.048 Y66.862 E0.04620
G1 X129.395 Y67.159 E0.01413
G1 X130.819 Y68.491 E0.06034
G1 X132.183 Y69.886 E0.06034
G1 X133.483 Y71.339 E0.06034
G1 X134.718 Y72.848 E0.06034
G1 X135.885 Y74.410 E0.06034
G1 X136.982 Y76.022 E0.06034
G1 X138.006 Y77.682 E0.06034
G1 X138.956 Y79.385 E0.06034
G1 X139.830 Y81.128 E0.06034
G1 X140.626 Y82.908 E0.06034
G1 X141.342 Y84.722 E0.06034
G1 X141.978 Y86.566 E0.06033
G1 X142.531 Y88.436 E0.06034
G1 X143.001 Y90.328 E0.06034
G1 X143.386 Y92.240 E0.06034
G1 X143.617 Y93.715 E0.04620
G1 X143.687 Y94.167 E0.01413
G1 X143.902 Y96.105 E0.06034
G1 X144.032 Y98.050 E0.06034
G1 X144.075 Y100.000 E0.06034
G1 X144.032 Y101.950 E0.06034
G1 X143.902 Y103.895 E0.06034
G1 X143.687 Y105.833 E0.06034
G1 X143.386 Y107.760 E0.06034
G1 X143.001 Y109.672 E0.06034
G1 X142.531 Y111.564 E0.06034
G1 X141.978 Y113.434 E0.06034
G1 X141.491 Y114.846 E0.04620
G1 X141.342 Y115.278 E0.01413
G1 X140.626 Y117.092 E0.06034
G1 X139.830 Y118.872 E0.06034
G1 X138.956 Y120.615 E0.06034
G1 X138.006 Y122.318 E0.06034
G1 X136.982 Y123.978 E0.06034
G1 X135.885 Y125.590 E0.06034
G1 X134.718 Y127.152 E0.06034
