; generated by Slic3r 1.0.1-dev on 2014-02-02 at 15:28:23

; perimeters extrusion width = 0.35mm
; infill extrusion width = 0.39mm
; solid infill extrusion width = 0.39mm
; top infill extrusion width = 0.39mm

G21 ; set units to millimeters
M107
M190 S115 ; wait for bed temperature to be reached
M104 S233 ; set temperature
G28 ; home all axes
G1 Z5 F5000 ; lift nozzle
M117 ..... Printing .....
M109 S233 ; wait for temperature to be reached
G90 ; use absolute coordinates
G92 E0
M82 ; use absolute distances for extrusion
G1 F1800.000 E-1.00000
G92 E0
G1 Z0.350 F7800.000
G1 X64.235 Y63.225 F7800.000
G1 E1.00000 F1800.000
G1 X65.896 Y61.679 E1.07022 F540
G1 X67.625 Y60.208 E1.14045
G1 X69.417 Y58.815 E1.21068
G1 X71.268 Y57.503 E1.28090
G1 X73.176 Y56.273 E1.35113
G1 X75.137 Y55.129 E1.42136
G1 X77.146 Y54.074 E1.49158
G1 X79.200 Y53.108 E1.56181
G1 X81.294 Y52.234 E1.63203
G1 X83.426 Y51.453 E1.70226
G1 X85.589 Y50.767 E1.77248
G1 X87.781 Y50.178 E1.84271
G1 X89.997 Y49.686 E1.91294
G1 X92.232 Y49.293 E1.98316
G1 X94.483 Y48.999 E2.05339
G1 X96.744 Y48.805 E2.12361
G1 X99.012 Y48.711 E2.19384
G1 X101.281 Y48.718 E2.26407
G1 X103.548 Y48.824 E2.33429
G1 X105.809 Y49.031 E2.40452
G1 X108.057 Y49.338 E2.47474
G1 X110.291 Y49.744 E2.54498
G1 X112.504 Y50.249 E2.61520
G1 X114.692 Y50.850 E2.68543
G1 X116.852 Y51.548 E2.75565
G1 X118.978 Y52.341 E2.82588
G1 X121.068 Y53.227 E2.89610
G1 X123.116 Y54.205 E2.96633
G1 X125.119 Y55.272 E3.03656
G1 X127.073 Y56.427 E3.10679
G1 X128.974 Y57.667 E3.17701
G1 X130.818 Y58.990 E3.24724
G1 X132.602 Y60.394 E3.31747
G1 X134.322 Y61.874 E3.38768
G1 X135.975 Y63.430 E3.45791
G1 X137.557 Y65.057 E3.52814
G1 X139.066 Y66.753 E3.59837
G1 X140.498 Y68.513 E3.66860
G1 X141.851 Y70.335 E3.73882
G1 X143.123 Y72.216 E3.80904
G1 X144.309 Y74.150 E3.87927
G1 X145.410 Y76.136 E3.94950
G1 X146.421 Y78.168 E4.01973
G1 X147.341 Y80.242 E4.08995
G1 X148.169 Y82.356 E4.16018
G1 X148.902 Y84.504 E4.23040
G1 X149.539 Y86.682 E4.30062
G1 X150.080 Y88.886 E4.37086
G1 X150.523 Y91.112 E4.44108
G1 X150.866 Y93.356 E4.51130
G1 X151.111 Y95.612 E4.58154
G1 X151.255 Y97.877 E4.65176
G1 X151.298 Y100.147 E4.72199
G1 X151.242 Y102.415 E4.79221
G1 X151.085 Y104.680 E4.86244
G1 X150.828 Y106.935 E4.93267
G1 X150.471 Y109.176 E5.00289
G1 X150.016 Y111.400 E5.07312
G1 X149.463 Y113.601 E5.14334
G1 X148.813 Y115.776 E5.21357
G1 X148.067 Y117.919 E5.28380
G1 X147.227 Y120.028 E5.35402
G1 X146.295 Y122.097 E5.42425
G1 X145.272 Y124.123 E5.49447
G1 X144.161 Y126.103 E5.56471
G1 X142.963 Y128.030 E5.63493
G1 X141.681 Y129.903 E5.70515
G1 X140.318 Y131.718 E5.77538
G1 X138.875 Y133.470 E5.84561
G1 X137.357 Y135.157 E5.91583
G1 X135.765 Y136.775 E5.98606
G1 X134.104 Y138.321 E6.05628
G1 X132.375 Y139.792 E6.12651
G1 X130.583 Y141.185 E6.19674
G1 X128.732 Y142.497 E6.26696
G1 X126.824 Y143.727 E6.33719
G1 X124.863 Y144.871 E6.40742
G1 X122.854 Y145.926 E6.47764
G1 X120.800 Y146.892 E6.54787
G1 X118.706 Y147.766 E6.61810
G1 X116.574 Y148.547 E6.68832
G1 X114.411 Y149.233 E6.75855
G1 X112.219 Y149.822 E6.82877
G1 X110.003 Y150.314 E6.89900
G1 X107.768 Y150.707 E6.96922
G1 X105.517 Y151.001 E7.03945
G1 X103.256 Y151.195 E7.10968
G1 X100.988 Y151.289 E7.17990
G1 X98.719 Y151.282 E7.25013
G1 X96.452 Y151.176 E7.32035
G1 X94.191 Y150.969 E7.39059
G1 X91.943 Y150.662 E7.46080
G1 X89.709 Y150.256 E7.53104
G1 X87.496 Y149.751 E7.60126
G1 X85.308 Y149.150 E7.67149
G1 X83.148 Y148.452 E7.74171
G1 X81.022 Y147.659 E7.81194
G1 X78.932 Y146.773 E7.88216
G1 X76.884 Y145.795 E7.95239
G1 X74.881 Y144.728 E8.02262
G1 X72.927 Y143.573 E8.09285
G1 X71.026 Y142.333 E8.16307
G1 X69.182 Y141.010 E8.23330
G1 X67.398 Y139.606 E8.30353
G1 X65.678 Y138.125 E8.37374
G1 X64.025 Y136.570 E8.44398
G1 X62.443 Y134.943 E8.51420
G1 X60.934 Y133.247 E8.58443
G1 X59.502 Y131.487 E8.65466
G1 X58.149 Y129.665 E8.72488
G1 X56.877 Y127.784 E8.79510
G1 X55.691 Y125.850 E8.86533
G1 X54.590 Y123.864 E8.93556
G1 X53.579 Y121.832 E9.00579
G1 X52.659 Y119.758 E9.07601
G1 X51.831 Y117.644 E9.14624
G1 X51.098 Y115.496 E9.21647
G1 X50.461 Y113.318 E9.28668
G1 X49.920 Y111.114 E9.35692
G1 X49.477 Y108.888 E9.42714
G1 X49.134 Y106.644 E9.49737
G1 X48.889 Y104.388 E9.56760
G1 X48.745 Y102.123 E9.63782
G1 X48.702 Y99.853 E9.70805
G1 X48.758 Y97.585 E9.77827
G1 X48.915 Y95.320 E9.84850
G1 X49.172 Y93.065 E9.91873
G1 X49.529 Y90.824 E9.98895
G1 X49.984 Y88.600 E10.05918
G1 X50.537 Y86.399 E10.12941
G1 X51.187 Y84.224 E10.19963
G1 X51.933 Y82.081 E10.26986
G1 X52.773 Y79.972 E10.34008
G1 X53.705 Y77.903 E10.41031
G1 X54.728 Y75.877 E10.48054
G1 X55.839 Y73.897 E10.55077
G1 X57.037 Y71.970 E10.62099
G1 X58.319 Y70.097 E10.69121
G1 X59.682 Y68.282 E10.76144
G1 X61.125 Y66.530 E10.83167
G1 X62.643 Y64.843 E10.90189
G1 X64.198 Y63.262 E10.97050
G1 F1800.000 E9.97050
G92 E0
G1 X69.880 Y69.206 F7800.000
G1 E1.00000 F1800.000
G1 X71.272 Y67.904 E1.05897 F540
G1 X72.720 Y66.665 E1.11794
G1 X74.221 Y65.491 E1.17691
G1 X75.773 Y64.384 E1.23587
G1 X77.372 Y63.348 E1.29484
G1 X79.015 Y62.382 E1.35381
G1 X80.700 Y61.491 E1.41278
G1 X82.422 Y60.675 E1.47175
G1 X84.179 Y59.936 E1.53072
G1 X85.966 Y59.275 E1.58969
G1 X87.781 Y58.695 E1.64865
G1 X89.620 Y58.194 E1.70762
G1 X91.480 Y57.776 E1.76659
G1 X93.356 Y57.441 E1.82556
G1 X95.245 Y57.188 E1.88453
G1 X97.143 Y57.020 E1.94349
G1 X99.047 Y56.936 E2.00246
G1 X100.953 Y56.936 E2.06143
G1 X102.857 Y57.020 E2.12040
G1 X104.755 Y57.188 E2.17937
G1 X106.644 Y57.441 E2.23834
G1 X108.520 Y57.776 E2.29730
G1 X110.380 Y58.194 E2.35627
G1 X112.219 Y58.695 E2.41524
G1 X114.034 Y59.275 E2.47421
G1 X115.821 Y59.936 E2.53318
G1 X117.578 Y60.675 E2.59215
G1 X119.300 Y61.491 E2.65111
G1 X120.985 Y62.382 E2.71008
G1 X122.628 Y63.348 E2.76905
G1 X124.227 Y64.384 E2.82802
G1 X125.779 Y65.491 E2.88699
G1 X127.280 Y66.665 E2.94595
G1 X128.728 Y67.904 E3.00492
G1 X130.120 Y69.206 E3.06389
G1 X131.452 Y70.569 E3.12286
G1 X132.723 Y71.989 E3.18183
G1 X133.930 Y73.464 E3.24080
G1 X135.071 Y74.991 E3.29976
G1 X136.143 Y76.566 E3.35873
G1 X137.144 Y78.188 E3.41770
G1 X138.073 Y79.852 E3.47667
G1 X138.926 Y81.556 E3.53564
G1 X139.704 Y83.296 E3.59461
G1 X140.404 Y85.069 E3.65358
G1 X141.025 Y86.870 E3.71254
G1 X141.566 Y88.698 E3.77151
G1 X142.025 Y90.548 E3.83048
G1 X142.402 Y92.416 E3.88945
G1 X142.696 Y94.299 E3.94842
G1 X142.906 Y96.193 E4.00738
G1 X143.033 Y98.095 E4.06635
G1 X143.075 Y100.000 E4.12532
G1 X143.033 Y101.905 E4.18429
G1 X142.906 Y103.807 E4.24326
G1 X142.696 Y105.701 E4.30223
G1 X142.402 Y107.584 E4.36119
G1 X142.025 Y109.452 E4.42016
G1 X141.566 Y111.302 E4.47913
G1 X141.025 Y113.130 E4.53810
G1 X140.404 Y114.931 E4.59707
G1 X139.704 Y116.704 E4.65603
G1 X138.926 Y118.444 E4.71500
G1 X138.073 Y120.148 E4.77397
G1 X137.144 Y121.812 E4.83294
G1 X136.143 Y123.434 E4.89191
G1 X135.071 Y125.009 E4.95088
G1 X133.930 Y126.536 E5.00985
G1 X132.723 Y128.011 E5.06881
G1 X131.452 Y129.431 E5.12778
G1 X130.120 Y130.794 E5.18675
G1 X128.728 Y132.096 E5.24572
G1 X127.280 Y133.335 E5.30469
G1 X125.779 Y134.509 E5.36365
G1 X124.227 Y135.616 E5.42262
G1 X122.628 Y136.652 E5.48159
G1 X120.985 Y137.618 E5.54056
G1 X119.300 Y138.509 E5.59953
G1 X117.578 Y139.325 E5.65850
G1 X115.821 Y140.064 E5.71746
G1 X114.034 Y140.725 E5.77643
G1 X112.219 Y141.305 E5.83540
G1 X110.380 Y141.806 E5.89437
G1 X108.520 Y142.224 E5.95334
G1 X106.644 Y142.559 E6.01231
G1 X104.755 Y142.812 E6.07127
G1 X102.857 Y142.980 E6.13024
G1 X100.953 Y143.064 E6.18921
G1 X99.047 Y143.064 E6.24818
G1 X97.143 Y142.980 E6.30715
G1 X95.245 Y142.812 E6.36612
G1 X93.356 Y142.559 E6.42508
G1 X91.480 Y142.224 E6.48405
G1 X89.620 Y141.806 E6.54302
G1 X87.781 Y141.305 E6.60199
G1 X85.966 Y140.725 E6.66096
G1 X84.179 Y140.064 E6.71993
G1 X82.422 Y139.325 E6.77889
G1 X80.700 Y138.509 E6.83786
G1 X79.015 Y137.618 E6.89683
G1 X77.372 Y136.652 E6.95580
G1 X75.773 Y135.616 E7.01477
G1 X74.221 Y134.509 E7.07373
G1 X72.720 Y133.335 E7.13270
G1 X71.272 Y132.096 E7.19167
G1 X69.880 Y130.794 E7.25064
G1 X68.548 Y129.431 E7.30961
G1 X67.277 Y128.011 E7.36858
G1 X66.070 Y126.536 E7.42754
G1 X64.929 Y125.009 E7.48651
G1 X63.857 Y123.434 E7.54548
G1 X62.856 Y121.812 E7.60445
G1 X61.927 Y120.148 E7.66342
G1 X61.074 Y118.444 E7.72239
G1 X60.296 Y116.704 E7.78135
G1 X59.596 Y114.931 E7.84032
G1 X58.975 Y113.130 E7.89929
G1 X58.434 Y111.302 E7.95826
G1 X57.975 Y109.452 E8.01723
G1 X57.598 Y107.584 E8.07619
G1 X57.304 Y105.701 E8.13516
G1 X57.094 Y103.807 E8.19413
G1 X56.967 Y101.905 E8.25310
G1 X56.925 Y100.000 E8.31207
G1 X56.967 Y98.095 E8.37104
G1 X57.094 Y96.193 E8.43000
G1 X57.304 Y94.299 E8.48897
G1 X57.598 Y92.416 E8.54794
G1 X57.975 Y90.548 E8.60691
G1 X58.434 Y88.698 E8.66588
G1 X58.975 Y86.870 E8.72485
G1 X59.596 Y85.069 E8.78381
G1 X60.296 Y83.296 E8.84278
G1 X61.074 Y81.556 E8.90175
G1 X61.927 Y79.852 E8.96072
G1 X62.856 Y78.188 E9.01969
G1 X63.857 Y76.566 E9.07866
G1 X64.929 Y74.991 E9.13762
G1 X66.070 Y73.464 E9.19659
G1 X67.277 Y71.989 E9.25556
G1 X68.548 Y70.569 E9.31453
G1 X69.844 Y69.244 E9.37187
G1 X69.443 Y68.760 F7800.000
G1 X70.855 Y67.439 E9.43170 F540
G1 X72.324 Y66.181 E9.49152
G1 X73.847 Y64.990 E9.55134
G1 X75.421 Y63.868 E9.61117
G1 X77.043 Y62.816 E9.67099
G1 X78.711 Y61.837 E9.73082
G1 X80.420 Y60.932 E9.79064
G1 X82.167 Y60.104 E9.85046
G1 X83.949 Y59.355 E9.91029
G1 X85.763 Y58.684 E9.97011
G1 X87.604 Y58.095 E10.02994
G1 X89.470 Y57.588 E10.08976
G1 X91.356 Y57.164 E10.14958
G1 X93.259 Y56.823 E10.20941
G1 X95.176 Y56.567 E10.26923
G1 X97.102 Y56.396 E10.32906
G1 X99.033 Y56.311 E10.38888
G1 X100.967 Y56.311 E10.44870
G1 X102.898 Y56.396 E10.50853
G1 X104.824 Y56.567 E10.56835
G1 X106.741 Y56.823 E10.62818
G1 X108.644 Y57.164 E10.68800
G1 X110.530 Y57.588 E10.74782
G1 X112.396 Y58.095 E10.80765
G1 X114.237 Y58.684 E10.86747
G1 X116.051 Y59.355 E10.92730
G1 X117.833 Y60.104 E10.98712
G1 X119.580 Y60.932 E11.04694
G1 X121.289 Y61.837 E11.10677
G1 X122.957 Y62.816 E11.16659
G1 X124.579 Y63.868 E11.22641
G1 X126.153 Y64.990 E11.28624
G1 X127.676 Y66.181 E11.34606
G1 X129.145 Y67.439 E11.40589
G1 X130.557 Y68.760 E11.46571
G1 X131.909 Y70.142 E11.52553
G1 X133.198 Y71.582 E11.58536
G1 X134.423 Y73.079 E11.64518
G1 X135.580 Y74.628 E11.70501
G1 X136.667 Y76.226 E11.76483
G1 X137.683 Y77.872 E11.82465
G1 X138.625 Y79.560 E11.88448
G1 X139.491 Y81.289 E11.94430
G1 X140.280 Y83.054 E12.00413
G1 X140.990 Y84.852 E12.06395
G1 X141.620 Y86.680 E12.12377
G1 X142.169 Y88.534 E12.18360
G1 X142.635 Y90.411 E12.24342
G1 X143.017 Y92.306 E12.30325
G1 X143.315 Y94.216 E12.36307
G1 X143.529 Y96.138 E12.42289
G1 X143.657 Y98.067 E12.48272
G1 X143.700 Y100.000 E12.54254
G1 X143.657 Y101.933 E12.60237
G1 X143.529 Y103.862 E12.66219
G1 X143.315 Y105.784 E12.72201
G1 X143.017 Y107.694 E12.78184
G1 X142.635 Y109.589 E12.84166
G1 X142.169 Y111.466 E12.90149
G1 X141.620 Y113.320 E12.96131
G1 X140.990 Y115.148 E13.02113
G1 X140.280 Y116.946 E13.08096
G1 X139.491 Y118.711 E13.14078
G1 X138.625 Y120.440 E13.20060
G1 X137.683 Y122.128 E13.26043
G1 X136.667 Y123.774 E13.32025
G1 X135.580 Y125.372 E13.38008
G1 X134.423 Y126.921 E13.43990
G1 X133.198 Y128.418 E13.49973
G1 X131.909 Y129.858 E13.55955
G1 X130.557 Y131.240 E13.61937
G1 X129.145 Y132.561 E13.67920
G1 X127.676 Y133.819 E13.73902
G1 X126.153 Y135.010 E13.79884
G1 X124.579 Y136.132 E13.85867
G1 X122.957 Y137.184 E13.91849
G1 X121.289 Y138.163 E13.97832
G1 X119.580 Y139.068 E14.03814
G1 X117.833 Y139.896 E14.09796
G1 X116.051 Y140.645 E14.15779
G1 X114.237 Y141.316 E14.21761
G1 X112.396 Y141.905 E14.27744
G1 X110.530 Y142.412 E14.33726
G1 X108.644 Y142.836 E14.39708
G1 X106.741 Y143.177 E14.45691
G1 X104.824 Y143.433 E14.51673
G1 X102.898 Y143.604 E14.57656
G1 X100.967 Y143.689 E14.63638
G1 X99.033 Y143.689 E14.69620
G1 X97.102 Y143.604 E14.75603
G1 X95.176 Y143.433 E14.81585
G1 X93.259 Y143.177 E14.87568
G1 X91.356 Y142.836 E14.93550
G1 X89.470 Y142.412 E14.99532
G1 X87.604 Y141.905 E15.05515
G1 X85.763 Y141.316 E15.11497
G1 X83.949 Y140.645 E15.17479
G1 X82.167 Y139.896 E15.23462
G1 X80.420 Y139.068 E15.29444
G1 X78.711 Y138.163 E15.35427
G1 X77.043 Y137.184 E15.41409
G1 X75.421 Y136.132 E15.47391
G1 X73.847 Y135.010 E15.53374
G1 X72.324 Y133.819 E15.59356
G1 X70.855 Y132.561 E15.65339
G1 X69.443 Y131.240 E15.71321
G1 X68.091 Y129.858 E15.77303
G1 X66.802 Y128.418 E15.83286
G1 X65.577 Y126.921 E15.89268
G1 X64.420 Y125.372 E15.95251
G1 X63.333 Y123.774 E16.01233
G1 X62.317 Y122.128 E16.07215
G1 X61.375 Y120.440 E16.13198
G1 X60.509 Y118.711 E16.19180
G1 X59.720 Y116.946 E16.25163
G1 X59.010 Y115.148 E16.31145
G1 X58.380 Y113.320 E16.37127
G1 X57.831 Y111.466 E16.43110
G1 X57.365 Y109.589 E16.49092
G1 X56.983 Y107.694 E16.55075
G1 X56.685 Y105.784 E16.61057
G1 X56.471 Y103.862 E16.67039
G1 X56.343 Y101.933 E16.73022
G1 X56.300 Y100.000 E16.79004
G1 X56.343 Y98.067 E16.84987
G1 X56.471 Y96.138 E16.90969
G1 X56.685 Y94.216 E16.96951
G1 X56.983 Y92.306 E17.02934
G1 X57.365 Y90.411 E17.08916
G1 X57.831 Y88.534 E17.14899
G1 X58.380 Y86.680 E17.20881
G1 X59.010 Y84.852 E17.26863
G1 X59.720 Y83.054 E17.32846
G1 X60.509 Y81.289 E17.38828
G1 X61.375 Y79.560 E17.44810
G1 X62.317 Y77.872 E17.50793
G1 X63.333 Y76.226 E17.56775
G1 X64.420 Y74.628 E17.62758
G1 X65.577 Y73.079 E17.68740
G1 X66.802 Y71.582 E17.74722
G1 X68.091 Y70.142 E17.80705
G1 X69.406 Y68.797 E17.86525
G1 X69.006 Y68.313 F7800.000
G1 X70.438 Y66.973 E17.92593 F378
G1 X71.928 Y65.698 E17.98661
G1 X73.473 Y64.489 E18.04729
G1 X75.069 Y63.351 E18.10797
G1 X76.715 Y62.284 E18.16865
G1 X78.406 Y61.291 E18.22933
G1 X80.139 Y60.374 E18.29000
G1 X81.912 Y59.534 E18.35068
G1 X83.719 Y58.773 E18.41136
G1 X85.559 Y58.094 E18.47204
G1 X87.427 Y57.496 E18.53272
G1 X89.319 Y56.981 E18.59340
G1 X91.232 Y56.551 E18.65408
G1 X93.163 Y56.206 E18.71476
G1 X95.107 Y55.946 E18.77544
G1 X97.060 Y55.773 E18.83612
G1 X99.019 Y55.686 E18.89680
G1 X100.981 Y55.686 E18.95748
G1 X102.940 Y55.773 E19.01816
G1 X104.893 Y55.946 E19.07884
G1 X106.837 Y56.206 E19.13952
G1 X108.768 Y56.551 E19.20020
G1 X110.681 Y56.981 E19.26088
G1 X112.573 Y57.496 E19.32156
G1 X114.441 Y58.094 E19.38224
G1 X116.281 Y58.773 E19.44292
G1 X118.088 Y59.534 E19.50360
G1 X119.861 Y60.374 E19.56428
G1 X121.594 Y61.291 E19.62496
G1 X123.285 Y62.284 E19.68564
G1 X124.931 Y63.351 E19.74632
G1 X126.527 Y64.489 E19.80699
G1 X128.072 Y65.698 E19.86767
G1 X129.562 Y66.973 E19.92835
G1 X130.994 Y68.313 E19.98903
G1 X132.365 Y69.715 E20.04971
G1 X133.673 Y71.176 E20.11039
G1 X134.915 Y72.694 E20.17107
G1 X136.089 Y74.265 E20.23175
G1 X137.192 Y75.886 E20.29243
G1 X138.222 Y77.555 E20.35311
G1 X139.177 Y79.268 E20.41379
G1 X140.056 Y81.021 E20.47447
G1 X140.856 Y82.811 E20.53515
G1 X141.577 Y84.635 E20.59583
G1 X142.216 Y86.489 E20.65651
G1 X142.772 Y88.370 E20.71719
G1 X143.245 Y90.273 E20.77787
G1 X143.632 Y92.196 E20.83855
G1 X143.935 Y94.133 E20.89923
G1 X144.151 Y96.083 E20.95991
G1 X144.282 Y98.039 E21.02059
G1 X144.325 Y100.000 E21.08127
G1 X144.282 Y101.961 E21.14195
G1 X144.151 Y103.917 E21.20263
G1 X143.935 Y105.867 E21.26331
G1 X143.632 Y107.804 E21.32399
G1 X143.245 Y109.727 E21.38466
G1 X142.772 Y111.630 E21.44535
G1 X142.216 Y113.511 E21.50603
G1 X141.577 Y115.365 E21.56670
G1 X140.856 Y117.189 E21.62738
G1 X140.056 Y118.979 E21.68806
G1 X139.177 Y120.732 E21.74874
G1 X138.222 Y122.445 E21.80942
G1 X137.192 Y124.114 E21.87010
G1 X136.089 Y125.735 E21.93078
G1 X134.915 Y127.306 E21.99146
G1 X133.673 Y128.824 E22.05214
G1 X132.365 Y130.285 E22.11282
G1 X130.994 Y131.687 E22.17350
G1 X129.562 Y133.027 E22.23418
G1 X128.072 Y134.302 E22.29486
G1 X126.527 Y135.511 E22.35554
G1 X124.931 Y136.649 E22.41622
G1 X123.285 Y137.716 E22.47690
G1 X121.594 Y138.709 E22.53758
G1 X119.861 Y139.626 E22.59826
G1 X118.088 Y140.466 E22.65894
G1 X116.281 Y141.227 E22.71962
G1 X114.441 Y141.906 E22.78030
G1 X112.573 Y142.504 E22.84098
G1 X110.681 Y143.019 E22.90165
G1 X108.768 Y143.449 E22.96233
G1 X106.837 Y143.794 E23.02301
G1 X104.893 Y144.054 E23.08369
G1 X102.940 Y144.227 E23.14437
G1 X100.981 Y144.314 E23.20505
G1 X99.019 Y144.314 E23.26573
