; generated by Slic3r 1.0.1-dev on 2014-02-05 at 22:53:23

; Joe Racette  2014

; perimeters extrusion width = 0.35mm
; infill extrusion width = 0.39mm
; solid infill extrusion width = 0.39mm
; top infill extrusion width = 0.39mm

G21 ; set units to millimeters
M107
M190 S115 ; wait for bed temperature to be reached
M104 S233 ; set temperature
G28 ; home all axes
G1 Z5 F5000 ; lift nozzle
M117 ..... Printing .....
M109 S233 ; wait for temperature to be reached
G90 ; use absolute coordinates
G92 E0
M82 ; use absolute distances for extrusion
G1 F1800.000 E-1.00000
G92 E0
G1 Z0.350 F7800.000
G1 X64.410 Y63.404 F7800.000
G1 E1.00000 F1800.000
G1 X66.063 Y61.865 E1.06989 F540
G1 X67.783 Y60.402 E1.13977
G1 X69.566 Y59.015 E1.20966
G1 X71.409 Y57.709 E1.27954
G1 X73.308 Y56.486 E1.34942
G1 X75.259 Y55.348 E1.41931
G1 X77.258 Y54.297 E1.48919
G1 X79.302 Y53.336 E1.55908
G1 X81.386 Y52.466 E1.62895
G1 X83.507 Y51.689 E1.69885
G1 X85.660 Y51.007 E1.76873
G1 X87.841 Y50.421 E1.83861
G1 X90.046 Y49.931 E1.90850
G1 X92.271 Y49.540 E1.97838
G1 X94.510 Y49.248 E2.04826
G1 X96.006 Y49.115 E2.09471
G1 X96.761 Y49.054 E2.11815
G1 X99.017 Y48.961 E2.18803
G1 X101.276 Y48.967 E2.25792
G1 X103.532 Y49.074 E2.32780
G1 X105.781 Y49.280 E2.39768
G1 X107.269 Y49.479 E2.44414
G1 X108.019 Y49.585 E2.46757
G1 X110.241 Y49.989 E2.53745
G1 X112.443 Y50.491 E2.60734
G1 X114.621 Y51.090 E2.67721
G1 X116.770 Y51.785 E2.74711
G1 X118.886 Y52.574 E2.81699
G1 X120.966 Y53.456 E2.88687
G1 X123.004 Y54.428 E2.95676
G1 X124.997 Y55.491 E3.02664
G1 X126.942 Y56.640 E3.09652
G1 X128.833 Y57.874 E3.16641
G1 X130.668 Y59.191 E3.23629
G1 X132.443 Y60.587 E3.30618
G1 X134.155 Y62.061 E3.37606
G1 X135.800 Y63.609 E3.44594
G1 X137.374 Y65.228 E3.51583
G1 X138.876 Y66.915 E3.58571
G1 X140.301 Y68.667 E3.65560
G1 X141.648 Y70.481 E3.72549
G1 X142.913 Y72.352 E3.79536
G1 X144.094 Y74.277 E3.86525
G1 X145.189 Y76.253 E3.93513
G1 X146.195 Y78.274 E4.00501
G1 X147.111 Y80.339 E4.07490
G1 X147.934 Y82.442 E4.14479
G1 X148.664 Y84.580 E4.21467
G1 X149.298 Y86.747 E4.28455
G1 X149.836 Y88.941 E4.35444
G1 X150.277 Y91.156 E4.42432
G1 X150.619 Y93.389 E4.49421
G1 X150.861 Y95.634 E4.56408
G1 X151.005 Y97.888 E4.63397
G1 X151.048 Y100.147 E4.70385
G1 X150.992 Y102.405 E4.77375
G1 X150.836 Y104.658 E4.84362
G1 X150.580 Y106.902 E4.91351
G1 X150.225 Y109.132 E4.98339
G1 X149.772 Y111.345 E5.05328
G1 X149.221 Y113.535 E5.12316
G1 X148.574 Y115.699 E5.19305
G1 X147.832 Y117.833 E5.26293
G1 X146.997 Y119.931 E5.33281
G1 X146.069 Y121.990 E5.40270
G1 X145.051 Y124.006 E5.47258
G1 X143.945 Y125.976 E5.54247
G1 X142.754 Y127.894 E5.61234
G1 X141.478 Y129.758 E5.68223
G1 X140.121 Y131.564 E5.75212
G1 X138.685 Y133.308 E5.82200
G1 X137.174 Y134.986 E5.89189
G1 X135.590 Y136.596 E5.96176
G1 X133.937 Y138.135 E6.03165
G1 X132.217 Y139.598 E6.10154
G1 X130.434 Y140.985 E6.17142
G1 X128.591 Y142.291 E6.24130
G1 X126.692 Y143.514 E6.31118
G1 X124.741 Y144.652 E6.38107
G1 X122.742 Y145.703 E6.45096
G1 X120.698 Y146.664 E6.52084
G1 X118.614 Y147.534 E6.59072
G1 X116.493 Y148.311 E6.66061
G1 X114.340 Y148.993 E6.73049
G1 X112.159 Y149.579 E6.80038
G1 X109.954 Y150.069 E6.87026
G1 X107.729 Y150.460 E6.94014
G1 X105.490 Y150.752 E7.01002
G1 X103.239 Y150.946 E7.07991
G1 X100.983 Y151.039 E7.14980
G1 X98.724 Y151.033 E7.21968
G1 X96.468 Y150.926 E7.28957
G1 X94.219 Y150.720 E7.35944
G1 X92.731 Y150.521 E7.40590
G1 X91.981 Y150.415 E7.42933
G1 X89.759 Y150.011 E7.49922
G1 X87.557 Y149.509 E7.56910
G1 X85.379 Y148.910 E7.63898
G1 X83.230 Y148.215 E7.70887
G1 X81.114 Y147.426 E7.77875
G1 X79.034 Y146.544 E7.84864
G1 X76.996 Y145.572 E7.91852
G1 X75.003 Y144.509 E7.98841
G1 X73.058 Y143.360 E8.05829
G1 X71.167 Y142.126 E8.12817
G1 X69.332 Y140.809 E8.19806
G1 X67.557 Y139.413 E8.26794
G1 X65.845 Y137.939 E8.33783
G1 X64.200 Y136.391 E8.40771
G1 X62.626 Y134.772 E8.47759
G1 X61.124 Y133.085 E8.54748
G1 X59.699 Y131.333 E8.61736
G1 X58.352 Y129.519 E8.68725
G1 X57.087 Y127.648 E8.75712
G1 X55.906 Y125.723 E8.82701
G1 X54.811 Y123.747 E8.89690
G1 X53.805 Y121.726 E8.96678
G1 X52.889 Y119.661 E9.03667
G1 X52.066 Y117.558 E9.10655
G1 X51.336 Y115.420 E9.17643
G1 X50.702 Y113.253 E9.24631
G1 X50.164 Y111.059 E9.31621
G1 X49.723 Y108.844 E9.38608
G1 X49.381 Y106.611 E9.45597
G1 X49.139 Y104.366 E9.52585
G1 X48.995 Y102.112 E9.59574
G1 X48.952 Y99.854 E9.66562
G1 X49.008 Y97.595 E9.73551
G1 X49.164 Y95.342 E9.80539
G1 X49.420 Y93.098 E9.87527
G1 X49.775 Y90.868 E9.94515
G1 X50.228 Y88.655 E10.01504
G1 X50.779 Y86.465 E10.08493
G1 X51.426 Y84.301 E10.15481
G1 X52.168 Y82.167 E10.22469
G1 X53.003 Y80.069 E10.29458
G1 X53.931 Y78.010 E10.36446
G1 X54.949 Y75.994 E10.43434
G1 X56.055 Y74.024 E10.50423
G1 X57.246 Y72.106 E10.57411
G1 X58.522 Y70.242 E10.64399
G1 X59.879 Y68.436 E10.71388
G1 X61.315 Y66.692 E10.78377
G1 X62.826 Y65.014 E10.85365
G1 X64.373 Y63.441 E10.92190
G1 F1800.000 E9.92190
G92 E0
G1 X70.055 Y69.385 F7800.000
G1 E1.00000 F1800.000
G1 X71.439 Y68.091 E1.05863 F540
G1 X72.878 Y66.858 E1.11725
G1 X74.371 Y65.691 E1.17588
G1 X75.913 Y64.591 E1.23450
G1 X77.503 Y63.560 E1.29313
G1 X79.137 Y62.601 E1.35176
G1 X80.812 Y61.715 E1.41038
G1 X82.524 Y60.903 E1.46901
G1 X84.270 Y60.169 E1.52763
G1 X86.048 Y59.512 E1.58626
G1 X87.852 Y58.934 E1.64489
G1 X89.681 Y58.437 E1.70351
G1 X91.529 Y58.021 E1.76214
G1 X93.394 Y57.688 E1.82076
G1 X95.272 Y57.437 E1.87939
G1 X96.732 Y57.307 E1.92474
G1 X97.160 Y57.269 E1.93801
G1 X99.053 Y57.186 E1.99664
G1 X100.947 Y57.186 E2.05527
G1 X102.840 Y57.269 E2.11389
G1 X104.728 Y57.437 E2.17252
G1 X106.180 Y57.631 E2.21787
G1 X106.606 Y57.688 E2.23114
G1 X108.471 Y58.021 E2.28977
G1 X110.319 Y58.437 E2.34840
G1 X112.148 Y58.934 E2.40702
G1 X113.952 Y59.512 E2.46565
G1 X115.730 Y60.169 E2.52428
G1 X117.476 Y60.903 E2.58290
G1 X119.188 Y61.715 E2.64153
G1 X120.863 Y62.601 E2.70015
G1 X122.497 Y63.560 E2.75878
G1 X124.087 Y64.591 E2.81741
G1 X125.630 Y65.691 E2.87603
G1 X127.122 Y66.858 E2.93466
G1 X128.561 Y68.091 E2.99328
G1 X129.945 Y69.385 E3.05191
G1 X131.270 Y70.740 E3.11054
G1 X132.534 Y72.151 E3.16916
G1 X133.733 Y73.618 E3.22779
G1 X134.867 Y75.136 E3.28641
G1 X135.933 Y76.702 E3.34504
G1 X136.928 Y78.315 E3.40367
G1 X137.852 Y79.969 E3.46229
G1 X138.700 Y81.663 E3.52092
G1 X139.474 Y83.393 E3.57955
G1 X140.170 Y85.155 E3.63817
G1 X140.787 Y86.947 E3.69680
G1 X141.324 Y88.764 E3.75542
G1 X141.781 Y90.603 E3.81405
G1 X142.156 Y92.460 E3.87267
G1 X142.448 Y94.332 E3.93130
G1 X142.657 Y96.215 E3.98993
G1 X142.783 Y98.106 E4.04855
G1 X142.825 Y100.000 E4.10718
G1 X142.783 Y101.894 E4.16580
G1 X142.657 Y103.785 E4.22443
G1 X142.448 Y105.668 E4.28306
G1 X142.156 Y107.540 E4.34168
G1 X141.781 Y109.397 E4.40031
G1 X141.324 Y111.236 E4.45894
G1 X140.787 Y113.053 E4.51756
G1 X140.170 Y114.845 E4.57619
G1 X139.474 Y116.607 E4.63481
G1 X138.700 Y118.337 E4.69344
G1 X137.852 Y120.031 E4.75206
G1 X136.928 Y121.685 E4.81069
G1 X135.933 Y123.298 E4.86932
G1 X134.867 Y124.864 E4.92794
G1 X133.733 Y126.382 E4.98657
G1 X132.534 Y127.849 E5.04520
G1 X131.270 Y129.260 E5.10382
G1 X129.945 Y130.615 E5.16245
G1 X128.561 Y131.909 E5.22107
G1 X127.122 Y133.142 E5.27970
G1 X125.629 Y134.309 E5.33833
G1 X124.087 Y135.409 E5.39695
G1 X122.497 Y136.440 E5.45558
G1 X120.863 Y137.399 E5.51420
G1 X119.188 Y138.285 E5.57283
G1 X117.476 Y139.097 E5.63146
G1 X115.730 Y139.831 E5.69008
G1 X113.952 Y140.488 E5.74871
G1 X112.148 Y141.066 E5.80734
G1 X110.319 Y141.563 E5.86596
G1 X108.471 Y141.979 E5.92459
G1 X106.606 Y142.312 E5.98321
G1 X104.728 Y142.563 E6.04184
G1 X103.268 Y142.693 E6.08719
G1 X102.840 Y142.731 E6.10046
G1 X100.947 Y142.814 E6.15909
G1 X99.053 Y142.814 E6.21772
G1 X97.160 Y142.731 E6.27634
G1 X95.272 Y142.563 E6.33497
G1 X93.820 Y142.369 E6.38031
G1 X93.394 Y142.312 E6.39359
G1 X91.529 Y141.979 E6.45222
G1 X89.681 Y141.563 E6.51085
G1 X87.852 Y141.066 E6.56947
G1 X86.048 Y140.488 E6.62810
G1 X84.270 Y139.831 E6.68673
G1 X82.524 Y139.097 E6.74535
G1 X80.812 Y138.285 E6.80398
G1 X79.137 Y137.399 E6.86260
G1 X77.503 Y136.440 E6.92123
G1 X75.913 Y135.409 E6.97986
G1 X74.370 Y134.309 E7.03848
G1 X72.878 Y133.142 E7.09711
G1 X71.439 Y131.909 E7.15573
G1 X70.055 Y130.615 E7.21436
G1 X68.730 Y129.260 E7.27299
G1 X67.466 Y127.849 E7.33161
G1 X66.267 Y126.382 E7.39024
G1 X65.133 Y124.864 E7.44886
G1 X64.067 Y123.298 E7.50749
G1 X63.072 Y121.685 E7.56612
G1 X62.148 Y120.031 E7.62474
G1 X61.300 Y118.337 E7.68337
G1 X60.526 Y116.607 E7.74199
G1 X59.830 Y114.845 E7.80062
G1 X59.213 Y113.053 E7.85924
G1 X58.676 Y111.236 E7.91787
G1 X58.219 Y109.397 E7.97650
G1 X57.844 Y107.540 E8.03512
G1 X57.552 Y105.668 E8.09375
G1 X57.343 Y103.785 E8.15238
G1 X57.217 Y101.894 E8.21100
G1 X57.175 Y100.000 E8.26963
G1 X57.217 Y98.106 E8.32825
G1 X57.343 Y96.215 E8.38688
G1 X57.552 Y94.332 E8.44551
G1 X57.844 Y92.460 E8.50413
G1 X58.219 Y90.603 E8.56276
G1 X58.676 Y88.764 E8.62138
G1 X59.213 Y86.947 E8.68001
G1 X59.830 Y85.155 E8.73864
G1 X60.526 Y83.393 E8.79726
G1 X61.300 Y81.663 E8.85589
G1 X62.148 Y79.969 E8.91451
G1 X63.072 Y78.315 E8.97314
G1 X64.067 Y76.702 E9.03177
G1 X65.133 Y75.136 E9.09039
G1 X66.267 Y73.618 E9.14902
G1 X67.466 Y72.151 E9.20764
G1 X68.730 Y70.740 E9.26627
G1 X70.018 Y69.423 E9.32327
G1 X130.382 Y68.938 F7800.000
G1 X131.726 Y70.313 E9.38276 F540
G1 X133.008 Y71.745 E9.44224
G1 X134.226 Y73.233 E9.50172
G1 X135.376 Y74.773 E9.56120
G1 X136.458 Y76.362 E9.62068
G1 X137.467 Y77.998 E9.68016
G1 X138.404 Y79.677 E9.73965
G1 X139.265 Y81.396 E9.79913
G1 X140.050 Y83.151 E9.85861
G1 X140.756 Y84.939 E9.91809
G1 X141.382 Y86.756 E9.97757
G1 X141.928 Y88.600 E10.03705
G1 X142.391 Y90.465 E10.09654
G1 X142.771 Y92.350 E10.15602
G1 X143.068 Y94.249 E10.21550
G1 X143.280 Y96.160 E10.27498
G1 X143.407 Y98.078 E10.33446
G1 X143.450 Y100.000 E10.39394
G1 X143.407 Y101.922 E10.45343
G1 X143.280 Y103.840 E10.51291
G1 X143.068 Y105.751 E10.57239
G1 X142.771 Y107.650 E10.63187
G1 X142.391 Y109.535 E10.69135
G1 X141.928 Y111.400 E10.75084
G1 X141.382 Y113.244 E10.81032
G1 X140.756 Y115.061 E10.86980
G1 X140.050 Y116.849 E10.92928
G1 X139.265 Y118.604 E10.98876
G1 X138.404 Y120.323 E11.04824
G1 X137.467 Y122.002 E11.10773
G1 X136.458 Y123.638 E11.16721
G1 X135.376 Y125.227 E11.22669
G1 X134.226 Y126.767 E11.28617
G1 X133.008 Y128.255 E11.34565
G1 X131.726 Y129.687 E11.40513
G1 X130.382 Y131.062 E11.46462
G1 X128.978 Y132.375 E11.52410
G1 X127.518 Y133.625 E11.58358
G1 X126.004 Y134.810 E11.64306
G1 X124.799 Y135.669 E11.68883
G1 X124.438 Y135.926 E11.70254
G1 X122.825 Y136.972 E11.76203
G1 X121.168 Y137.945 E11.82151
G1 X119.468 Y138.844 E11.88099
G1 X117.731 Y139.667 E11.94047
G1 X115.959 Y140.413 E11.99995
G1 X114.156 Y141.079 E12.05943
G1 X112.325 Y141.665 E12.11891
G1 X110.470 Y142.170 E12.17840
G1 X108.594 Y142.591 E12.23788
G1 X106.702 Y142.930 E12.29736
G1 X104.797 Y143.184 E12.35684
G1 X103.323 Y143.315 E12.40262
G1 X102.882 Y143.354 E12.41632
G1 X100.961 Y143.439 E12.47580
G1 X99.039 Y143.439 E12.53529
G1 X97.118 Y143.354 E12.59477
G1 X95.203 Y143.184 E12.65425
G1 X93.298 Y142.930 E12.71373
G1 X91.406 Y142.591 E12.77321
G1 X89.530 Y142.170 E12.83269
G1 X87.675 Y141.665 E12.89218
G1 X85.844 Y141.079 E12.95166
G1 X84.041 Y140.413 E13.01114
G1 X82.269 Y139.667 E13.07062
G1 X80.532 Y138.844 E13.13010
G1 X78.832 Y137.945 E13.18958
G1 X77.175 Y136.972 E13.24906
G1 X75.562 Y135.926 E13.30855
G1 X73.996 Y134.810 E13.36803
G1 X72.482 Y133.625 E13.42751
G1 X71.022 Y132.375 E13.48699
G1 X69.618 Y131.062 E13.54647
G1 X68.274 Y129.687 E13.60596
G1 X66.992 Y128.255 E13.66544
G1 X65.774 Y126.767 E13.72492
G1 X64.624 Y125.227 E13.78440
G1 X63.542 Y123.638 E13.84388
G1 X62.533 Y122.002 E13.90337
G1 X61.596 Y120.323 E13.96285
G1 X60.735 Y118.604 E14.02233
G1 X59.950 Y116.849 E14.08181
G1 X59.244 Y115.061 E14.14129
G1 X58.618 Y113.244 E14.20077
G1 X58.072 Y111.400 E14.26025
G1 X57.609 Y109.535 E14.31974
G1 X57.229 Y107.650 E14.37922
G1 X56.932 Y105.751 E14.43870
G1 X56.720 Y103.840 E14.49818
G1 X56.593 Y101.922 E14.55766
G1 X56.550 Y100.000 E14.61715
G1 X56.593 Y98.078 E14.67663
G1 X56.720 Y96.160 E14.73611
G1 X56.932 Y94.249 E14.79559
G1 X57.229 Y92.350 E14.85507
G1 X57.609 Y90.465 E14.91455
G1 X58.072 Y88.600 E14.97404
G1 X58.618 Y86.756 E15.03352
G1 X59.244 Y84.939 E15.09300
G1 X59.950 Y83.151 E15.15248
G1 X60.735 Y81.396 E15.21196
G1 X61.596 Y79.677 E15.27144
G1 X62.533 Y77.998 E15.33093
G1 X63.542 Y76.362 E15.39041
G1 X64.624 Y74.773 E15.44989
G1 X65.774 Y73.233 E15.50937
G1 X66.992 Y71.745 E15.56885
G1 X68.274 Y70.313 E15.62833
G1 X69.618 Y68.938 E15.68782
G1 X71.022 Y67.625 E15.74730
G1 X72.482 Y66.375 E15.80678
G1 X73.996 Y65.190 E15.86626
G1 X75.562 Y64.074 E15.92574
G1 X77.175 Y63.028 E15.98523
G1 X78.832 Y62.055 E16.04471
G1 X80.532 Y61.156 E16.10419
G1 X82.269 Y60.333 E16.16367
G1 X84.041 Y59.587 E16.22315
G1 X85.844 Y58.921 E16.28263
G1 X87.675 Y58.335 E16.34212
G1 X89.530 Y57.830 E16.40160
G1 X91.406 Y57.409 E16.46108
G1 X93.298 Y57.070 E16.52056
G1 X95.203 Y56.816 E16.58004
G1 X96.677 Y56.685 E16.62582
G1 X97.118 Y56.646 E16.63952
G1 X99.039 Y56.561 E16.69901
G1 X100.961 Y56.561 E16.75849
G1 X102.882 Y56.646 E16.81797
G1 X104.797 Y56.816 E16.87745
G1 X106.263 Y57.012 E16.92322
G1 X106.702 Y57.070 E16.93693
G1 X108.594 Y57.409 E16.99641
G1 X110.470 Y57.830 E17.05589
G1 X112.325 Y58.335 E17.11538
G1 X114.156 Y58.921 E17.17486
G1 X115.959 Y59.587 E17.23434
G1 X117.731 Y60.333 E17.29382
G1 X119.468 Y61.156 E17.35331
G1 X121.168 Y62.055 E17.41279
G1 X122.825 Y63.028 E17.47227
G1 X124.438 Y64.074 E17.53175
G1 X126.004 Y65.190 E17.59123
G1 X127.518 Y66.375 E17.65071
G1 X128.978 Y67.625 E17.71019
G1 X130.344 Y68.902 E17.76805
G1 X130.819 Y68.491 F7800.000
G1 X132.183 Y69.886 E17.82839 F378
G1 X133.483 Y71.339 E17.88873
G1 X134.718 Y72.848 E17.94906
G1 X135.885 Y74.410 E18.00940
G1 X136.982 Y76.022 E18.06974
G1 X138.006 Y77.682 E18.13008
G1 X138.956 Y79.385 E18.19041
G1 X139.830 Y81.128 E18.25075
G1 X140.626 Y82.908 E18.31109
G1 X141.342 Y84.722 E18.37143
G1 X141.978 Y86.566 E18.43176
G1 X142.531 Y88.436 E18.49210
G1 X143.001 Y90.328 E18.55244
G1 X143.386 Y92.240 E18.61277
G1 X143.687 Y94.167 E18.67311
G1 X143.902 Y96.105 E18.73345
G1 X144.032 Y98.050 E18.79379
G1 X144.075 Y100.000 E18.85412
G1 X144.032 Y101.950 E18.91446
G1 X143.902 Y103.895 E18.97480
G1 X143.687 Y105.833 E19.03514
G1 X143.386 Y107.760 E19.09547
G1 X143.001 Y109.672 E19.15581
G1 X142.531 Y111.564 E19.21615
G1 X141.978 Y113.434 E19.27649
G1 X141.342 Y115.278 E19.33682
G1 X140.626 Y117.092 E19.39716
G1 X139.830 Y118.872 E19.45750
G1 X138.956 Y120.615 E19.51783
G1 X138.006 Y122.318 E19.57817
G1 X136.982 Y123.978 E19.63851
G1 X135.885 Y125.590 E19.69885
G1 X134.718 Y127.152 E19.75918
G1 X133.483 Y128.661 E19.81952
G1 X132.183 Y130.114 E19.87986
G1 X130.819 Y131.509 E19.94020
G1 X129.395 Y132.841 E20.00053
G1 X127.914 Y134.109 E20.06087
G1 X126.378 Y135.310 E20.12121
G1 X124.790 Y136.443 E20.18155
G1 X123.154 Y137.503 E20.24188
G1 X121.472 Y138.491 E20.30222
G1 X119.749 Y139.403 E20.36256
G1 X117.986 Y140.238 E20.42290
G1 X116.189 Y140.994 E20.48323
G1 X114.788 Y141.512 E20.52944
G1 X114.360 Y141.670 E20.54357
G1 X112.502 Y142.265 E20.60391
G1 X110.621 Y142.776 E20.66425
G1 X108.718 Y143.204 E20.72458
G1 X106.799 Y143.547 E20.78492
G1 X104.866 Y143.806 E20.84526
G1 X102.923 Y143.978 E20.90559
G1 X100.975 Y144.064 E20.96593
G1 X99.025 Y144.064 E21.02627
G1 X97.077 Y143.978 E21.08661
G1 X95.134 Y143.805 E21.14694
G1 X93.654 Y143.608 E21.19315
G1 X93.202 Y143.547 E21.20728
G1 X91.282 Y143.204 E21.26762
G1 X89.379 Y142.776 E21.32796
G1 X87.498 Y142.265 E21.38829
G1 X85.640 Y141.670 E21.44863
G1 X83.811 Y140.994 E21.50897
G1 X82.014 Y140.238 E21.56931
G1 X80.251 Y139.403 E21.62964
G1 X78.528 Y138.491 E21.68998
G1 X76.846 Y137.503 E21.75032
G1 X75.210 Y136.443 E21.81066
G1 X73.622 Y135.310 E21.87099
G1 X72.086 Y134.109 E21.93133
G1 X70.605 Y132.841 E21.99167
G1 X69.181 Y131.509 E22.05200
G1 X67.817 Y130.114 E22.11234
G1 X66.517 Y128.661 E22.17268
G1 X65.282 Y127.152 E22.23302
G1 X64.115 Y125.590 E22.29335
