; GCode by Repsnapper, Sun, 02/16/2014

; Startcode
; GCode generated by RepSnapper:
;   Model by Joe Racette 2014
; http://reprap.org/wiki/RepSnapper_Manual:Introduction
G21             ; metric is good!
G90             ; absolute positioning
M83            ; Relative E Code
T0                ; select extruder
;  Get the heating started asap
M117 ..... Preheat ......
M104 S200.0     ; set extruder temperature (220 PLA / 230 ABS)
M140 S100.0     ; bed heater temperature (50 PLA / 110 ABS)
; 
G28                        ; go home - because who knows where the extruder is now
G92 E0                  ; set extruder home
;      
;   Set the actual temperatures
;   - set long term temps on "Next Layer" tab
;   - remember to comment Layer 0 temps in "Result" tab after gcode is built
;   - bed takes longer to heat up so start first
;   - start with bed temperature hot (60 PLA / 115 ABS)
;   - after first layer temp can drop (50 PLA / 110 ABS)
M190 S115        ; bed heater temperature 
;
;   - start with extruder temperature hot (225 PLA / 232 ABS)
;   - after first layer temp can drop (220 PLA / 230 ABS)
M109 S232.0     ; set  / wait for extruder  to reach temp
;
M117 ..... Printing .....
; G1 X20 Y20 F500 ; move away from 0.0, to use the same reset for each layer
; End Startcode

G21 ; Millimeters
G90 ; Absolute Pos
M82 ; Absolute E Code

; Layerchange GCode
; Comment this out for Layer 0 !!
; M104 S230.0     ; set extruder temperature (220 PLA / 230 ABS)
; M140 S110.0        ; bed heater temperature (50 PLA / 110 ABS); End Layerchange GCode

; Layer S0 ; Layer at Z=0.3458 No=0, thickn=0.26, 1 skins, 5 polys, 3 shells, 5 fullfill polys, 0 bridge polys, 0 skin fullfill polys, 0 support polys, infill:  normal 0, full 13, support 0, skinfills 0
; Skirt
G1 X112.2595 Y22.4591 Z0.3458 E0.00000 F4800 ;  Z-Change
G1 X24.3444 Y112.8768 E2.04605 F1200
G1 X20.3537 Y117.9030 E2.15018
G1 X17.0975 Y123.4428 E2.25443
G1 X14.6596 Y129.3355 E2.35789
G1 X13.0764 Y135.4207 E2.45990
G1 X12.4719 Y139.7418 E2.53069
G1 X12.3290 Y146.0971 E2.63383
G1 X13.0668 Y152.4312 E2.73729
G1 X14.6448 Y158.5176 E2.83930
G1 X16.2312 Y162.6128 E2.91055
G1 X19.1867 Y168.2084 E3.01322
G1 X22.9135 Y173.3831 E3.11668
G1 X27.2537 Y177.9324 E3.21869
G1 X30.6325 Y180.7379 E3.28994
G1 X35.9375 Y184.1882 E3.39261
G1 X41.6282 Y186.8626 E3.49462
G1 X45.7922 Y188.2582 E3.56587
G1 X51.9853 Y189.5591 E3.66854
G1 X58.2826 Y189.9976 E3.77096
G1 X154.9809 Y189.8425 E5.33979
G1 X159.3730 Y189.4687 E5.41131
G1 X167.7017 Y187.2639 E5.55109
G1 X173.3197 Y184.5018 E5.65265
G1 X176.8670 Y182.0879 E5.72227
G1 X182.8474 Y176.2926 E5.85737
G1 X183.0576 Y176.0641 E5.86241
G1 X183.2401 Y175.8130 E5.86745
G1 X187.5585 Y169.0884 E5.99711
G1 X187.7111 Y168.8180 E6.00214
G1 X187.8319 Y168.5320 E6.00718
G1 X190.4823 Y161.0960 E6.13526
G1 X190.5698 Y160.7981 E6.14029
G1 X190.6229 Y160.4922 E6.14533
G1 X191.5663 Y152.3197 E6.27880
G1 X191.3146 Y57.7622 E7.81291
G1 X190.8957 Y51.5324 E7.91421
G1 X189.6486 Y45.3643 E8.01631
G1 X187.2067 Y38.5433 E8.13385
G1 X183.6714 Y32.0056 E8.25443
G1 X178.5364 Y25.4379 E8.38969
G1 X173.1543 Y20.5153 E8.50802
G1 X166.9715 Y16.3904 E8.62861
G1 X159.3610 Y12.9873 E8.76386
G1 X153.1937 Y11.3133 E8.86754
G1 X144.9073 Y10.3996 E9.00279
G1 X140.6627 Y10.4980 E9.07167
G1 X134.5569 Y11.3133 E9.17161
G1 X126.5123 Y13.6807 E9.30766
G1 X118.9449 Y17.4673 E9.44495
G1 X112.5095 Y22.2724 E9.57525
G1 X112.3953 Y22.4733 E9.57900
; Shell
G1 X112.4863 Y22.6817 F4800 ;  Move Only (0.23 mm)
G1 X112.6180 Y22.8670 ;  Move Only (0.23 mm)
G1 X114.5426 Y25.0571 ;  Move Only (2.9 mm)
G1 X113.1209 Y26.3873 E9.60494 F1200
G1 X114.5426 Y25.0571 F4800 ;  Move Only (1.9 mm)
G1 X113.1209 Y26.3873 E9.63088 F1200
G1 X111.7626 Y27.7761 E9.65676
G1 X110.4609 Y29.2302 E9.68276
G1 X109.2319 Y30.7321 E9.70861
G1 X108.0658 Y32.2927 E9.73457
G1 X106.9718 Y33.9014 E9.76049
G1 X105.9493 Y35.5577 E9.78642
G1 X105.0018 Y37.2562 E9.81233
G1 X104.1288 Y38.9978 E9.83828
G1 X103.3346 Y40.7744 E9.86421
G1 X102.6211 Y42.5817 E9.89010
G1 X101.9868 Y44.4220 E9.91603
G1 X101.4346 Y46.2893 E9.94197
G1 X100.9653 Y48.1787 E9.96791
G1 X100.5806 Y50.0849 E9.99382
G1 X100.2817 Y52.0018 E10.01966
G1 X99.9367 Y55.8867 E10.07162
G1 X99.8938 Y57.8283 E10.09750
G1 X99.9370 Y59.7735 E10.12342
G1 X100.0657 Y61.7131 E10.14932
G1 X100.4210 Y64.5461 E10.18735
G1 X100.9665 Y67.4831 E10.22715
G1 X101.4346 Y69.3674 E10.25302
G1 X101.9868 Y71.2347 E10.27896
G1 X102.6211 Y73.0752 E10.30490
G1 X103.3346 Y74.8823 E10.33078
G1 X104.1282 Y76.6574 E10.35669
G1 X105.0018 Y78.4005 E10.38266
G1 X105.9493 Y80.0990 E10.40857
G1 X106.9718 Y81.7551 E10.43450
G1 X108.0658 Y83.3641 E10.46042
G1 X109.2296 Y84.9216 E10.48633
G1 X111.0684 Y87.1050 E10.52436
G1 X113.1239 Y89.2722 E10.56415
G1 X114.5426 Y90.5997 E10.59004
G1 X116.0213 Y91.8654 E10.61597
G1 X117.5521 Y93.0625 E10.64186
G1 X119.1376 Y94.1934 E10.66780
G1 X120.7722 Y95.2534 E10.69376
G1 X122.4476 Y96.2371 E10.71964
G1 X124.1670 Y97.1470 E10.74556
G1 X125.9289 Y97.9818 E10.77153
G1 X127.7201 Y98.7353 E10.79742
G1 X129.5449 Y99.4097 E10.82334
G1 X131.4021 Y100.0039 E10.84932
G1 X133.2764 Y100.5138 E10.87520
G1 X135.1724 Y100.9402 E10.90109
G1 X137.9902 Y101.4031 E10.93913
G1 X140.9616 Y101.7131 E10.97893
G1 X142.9027 Y101.7991 E11.00482
G1 X144.8476 E11.03073
G1 X146.7925 Y101.7131 E11.05666
G1 X148.7303 Y101.5411 E11.08258
G1 X150.6600 Y101.2831 E11.10852
G1 X152.5711 Y100.9412 E11.13438
G1 X155.3497 Y100.2752 E11.17245
G1 X158.2083 Y99.4087 E11.21225
G1 X160.0304 Y98.7353 E11.23813
G1 X161.8216 Y97.9818 E11.26402
G1 X163.5834 Y97.1470 E11.28999
G1 X165.3019 Y96.2375 E11.31589
G1 X166.9789 Y95.2525 E11.34180
G1 X168.6126 Y94.1933 E11.36774
G1 X170.1984 Y93.0625 E11.39369
G1 X171.7290 Y91.8655 E11.41958
G1 X173.2080 Y90.5997 E11.44551
G1 X174.6293 Y89.2695 E11.47145
G1 X175.9877 Y87.8808 E11.49733
G1 X177.2893 Y86.4266 E11.52333
G1 X178.5183 Y84.9247 E11.54918
G1 X179.6844 Y83.3641 E11.57514
G1 X180.7795 Y81.7537 E11.60108
G1 X181.8003 Y80.1007 E11.62697
G1 X182.7490 Y78.3996 E11.65291
G1 X183.6209 Y76.6598 E11.67884
G1 X184.4149 Y74.8843 E11.70475
G1 X185.1304 Y73.0719 E11.73071
G1 X185.7636 Y71.2347 E11.75660
G1 X186.3158 Y69.3674 E11.78254
G1 X186.7849 Y67.4782 E11.80848
G1 X187.1695 Y65.5720 E11.83438
G1 X187.4688 Y63.6541 E11.86024
G1 X187.7443 Y60.8094 E11.89832
G1 X187.8565 Y57.8246 E11.93811
G1 X187.8136 Y55.8826 E11.96399
G1 X187.6843 Y53.9388 E11.98995
G1 X187.4694 Y52.0052 E12.01587
G1 X187.1694 Y50.0845 E12.04176
G1 X186.7849 Y48.1787 E12.06767
G1 X186.3158 Y46.2893 E12.09360
G1 X185.7636 Y44.4220 E12.11954
G1 X185.1303 Y42.5846 E12.14544
G1 X184.0441 Y39.9439 E12.18348
G1 X182.7474 Y37.2539 E12.22326
G1 X181.8016 Y35.5585 E12.24913
G1 X180.7782 Y33.9008 E12.27508
G1 X179.6844 Y32.2927 E12.30099
G1 X178.5183 Y30.7321 E12.32695
G1 X177.2893 Y29.2302 E12.35280
G1 X175.9877 Y27.7761 E12.37880
G1 X174.6288 Y26.3868 E12.40469
G1 X173.2114 Y25.0603 E12.43055
G1 X171.0143 Y23.2327 E12.46863
G1 X168.6083 Y21.4603 E12.50844
G1 X166.9796 Y20.4042 E12.53430
G1 X165.3012 Y19.4189 E12.56023
G1 X163.5863 Y18.5113 E12.58608
G1 X160.9861 Y17.3238 E12.62416
G1 X158.2010 Y16.2454 E12.66395
G1 X156.3482 Y15.6528 E12.68987
G1 X154.4740 Y15.1430 E12.71574
G1 X152.5761 Y14.7162 E12.74166
G1 X150.6596 Y14.3734 E12.76760
G1 X148.7303 Y14.1158 E12.79353
G1 X146.7925 Y13.9437 E12.81945
G1 X144.8476 Y13.8578 E12.84538
G1 X142.9027 E12.87130
G1 X140.9579 Y13.9437 E12.89723
G1 X139.0202 Y14.1158 E12.92315
G1 X137.0904 Y14.3735 E12.94909
G1 X135.1791 Y14.7153 E12.97495
G1 X132.4006 Y15.3814 E13.01302
G1 X129.5422 Y16.2481 E13.05281
G1 X127.7201 Y16.9215 E13.07869
G1 X125.9290 Y17.6749 E13.10458
G1 X124.1670 Y18.5096 E13.13055
G1 X122.4493 Y19.4189 E13.15645
G1 X120.7730 Y20.4032 E13.18234
G1 X118.3981 Y21.9908 E13.22040
G1 X116.0185 Y23.7935 E13.26018
G1 X114.5426 Y25.0571 E13.28606
G1 X114.7503 Y25.2890 F4800 ;  Move Only (0.31 mm)
G1 X114.5426 Y25.0571 ;  Move Only (0.31 mm)
G1 X114.6235 Y25.2834 ;  Move Only (0.24 mm)
G1 X114.5041 Y25.4881 E13.28922 F1200
G1 X114.3476 Y25.6660 E13.29237
G1 X113.3395 Y26.6095 E13.31077
G1 X111.9908 Y27.9882 E13.33646
G1 X110.6964 Y29.4344 E13.36232
G1 X109.4784 Y30.9226 E13.38794
G1 X108.3191 Y32.4740 E13.41374
G1 X107.2340 Y34.0698 E13.43945
G1 X106.2172 Y35.7169 E13.46524
G1 X105.2774 Y37.4019 E13.49095
G1 X104.4092 Y39.1335 E13.51675
G1 X103.6223 Y40.8943 E13.54245
G1 X102.9136 Y42.6892 E13.56816
G1 X102.2835 Y44.5171 E13.59391
G1 X101.7353 Y46.3709 E13.61967
G1 X101.2692 Y48.2482 E13.64544
G1 X100.8875 Y50.1388 E13.67113
G1 X100.5913 Y52.0391 E13.69676
G1 X100.2482 Y55.9034 E13.74844
G1 X100.2055 Y57.8285 E13.77410
G1 X100.2483 Y59.7587 E13.79982
G1 X100.3760 Y61.6826 E13.82550
G1 X100.7292 Y64.4981 E13.86331
G1 X101.2713 Y67.4172 E13.90286
G1 X101.7353 Y69.2855 E13.92851
G1 X102.2835 Y71.1392 E13.95426
G1 X102.9136 Y72.9671 E13.98002
G1 X103.6223 Y74.7622 E14.00573
G1 X104.4087 Y76.5213 E14.03140
G1 X105.2774 Y78.2545 E14.05723
G1 X106.2181 Y79.9410 E14.08296
G1 X107.2328 Y81.5847 E14.10870
G1 X108.3200 Y83.1839 E14.13446
G1 X109.4740 Y84.7277 E14.16014
G1 X111.3004 Y86.8966 E14.19791
G1 X113.3439 Y89.0508 E14.23747
G1 X114.7488 Y90.3660 E14.26311
G1 X116.2191 Y91.6244 E14.28889
G1 X117.7387 Y92.8125 E14.31459
G1 X119.3114 Y93.9344 E14.34033
G1 X120.9358 Y94.9880 E14.36612
G1 X122.5987 Y95.9640 E14.39181
G1 X124.3066 Y96.8680 E14.41756
G1 X126.0570 Y97.6975 E14.44336
G1 X127.8336 Y98.4446 E14.46904
G1 X129.6459 Y99.1147 E14.49478
G1 X131.4912 Y99.7048 E14.52059
G1 X133.3519 Y100.2112 E14.54628
G1 X135.2312 Y100.6337 E14.57194
G1 X138.0311 Y101.0935 E14.60975
G1 X140.9853 Y101.4019 E14.64932
G1 X142.9088 Y101.4871 E14.67497
G1 X144.8411 E14.70071
G1 X146.7702 Y101.4019 E14.72644
G1 X148.6978 Y101.2309 E14.75222
G1 X150.6098 Y100.9749 E14.77792
G1 X152.5079 Y100.6355 E14.80361
G1 X155.2676 Y99.9738 E14.84142
G1 X158.1092 Y99.1125 E14.88097
G1 X159.9156 Y98.4450 E14.90663
G1 X161.6931 Y97.6975 E14.93232
G1 X163.4434 Y96.8680 E14.95812
G1 X165.1511 Y95.9640 E14.98387
G1 X166.8142 Y94.9875 E15.00956
G1 X168.4369 Y93.9354 E15.03532
G1 X170.0127 Y92.8115 E15.06111
G1 X171.5307 Y91.6244 E15.08678
G1 X173.0010 Y90.3660 E15.11257
G1 X174.4092 Y89.0481 E15.13826
G1 X175.7603 Y87.6669 E15.16400
G1 X177.0533 Y86.2220 E15.18984
G1 X178.2714 Y84.7338 E15.21546
G1 X179.4309 Y83.1824 E15.24126
G1 X180.5169 Y81.5847 E15.26700
G1 X181.5317 Y79.9413 E15.29273
G1 X182.4731 Y78.2537 E15.31848
G1 X183.3401 Y76.5239 E15.34425
G1 X184.1269 Y74.7640 E15.36994
G1 X184.8377 Y72.9640 E15.39572
G1 X185.4666 Y71.1392 E15.42143
G1 X186.0146 Y69.2855 E15.44719
G1 X186.4807 Y67.4085 E15.47295
G1 X186.8620 Y65.5179 E15.49865
G1 X187.1593 Y63.6141 E15.52432
G1 X187.4327 Y60.7897 E15.56212
G1 X187.5444 Y57.8211 E15.60170
G1 X187.5020 Y55.8961 E15.62735
G1 X187.3734 Y53.9644 E15.65314
G1 X187.1602 Y52.0471 E15.67884
G1 X186.8618 Y50.1375 E15.70459
G1 X186.4807 Y48.2480 E15.73027
G1 X186.0146 Y46.3709 E15.75604
G1 X185.4666 Y44.5171 E15.78179
G1 X184.8384 Y42.6946 E15.80748
G1 X183.7589 Y40.0704 E15.84528
G1 X182.4700 Y37.3970 E15.88482
G1 X181.5338 Y35.7186 E15.91042
G1 X180.5152 Y34.0686 E15.93626
G1 X179.4308 Y32.4740 E15.96195
G1 X178.2714 Y30.9225 E15.98775
G1 X177.0533 Y29.4344 E16.01337
G1 X175.7591 Y27.9882 E16.03923
G1 X174.4095 Y26.6085 E16.06494
G1 X173.0063 Y25.2954 E16.09054
G1 X170.8210 Y23.4776 E16.12841
G1 X168.4303 Y21.7165 E16.16797
G1 X166.8172 Y20.6703 E16.19359
G1 X165.1481 Y19.6907 E16.21937
G1 X163.4484 Y18.7912 E16.24499
G1 X160.8649 Y17.6112 E16.28283
G1 X158.0971 Y16.5393 E16.32237
G1 X156.2584 Y15.9516 E16.34809
G1 X154.3980 Y15.4452 E16.37378
G1 X152.5153 Y15.0219 E16.39949
G1 X150.6118 Y14.6814 E16.42525
G1 X148.6960 Y14.4256 E16.45100
G1 X146.7702 Y14.2546 E16.47676
G1 X144.8411 Y14.1695 E16.50248
G1 X142.9088 E16.52823
G1 X140.9798 Y14.2546 E16.55395
G1 X139.0544 Y14.4256 E16.57970
G1 X137.1376 Y14.6817 E16.60547
G1 X135.2423 Y15.0207 E16.63112
G1 X132.4822 Y15.6822 E16.66893
G1 X129.6408 Y16.5439 E16.70849
G1 X127.8344 Y17.2115 E16.73414
G1 X126.0571 Y17.9590 E16.75983
G1 X124.3066 Y18.7882 E16.78564
G1 X122.6004 Y19.6916 E16.81136
G1 X120.9383 Y20.6674 E16.83703
G1 X118.5787 Y22.2449 E16.87485
G1 X116.2137 Y24.0364 E16.91438
G1 X114.8630 Y25.1925 E16.93806
G1 X114.8124 Y25.2933 E16.93956
G1 X114.8237 Y25.3265 F4800 ;  Move Only (0.035 mm)
G1 X114.9003 Y25.4582 ;  Move Only (0.15 mm)
G1 X114.8946 Y25.5806 E16.94038 F1440
G1 X113.5580 Y26.8317 E16.96477 F1200
G1 X112.2190 Y28.2006 E16.99028
G1 X110.9327 Y29.6374 E17.01597
G1 X109.7242 Y31.1142 E17.04140
G1 X108.5726 Y32.6553 E17.06703
G1 X107.4955 Y34.2392 E17.09255
G1 X106.4859 Y35.8751 E17.11816
G1 X105.5530 Y37.5475 E17.14367
G1 X104.6905 Y39.2671 E17.16930
G1 X103.9091 Y41.0161 E17.19482
G1 X103.2063 Y42.7964 E17.22032
G1 X102.5805 Y44.6117 E17.24590
G1 X102.0358 Y46.4531 E17.27148
G1 X101.5731 Y48.3174 E17.29707
G1 X101.1944 Y50.1932 E17.32257
G1 X100.9008 Y52.0763 E17.34796
G1 X100.5597 Y55.9201 E17.39937
G1 X100.5174 Y57.8287 E17.42480
G1 X100.5595 Y59.7439 E17.45033
G1 X100.6864 Y61.6522 E17.47581
G1 X101.0374 Y64.4500 E17.51337
G1 X101.5761 Y67.3513 E17.55269
G1 X102.0358 Y69.2029 E17.57810
G1 X102.5805 Y71.0441 E17.60368
G1 X103.2064 Y72.8601 E17.62927
G1 X103.9092 Y74.6405 E17.65477
G1 X104.6891 Y76.3852 E17.68023
G1 X105.5530 Y78.1086 E17.70592
G1 X106.4866 Y79.7826 E17.73145
G1 X107.4950 Y81.4160 E17.75703
G1 X108.5721 Y83.0003 E17.78255
G1 X109.7190 Y84.5345 E17.80807
G1 X111.5324 Y86.6881 E17.84558
G1 X113.5631 Y88.8286 E17.88489
G1 X114.9565 Y90.1334 E17.91032
G1 X116.4185 Y91.3843 E17.93595
G1 X117.9250 Y92.5625 E17.96143
G1 X119.4852 Y93.6754 E17.98696
G1 X121.0980 Y94.7214 E18.01257
G1 X122.7515 Y95.6918 E18.03812
G1 X124.4462 Y96.5889 E18.06366
G1 X126.1851 Y97.4129 E18.08930
G1 X127.9484 Y98.1544 E18.11478
G1 X129.7455 Y98.8189 E18.14031
G1 X131.5803 Y99.4058 E18.16597
G1 X133.4276 Y99.9085 E18.19148
G1 X135.2903 Y100.3272 E18.21692
G1 X138.0721 Y100.7841 E18.25447
G1 X141.0089 Y101.0907 E18.29381
G1 X142.9149 Y101.1750 E18.31923
G1 X144.8347 E18.34481
G1 X146.7481 Y101.0907 E18.37032
G1 X148.6647 Y100.9206 E18.39596
G1 X150.5606 Y100.6667 E18.42144
G1 X152.4442 Y100.3299 E18.44693
G1 X155.1860 Y99.6725 E18.48450
G1 X158.0100 Y98.8163 E18.52381
G1 X159.8010 Y98.1548 E18.54925
G1 X161.5646 Y97.4129 E18.57474
G1 X163.3034 Y96.5889 E18.60037
G1 X164.9996 Y95.6909 E18.62594
G1 X166.6500 Y94.7221 E18.65144
G1 X168.2626 Y93.6764 E18.67704
G1 X169.8258 Y92.5615 E18.70262
G1 X171.3308 Y91.3843 E18.72808
G1 X172.7953 Y90.1312 E18.75376
G1 X174.1901 Y88.8256 E18.77921
G1 X175.5319 Y87.4542 E18.80477
G1 X176.8164 Y86.0188 E18.83043
G1 X178.0265 Y84.5404 E18.85588
G1 X179.1766 Y83.0016 E18.88148
G1 X180.2548 Y81.4147 E18.90704
G1 X181.2635 Y79.7817 E18.93261
G1 X182.1964 Y78.1095 E18.95812
G1 X183.0593 Y76.3877 E18.98378
G1 X183.8387 Y74.6443 E19.00922
G1 X184.5450 Y72.8553 E19.03484
G1 X185.1696 Y71.0437 E19.06037
G1 X185.7134 Y69.2034 E19.08594
G1 X186.1767 Y67.3386 E19.11154
G1 X186.5545 Y65.4642 E19.13701
G1 X186.8497 Y63.5741 E19.16250
G1 X187.1211 Y60.7700 E19.20003
G1 X187.2323 Y57.8177 E19.23939
G1 X187.1904 Y55.9096 E19.26482
G1 X187.0625 Y53.9899 E19.29045
G1 X186.8510 Y52.0893 E19.31593
G1 X186.5544 Y50.1904 E19.34153
G1 X186.1767 Y48.3176 E19.36699
G1 X185.7134 Y46.4524 E19.39259
G1 X185.1696 Y44.6123 E19.41815
G1 X184.5462 Y42.8037 E19.44364
G1 X183.4738 Y40.1969 E19.48119
G1 X182.1933 Y37.5411 E19.52047
G1 X181.2653 Y35.8777 E19.54585
G1 X180.2523 Y34.2364 E19.57155
G1 X179.1770 Y32.6553 E19.59702
G1 X178.0251 Y31.1137 E19.62266
G1 X176.8165 Y29.6377 E19.64807
G1 X175.5316 Y28.2016 E19.67375
G1 X174.1889 Y26.8290 E19.69933
G1 X172.8013 Y25.5307 E19.72464
G1 X170.6277 Y23.7225 E19.76231
G1 X168.2522 Y21.9727 E19.80162
G1 X166.6548 Y20.9365 E19.82699
G1 X164.9950 Y19.9627 E19.85262
G1 X163.3105 Y19.0709 E19.87802
G1 X160.7439 Y17.8987 E19.91561
G1 X157.9931 Y16.8334 E19.95491
G1 X156.1693 Y16.2506 E19.98041
G1 X154.3218 Y15.7476 E20.00592
G1 X152.4545 Y15.3277 E20.03142
G1 X150.5639 Y14.9894 E20.05701
G1 X148.6612 Y14.7352 E20.08258
G1 X146.7479 Y14.5655 E20.10817
G1 X144.8347 Y14.4812 E20.13369
G1 X142.9149 E20.15926
G1 X141.0018 Y14.5655 E20.18478
G1 X139.0886 Y14.7352 E20.21037
G1 X137.1851 Y14.9897 E20.23595
G1 X135.3053 Y15.3262 E20.26139
G1 X132.5639 Y15.9832 E20.29895
G1 X129.7394 Y16.8396 E20.33827
G1 X127.9487 Y17.5014 E20.36370
G1 X126.1853 Y18.2430 E20.38919
G1 X124.4455 Y19.0673 E20.41484
G1 X122.7522 Y19.9639 E20.44037
G1 X121.1039 Y20.9317 E20.46583
G1 X118.7593 Y22.4991 E20.50340
G1 X116.4101 Y24.2786 E20.54267
G1 X115.1940 Y25.3193 E19.73329 F540 ; AbsE -0.8307 (-4.67/-0.12 mm/s) 
G1 X114.9889 Y25.5447 E19.56805 ; AbsE -0.1693 (-5.00/-0.12 mm/s) 
; Infill
G1 X114.8456 Y25.8136 F4800 ;  Move Only (0.3 mm)
G1 X101.0929 Y61.7836 ;  Move Only (39 mm)
G1 X101.0286 Y61.8197 ;  Move Only (0.074 mm)
G1 X100.9815 Y61.6893 E19.60881 F1080 ; AbsE 0.0385 (5.00/-0.29 mm/s) 
G1 Y58.2279 E20.62646 ; AbsE 0.9615 (5.00/-0.29 mm/s) 
G1 Y53.8826 E20.69696 F1200
G1 X101.7616 Y48.6759 E20.78237
G1 X101.8070 Y48.7250 E20.78346
G1 X101.7684 Y66.7562 E21.07600
G1 X101.7875 Y67.0657 E21.08103
G1 X101.8458 Y67.3703 E21.08606
G1 X102.4758 Y69.8061 E21.12688
G1 X102.5539 Y69.7175 E21.12880
G1 Y45.8593 E21.51587
G1 X102.5783 Y45.5512 E21.52089
G1 X102.6509 Y45.2508 E21.52590
G1 X103.2432 Y43.4404 E21.55680
G1 X103.3402 Y43.5541 E21.55923
G1 Y72.1996 E22.02397
G1 X103.3687 Y72.5063 E22.02897
G1 X103.4531 Y72.8025 E22.03397
G1 X104.0135 Y74.2468 E22.05910
G1 X104.1264 Y74.1109 E22.06197
G1 Y41.4315 E22.59216
G1 X104.1586 Y41.1264 E22.59714
G1 X104.2537 Y40.8346 E22.60211
G1 X104.7854 Y39.6442 E22.62327
G1 X104.9127 Y39.8014 E22.62655
G1 Y75.9840 E23.21358
G1 X104.9481 Y76.2876 E23.21854
G1 X105.0526 Y76.5749 E23.22350
G1 X105.5590 Y77.5850 E23.24183
G1 X105.6989 Y77.4082 E23.24549
G1 Y38.1040 E23.88316
G1 X105.7372 Y37.8019 E23.88810
G1 X105.8498 Y37.5189 E23.89304
G1 X106.3342 Y36.6425 E23.90928
G1 X106.4851 Y36.8373 E23.91328
G1 Y78.9748 E24.59692
G1 X106.5260 Y79.2755 E24.60184
G1 X106.6457 Y79.5543 E24.60677
G1 X107.1108 Y80.3290 E24.62143
G1 X107.2714 Y80.1179 E24.62573
G1 Y35.3715 E25.35170
G1 X107.3145 Y35.0722 E25.35660
G1 X107.4404 Y34.7972 E25.36151
G1 X107.8886 Y34.1019 E25.37493
G1 X108.0576 Y34.3278 E25.37951
G1 Y81.5043 E26.14490
G1 X108.1027 Y81.8023 E26.14979
G1 X108.2341 Y82.0736 E26.15468
G1 X108.6674 Y82.7054 E26.16711
G1 X108.7950 Y82.6147 E26.16965
G1 X108.8439 Y82.3094 E26.17467
G1 Y33.0053 E26.97458
G1 X108.8918 Y32.7092 E26.97944
G1 X109.0307 Y32.4434 E26.98431
G1 X109.4433 Y31.8910 E26.99549
G1 X109.5785 Y31.9903 E26.99822
G1 X109.6171 Y32.1519 E27.00091
G1 X109.6301 Y32.3176 E27.00361
G1 Y83.7024 E27.83727
G1 X109.6805 Y83.9966 E27.84212
G1 X109.8259 Y84.2573 E27.84696
G1 X110.2205 Y84.7469 E27.85716
G1 X110.3624 Y84.6397 E27.86005
G1 X110.4027 Y84.4681 E27.86291
G1 X110.4163 Y84.2923 E27.86577
G1 Y30.9594 E28.73104
G1 X110.4675 Y30.6658 E28.73588
G1 X110.6150 Y30.4069 E28.74071
G1 X111.0039 Y29.9363 E28.75061
G1 X111.1479 Y30.0462 E28.75355
G1 X111.1889 Y30.2211 E28.75647
G1 X111.2026 Y30.4002 E28.75938
G1 Y85.6115 E29.65513
G1 X111.2557 Y85.9035 E29.65995
G1 X111.4083 Y86.1581 E29.66476
G1 X111.7831 Y86.5856 E29.67398
G1 X111.9324 Y86.4691 E29.67706
G1 X111.9746 Y86.2863 E29.68010
G1 X111.9888 Y86.0991 E29.68315
G1 Y29.1295 E30.60742
G1 X112.0439 Y28.8392 E30.61221
G1 X112.2017 Y28.5894 E30.61701
G1 X112.5622 Y28.2033 E30.62558
G1 X112.7168 Y28.3269 E30.62879
G1 X112.7604 Y28.5183 E30.63198
G1 X112.7751 Y28.7140 E30.63516
G1 Y87.3369 E31.58626
G1 X112.8308 Y87.6267 E31.59105
G1 X112.9898 Y87.8752 E31.59583
G1 X113.3466 Y88.2513 E31.60424
G1 X113.5026 Y88.1258 E31.60749
G1 X113.5465 Y87.9322 E31.61071
G1 X113.5613 Y87.7342 E31.61393
G1 Y27.4834 E32.59144
G1 X113.6201 Y27.1966 E32.59619
G1 X113.7983 Y26.9656 E32.60092
G1 X113.9989 Y26.7539 E32.60566
G1 X114.1218 Y26.6366 E32.60841
G1 X114.2860 Y26.7738 E32.61188
G1 X114.3320 Y26.9810 E32.61533
G1 X114.3475 Y27.1927 E32.61877
G1 Y88.9220 E33.62027
G1 X114.4069 Y89.2082 E33.62501
G1 X114.5867 Y89.4372 E33.62973
G1 X114.7890 Y89.6467 E33.63446
G1 X114.9059 Y89.7559 E33.63705
G1 X115.0523 Y89.7812 E33.63946
G1 X115.1338 Y89.5084 E33.64408
G1 Y25.9985 E34.67447
G1 X115.1959 Y25.7151 E34.67918
G1 X115.3823 Y25.4944 E34.68386
G1 X115.5913 Y25.2950 E34.68855
G1 X115.6829 Y25.2166 E34.69051
G1 X115.8364 Y25.1953 E34.69302
G1 X115.9200 Y25.4808 E34.69784
G1 Y90.3297 E35.74995
G1 X115.9826 Y90.6126 E35.75465
G1 X116.1700 Y90.8319 E35.75934
G1 X116.3801 Y91.0295 E35.76402
G1 X116.4677 Y91.1034 E35.76587
G1 X116.6224 Y91.1240 E35.76841
G1 X116.7063 Y90.8365 E35.77327
G1 Y24.6673 E36.84679
G1 X116.7719 Y24.3879 E36.85145
G1 X116.9664 Y24.1789 E36.85608
G1 X117.1838 Y23.9936 E36.86072
G1 X117.2438 Y23.9481 E36.86194
G1 X117.4065 Y23.9328 E36.86459
G1 X117.4706 Y24.0779 E36.86716
G1 X117.4925 Y24.2351 E36.86974
G1 Y91.6075 E37.96279
G1 X117.5579 Y91.8872 E37.96745
G1 X117.7519 Y92.0970 E37.97208
G1 X117.9687 Y92.2832 E37.97672
G1 X118.0307 Y92.3305 E37.97799
G1 X118.1928 Y92.3462 E37.98063
G1 X118.2568 Y92.2017 E37.98319
G1 X118.2787 Y92.0451 E37.98576
G1 Y23.4762 E39.09822
G1 X118.3450 Y23.1976 E39.10286
G1 X118.5411 Y22.9910 E39.10749
G1 X118.7599 Y22.8087 E39.11211
G1 X118.8141 Y22.7687 E39.11320
G1 X118.9785 Y22.7548 E39.11588
G1 X119.0430 Y22.9015 E39.11848
G1 X119.0650 Y23.0603 E39.12108
G1 Y92.7686 E40.25203
G1 X119.1329 Y93.0451 E40.25664
G1 X119.3327 Y93.2457 E40.26124
G1 X119.5551 Y93.4209 E40.26583
G1 X119.5949 Y93.4486 E40.26662
G1 X119.7636 Y93.4591 E40.26936
G1 X119.8289 Y93.3083 E40.27203
G1 X119.8512 Y93.1454 E40.27469
G1 Y22.3696 E41.42296
G1 X119.9201 Y22.0944 E41.42756
G1 X120.1220 Y21.8974 E41.43214
G1 X120.3464 Y21.7265 E41.43672
G1 X120.3781 Y21.7053 E41.43734
G1 X120.5494 Y21.6969 E41.44012
G1 X120.6151 Y21.8501 E41.44282
G1 X120.6375 Y22.0153 E41.44553
G1 Y93.8244 E42.61056
G1 X120.7078 Y94.0977 E42.61514
G1 X120.9125 Y94.2895 E42.61969
G1 X121.1396 Y94.4541 E42.62424
G1 X121.1601 Y94.4671 E42.62463
G1 X121.3348 Y94.4724 E42.62747
G1 X121.4011 Y94.3157 E42.63023
G1 X121.4237 Y94.1471 E42.63299
G1 Y21.3338 E43.81431
G1 X121.4957 Y21.0630 E43.81886
G1 X121.7039 Y20.8782 E43.82337
G1 X121.9344 Y20.7220 E43.82789
G1 X121.9408 Y20.7182 E43.82801
G1 X122.1200 Y20.7172 E43.83092
G1 X122.1870 Y20.8783 E43.83375
G1 X122.2099 Y21.0514 E43.83658
G1 Y94.7833 E45.03281
G1 X122.2823 Y95.0535 E45.03735
G1 X122.4912 Y95.2368 E45.04186
G1 X122.7223 Y95.3912 E45.04636
G1 X122.7260 Y95.3934 E45.04643
G1 X122.9061 Y95.3934 E45.04936
G1 X122.9733 Y95.2313 E45.05220
G1 X122.9962 Y95.0573 E45.05505
G1 Y20.4180 E46.26600
G1 X123.0705 Y20.1507 E46.27050
G1 X123.0722 Y20.1491 E46.27054
G1 X123.2828 Y19.9752 E46.27497
G1 X123.5150 Y19.8313 E46.27940
G1 X123.6942 Y19.8363 E46.28231
G1 X123.7600 Y19.9982 E46.28514
G1 X123.7824 Y20.1716 E46.28798
G1 Y95.6535 E47.51260
G1 X123.8567 Y95.9207 E47.51710
G1 X123.8585 Y95.9224 E47.51714
G1 X124.0692 Y96.0960 E47.52157
G1 X124.3013 Y96.2396 E47.52600
G1 X124.4805 Y96.2345 E47.52890
G1 X124.5463 Y96.0725 E47.53174
G1 X124.5687 Y95.8992 E47.53458
G1 Y19.5864 E48.77268
G1 X124.6451 Y19.3227 E48.77713
G1 X124.6517 Y19.3169 E48.77727
G1 X124.8610 Y19.1565 E48.78155
G1 X125.0908 Y19.0270 E48.78583
G1 X125.2688 Y19.0379 E48.78872
G1 X125.3330 Y19.1998 E48.79155
G1 X125.3549 Y19.3726 E48.79437
G1 Y96.4415 E50.04474
G1 X125.4313 Y96.7052 E50.04919
G1 X125.4379 Y96.7110 E50.04934
G1 X125.6472 Y96.8715 E50.05362
G1 X125.8770 Y97.0010 E50.05790
G1 X126.0550 Y96.9902 E50.06079
G1 X126.1192 Y96.8283 E50.06362
G1 X126.1411 Y96.6555 E50.06644
G1 Y18.8415 E51.32890
G1 X126.2192 Y18.5809 E51.33331
G1 X126.2292 Y18.5726 E51.33352
G1 X126.4376 Y18.4223 E51.33769
G1 X126.6657 Y18.3039 E51.34186
G1 X126.8430 Y18.3195 E51.34475
G1 X126.9060 Y18.4816 E51.34757
G1 X126.9274 Y18.6542 E51.35039
G1 Y97.1524 E52.62394
G1 X127.0059 Y97.4123 E52.62835
G1 X127.0166 Y97.4211 E52.62857
G1 X127.2248 Y97.5691 E52.63272
G1 X127.4524 Y97.6851 E52.63686
G1 X127.6295 Y97.6684 E52.63975
G1 X127.6923 Y97.5062 E52.64257
G1 X127.7136 Y97.3337 E52.64539
G1 Y18.1728 E53.92970
G1 X127.7932 Y17.9152 E53.93407
G1 X127.8059 Y17.9050 E53.93433
G1 X128.0137 Y17.7638 E53.93841
G1 X128.2403 Y17.6551 E53.94249
G1 X128.4169 Y17.6752 E53.94537
G1 X128.4788 Y17.8377 E53.94819
G1 X128.4999 Y18.0102 E53.95101
G1 Y97.7899 E55.24536
G1 X128.5803 Y98.0459 E55.24971
G1 X128.5943 Y98.0568 E55.25000
G1 X128.8018 Y98.1934 E55.25403
G1 X129.0276 Y98.2971 E55.25806
G1 X129.2038 Y98.2746 E55.26094
G1 X129.2652 Y98.1119 E55.26376
G1 X129.2861 Y97.9393 E55.26659
G1 Y17.5751 E56.57041
G1 X129.3673 Y17.3208 E56.57475
G1 X129.3825 Y17.3093 E56.57506
G1 X129.5898 Y17.1775 E56.57904
G1 X129.8148 Y17.0790 E56.58303
G1 X129.9908 Y17.1041 E56.58591
G1 X130.0516 Y17.2671 E56.58873
G1 X130.0723 Y17.4398 E56.59155
G1 Y98.3591 E57.90439
G1 X130.1545 Y98.6111 E57.90869
G1 X130.1711 Y98.6231 E57.90902
G1 X130.3782 Y98.7489 E57.91295
G1 X130.6024 Y98.8407 E57.91688
G1 X130.7780 Y98.8123 E57.91977
G1 X130.8382 Y98.6488 E57.92260
G1 X130.8586 Y98.4758 E57.92542
G1 Y17.0631 E59.24626
G1 X130.9414 Y16.8125 E59.25054
G1 X130.9588 Y16.8003 E59.25089
G1 X131.1657 Y16.6780 E59.25479
G1 X131.3894 Y16.5902 E59.25869
G1 X131.5648 Y16.6207 E59.26157
G1 X131.6245 Y16.7845 E59.26440
G1 X131.6448 Y16.9577 E59.26723
G1 Y98.8624 E60.59605
G1 X131.7287 Y99.1103 E60.60030
G1 X131.7471 Y99.1227 E60.60066
G1 X131.9540 Y99.2385 E60.60451
G1 X132.1769 Y99.3192 E60.60835
G1 X132.3520 Y99.2849 E60.61125
G1 X132.4111 Y99.1203 E60.61409
G1 X132.4311 Y98.9465 E60.61692
G1 Y16.5864 E61.95314
G1 X132.5156 Y16.3400 E61.95736
G1 X132.5345 Y16.3276 E61.95773
G1 X132.7413 Y16.2152 E61.96155
G1 X132.9638 Y16.1383 E61.96537
G1 X133.1387 Y16.1747 E61.96827
G1 X133.1974 Y16.3398 E61.97111
G1 X133.2173 Y16.5139 E61.97395
G1 Y99.2903 E63.31691
G1 X133.3022 Y99.5354 E63.32112
G1 X133.3215 Y99.5477 E63.32149
G1 X133.5284 Y99.6572 E63.32529
G1 X133.7506 Y99.7308 E63.32909
G1 X133.9254 Y99.6925 E63.33199
G1 X133.9837 Y99.5270 E63.33484
G1 X134.0035 Y99.3526 E63.33769
G1 Y16.1971 E64.68680
G1 X134.0885 Y15.9521 E64.69101
G1 X134.1077 Y15.9398 E64.69138
G1 X134.3147 Y15.8306 E64.69518
G1 X134.5369 Y15.7573 E64.69897
G1 X134.7117 Y15.7957 E64.70188
G1 X134.7700 Y15.9613 E64.70472
G1 X134.7898 Y16.1358 E64.70757
G1 Y99.6564 E66.06261
G1 X134.8759 Y99.8983 E66.06678
G1 X134.8956 Y99.9102 E66.06715
G1 X135.1027 Y100.0128 E66.07090
G1 X135.3242 Y100.0787 E66.07465
G1 X135.4989 Y100.0359 E66.07757
G1 X135.5565 Y99.8691 E66.08043
G1 X135.5760 Y99.6938 E66.08329
G1 Y15.8336 E67.44384
G1 X135.6629 Y15.5943 E67.44797
G1 X135.6826 Y15.5829 E67.44834
G1 X135.8901 Y15.4856 E67.45206
G1 X136.1113 Y15.4257 E67.45577
G1 X136.2859 Y15.4721 E67.45871
G1 X136.3430 Y15.6401 E67.46158
G1 X136.3623 Y15.8164 E67.46446
G1 Y99.9477 E68.82941
G1 X136.4496 Y100.1855 E68.83352
G1 X136.4693 Y100.1966 E68.83388
G1 X136.6769 Y100.2911 E68.83758
G1 X136.8979 Y100.3477 E68.84129
G1 X137.0724 Y100.2993 E68.84422
G1 X137.1293 Y100.1308 E68.84711
G1 X137.1485 Y99.9539 E68.85000
G1 Y15.5520 E70.21933
G1 X137.2366 Y15.3168 E70.22341
G1 X137.2558 Y15.3064 E70.22376
G1 X137.4640 Y15.2170 E70.22744
G1 X137.6848 Y15.1661 E70.23111
G1 X137.8593 Y15.2182 E70.23407
G1 X137.9156 Y15.3881 E70.23697
G1 X137.9347 Y15.5661 E70.23988
G1 Y100.2060 E71.61307
G1 X138.0234 Y100.4391 E71.61712
G1 X138.0420 Y100.4488 E71.61746
G1 X138.2507 Y100.5344 E71.62112
G1 X138.4714 Y100.5809 E71.62478
G1 X138.6460 Y100.5259 E71.62775
G1 X138.7021 Y100.3549 E71.63067
G1 X138.7210 Y100.1759 E71.63359
G1 Y15.3385 E73.00999
G1 X138.8098 Y15.1060 E73.01403
G1 X138.8283 Y15.0965 E73.01437
G1 X139.0371 Y15.0120 E73.01802
G1 X139.2578 Y14.9668 E73.02168
G1 X139.4324 Y15.0227 E73.02465
G1 X139.4883 Y15.1941 E73.02758
G1 X139.5072 Y15.3733 E73.03050
G1 Y100.3802 E74.40965
G1 X139.5962 Y100.6120 E74.41368
G1 X139.6144 Y100.6212 E74.41401
G1 X139.8235 Y100.7045 E74.41766
G1 X140.0442 Y100.7482 E74.42131
G1 X140.2188 Y100.6913 E74.42429
G1 X140.2746 Y100.5195 E74.42722
G1 X140.2935 Y100.3398 E74.43015
G1 Y15.1814 E75.81176
G1 X140.3830 Y14.9516 E75.81577
G1 X140.4005 Y14.9430 E75.81608
G1 X140.6100 Y14.8633 E75.81972
G1 X140.8307 Y14.8235 E75.82336
G1 X141.0054 Y14.8832 E75.82635
G1 X141.0609 Y15.0561 E75.82930
G1 X141.0797 Y15.2368 E75.83225
G1 Y100.5410 E77.21622
G1 X141.1702 Y100.7665 E77.22016
G1 X141.1854 Y100.7734 E77.22043
G1 X141.3964 Y100.8458 E77.22405
G1 X141.6173 Y100.8769 E77.22767
G1 X141.7924 Y100.8111 E77.23071
G1 X141.8473 Y100.6353 E77.23370
G1 X141.8659 Y100.4521 E77.23668
G1 Y15.0796 E78.62177
G1 X141.9564 Y14.8542 E78.62571
G1 X141.9716 Y14.8473 E78.62598
G1 X142.1826 Y14.7749 E78.62960
G1 X142.4036 Y14.7439 E78.63322
G1 X142.5787 Y14.8097 E78.63625
G1 X142.6336 Y14.9855 E78.63924
G1 X142.6522 Y15.1688 E78.64223
G1 Y100.6108 E80.02844
G1 X142.7433 Y100.8331 E80.03234
G1 X142.7565 Y100.8387 E80.03257
G1 X142.9687 Y100.9060 E80.03618
G1 X143.1900 Y100.9309 E80.03980
G1 X143.3654 Y100.8606 E80.04286
G1 X143.4200 Y100.6826 E80.04588
G1 X143.4384 Y100.4973 E80.04890
G1 Y15.0331 E81.43548
G1 X143.5298 Y14.8125 E81.43935
G1 X143.5417 Y14.8075 E81.43956
G1 X143.7547 Y14.7429 E81.44317
G1 X143.9763 Y14.7211 E81.44678
G1 X144.1519 Y14.7939 E81.44987
G1 X144.2063 Y14.9732 E81.45291
G1 X144.2247 Y15.1597 E81.45595
G1 Y100.6227 E82.84250
G1 X144.3163 Y100.8422 E82.84636
G1 X144.3274 Y100.8467 E82.84655
G1 X144.5409 Y100.9095 E82.85016
G1 X144.7625 Y100.9292 E82.85377
G1 X144.9383 Y100.8548 E82.85687
G1 X144.9926 Y100.6747 E82.85992
G1 X145.0109 Y100.4874 E82.86298
G1 Y15.0411 E84.24926
G1 X145.1030 Y14.8254 E84.25306
G1 X145.1109 Y14.8225 E84.25320
G1 X145.3262 Y14.7655 E84.25681
G1 X145.5486 Y14.7528 E84.26042
G1 X145.7250 Y14.8328 E84.26357
G1 X145.7789 Y15.0161 E84.26667
G1 X145.7971 Y15.2063 E84.26977
G1 Y100.5799 E85.65487
G1 X145.8892 Y100.7956 E85.65867
G1 X145.8970 Y100.7985 E85.65881
G1 X146.1124 Y100.8555 E85.66242
G1 X146.3348 Y100.8682 E85.66604
G1 X146.5112 Y100.7882 E85.66918
G1 X146.5652 Y100.6048 E85.67228
G1 X146.5834 Y100.4146 E85.67538
G1 Y15.1105 E87.05935
G1 X146.6761 Y14.8989 E87.06310
G1 X146.6798 Y14.8976 E87.06317
G1 X146.8974 Y14.8468 E87.06679
G1 X147.1207 Y14.8417 E87.07041
G1 X147.2979 Y14.9279 E87.07361
G1 X147.3515 Y15.1148 E87.07677
G1 X147.3696 Y15.3085 E87.07992
G1 Y100.4821 E88.46178
G1 X147.4624 Y100.6928 E88.46551
G1 X147.4651 Y100.6937 E88.46556
G1 X147.6832 Y100.7431 E88.46919
G1 X147.9068 Y100.7465 E88.47282
G1 X148.0842 Y100.6588 E88.47603
G1 X148.1378 Y100.4710 E88.47920
G1 X148.1559 Y100.2764 E88.48237
G1 Y15.2435 E89.86194
G1 X148.2489 Y15.0349 E89.86565
G1 X148.4686 Y14.9883 E89.86928
G1 X148.6928 Y14.9885 E89.87292
G1 X148.8706 Y15.0793 E89.87616
G1 X148.9241 Y15.2690 E89.87936
G1 X148.9421 Y15.4654 E89.88256
G1 Y100.3290 E91.25938
G1 X149.0353 Y100.5345 E91.26304
G1 X149.2533 Y100.5756 E91.26664
G1 X149.4750 Y100.5697 E91.27024
G1 X149.6560 Y100.4726 E91.27357
G1 X149.7101 Y100.2769 E91.27687
G1 X149.7283 Y100.0748 E91.28016
G1 Y15.4321 E92.65340
G1 X149.8215 Y15.2266 E92.65706
G1 X150.0395 Y15.1855 E92.66066
G1 X150.2612 Y15.1913 E92.66426
G1 X150.4423 Y15.2885 E92.66759
G1 X150.4964 Y15.4842 E92.67089
G1 X150.5146 Y15.6864 E92.67418
G1 Y100.1185 E94.04401
G1 X150.6081 Y100.3188 E94.04760
G1 X150.8228 Y100.3515 E94.05112
G1 X151.0394 Y100.3369 E94.05464
G1 X151.2268 Y100.2283 E94.05815
G1 X151.2822 Y100.0215 E94.06163
G1 X151.3008 Y99.8082 E94.06510
G1 Y15.6773 E95.43004
G1 X151.3943 Y15.4770 E95.43363
G1 X151.6089 Y15.4444 E95.43715
G1 X151.8255 Y15.4591 E95.44067
G1 X152.0131 Y15.5679 E95.44419
G1 X152.0685 Y15.7749 E95.44767
G1 X152.0871 Y15.9885 E95.45114
G1 Y99.8376 E96.81151
G1 X152.1808 Y100.0336 E96.81504
G1 X152.3923 Y100.0594 E96.81849
G1 X152.6044 Y100.0379 E96.82195
G1 X152.7977 Y99.9188 E96.82564
G1 X152.8543 Y99.7014 E96.82928
G1 X152.8733 Y99.4776 E96.83292
G1 Y15.9801 E98.18759
G1 X152.9670 Y15.7852 E98.19110
G1 X153.1778 Y15.7609 E98.19454
G1 X153.3887 Y15.7840 E98.19798
G1 X153.5835 Y15.9057 E98.20171
G1 X153.6404 Y16.1257 E98.20539
G1 X153.6595 Y16.3522 E98.20908
G1 Y99.4793 E99.55774
G1 X153.7532 Y99.6725 E99.56122
G1 X153.9627 Y99.6942 E99.56464
G1 X154.1717 Y99.6685 E99.56805
G1 X154.3690 Y99.5423 E99.57185
G1 X154.4265 Y99.3177 E99.57561
G1 X154.4458 Y99.0867 E99.57938
G1 Y16.3424 E100.92182
G1 X154.5395 Y16.1530 E100.92525
G1 X154.7460 Y16.1367 E100.92861
G1 X154.9508 Y16.1678 E100.93197
G1 X155.1536 Y16.3043 E100.93593
G1 X155.2123 Y16.5391 E100.93986
G1 X155.2320 Y16.7804 E100.94379
G1 Y99.0953 E102.27927
G1 X155.3256 Y99.2812 E102.28264
G1 X155.5291 Y99.2925 E102.28595
G1 X155.7297 Y99.2564 E102.28926
G1 X155.9383 Y99.1095 E102.29340
G1 X155.9982 Y98.8641 E102.29749
G1 X156.0183 Y98.6123 E102.30159
G1 Y16.7705 E103.62939
G1 X156.1118 Y16.5859 E103.63275
G1 X156.3142 Y16.5764 E103.63604
G1 X156.5133 Y16.6141 E103.63933
G1 X156.7239 Y16.7649 E103.64353
G1 X156.7842 Y17.0142 E103.64769
G1 X156.8045 Y17.2699 E103.65185
G1 Y98.6184 E104.97165
G1 X156.8981 Y98.8043 E104.97503
G1 X157.1016 Y98.8155 E104.97833
G1 X157.3022 Y98.7795 E104.98164
G1 X157.5107 Y98.6327 E104.98578
G1 X157.5706 Y98.3873 E104.98987
G1 X157.5907 Y98.1355 E104.99397
G1 Y17.2689 E106.30595
G1 X157.6839 Y17.0894 E106.30923
G1 X157.8817 Y17.0866 E106.31244
G1 X158.0746 Y17.1308 E106.31565
G1 X158.0834 Y17.1340 E106.31580
G1 X158.2962 Y17.2963 E106.32015
G1 X158.3567 Y17.5546 E106.32445
G1 X158.3770 Y17.8192 E106.32876
G1 Y98.1123 E107.63143
G1 X158.4701 Y98.2906 E107.63470
G1 X158.6669 Y98.2920 E107.63789
G1 X158.8584 Y98.2465 E107.64108
G1 X158.8705 Y98.2420 E107.64129
G1 X159.0828 Y98.0779 E107.64565
G1 X159.1430 Y97.8188 E107.64996
G1 X159.1632 Y97.5536 E107.65428
G1 Y17.8560 E108.94729
G1 X159.2561 Y17.6797 E108.95052
G1 X159.4511 Y17.6808 E108.95369
G1 X159.6400 Y17.7287 E108.95685
G1 X159.6586 Y17.7358 E108.95717
G1 X159.8698 Y17.9031 E108.96154
G1 X159.9295 Y18.1635 E108.96588
G1 X159.9495 Y18.4299 E108.97021
G1 Y97.5194 E110.25336
G1 X160.0421 Y97.6920 E110.25654
G1 X160.2334 Y97.6865 E110.25964
G1 X160.4177 Y97.6345 E110.26275
G1 X160.4481 Y97.6217 E110.26329
G1 X160.6573 Y97.4486 E110.26769
G1 X160.7160 Y97.1858 E110.27206
G1 X160.7357 Y96.9172 E110.27643
G1 Y18.4709 E111.54914
G1 X160.8278 Y18.3022 E111.55226
G1 X161.0152 Y18.3123 E111.55530
G1 X161.1943 Y18.3684 E111.55835
G1 X161.2381 Y18.3884 E111.55913
G1 X161.4448 Y18.5676 E111.56357
G1 X161.5025 Y18.8329 E111.56797
G1 X161.5219 Y19.1037 E111.57238
G1 Y96.8551 E112.83382
G1 X161.6138 Y97.0219 E112.83691
G1 X161.7993 Y97.0098 E112.83992
G1 X161.9759 Y96.9519 E112.84294
G1 X162.0263 Y96.9280 E112.84384
G1 X162.2318 Y96.7461 E112.84830
G1 X162.2890 Y96.4797 E112.85272
G1 X162.3082 Y96.2079 E112.85714
G1 Y19.1892 E114.10669
G1 X162.4003 Y19.0205 E114.10981
G1 X162.5877 Y19.0306 E114.11285
G1 X162.7668 Y19.0867 E114.11589
G1 X162.8106 Y19.1067 E114.11668
G1 X163.0173 Y19.2859 E114.12111
G1 X163.0750 Y19.5512 E114.12552
G1 X163.0944 Y19.8220 E114.12992
G1 Y96.1098 E115.36762
G1 X163.1855 Y96.2715 E115.37063
G1 X163.3656 Y96.2541 E115.37356
G1 X163.5355 Y96.1915 E115.37650
G1 X163.6041 Y96.1556 E115.37776
G1 X163.8062 Y95.9660 E115.38225
G1 X163.8620 Y95.6966 E115.38672
G1 X163.8807 Y95.4221 E115.39118
G1 Y19.9567 E116.61553
G1 X163.9717 Y19.7958 E116.61853
G1 X164.1510 Y19.8140 E116.62145
G1 X164.3198 Y19.8772 E116.62438
G1 X164.3912 Y19.9150 E116.62569
G1 X164.5926 Y20.1057 E116.63019
G1 X164.6483 Y20.3755 E116.63466
G1 X164.6669 Y20.6504 E116.63913
G1 Y95.2830 E117.84997
G1 X164.7571 Y95.4396 E117.85290
G1 X164.9318 Y95.4173 E117.85576
G1 X165.0947 Y95.3506 E117.85862
G1 X165.1822 Y95.3007 E117.86025
G1 X165.3805 Y95.1037 E117.86478
G1 X165.4349 Y94.8315 E117.86929
G1 X165.4531 Y94.5545 E117.87379
G1 Y20.8222 E119.07002
G1 X165.5430 Y20.6671 E119.07293
G1 X165.7159 Y20.6909 E119.07576
G1 X165.8768 Y20.7588 E119.07860
G1 X165.9703 Y20.8136 E119.08035
G1 X166.1674 Y21.0128 E119.08490
G1 X166.2213 Y21.2859 E119.08942
G1 X166.2394 Y21.5637 E119.09393
G1 Y94.3723 E120.27518
G1 X166.3285 Y94.5234 E120.27803
G1 X166.4970 Y94.4962 E120.28080
G1 X166.6525 Y94.4256 E120.28357
G1 X166.7612 Y94.3576 E120.28565
G1 X166.9551 Y94.1530 E120.29022
G1 X167.0079 Y93.8778 E120.29477
G1 X167.0256 Y93.5981 E120.29931
G1 Y21.7754 E121.46456
G1 X167.1142 Y21.6265 E121.46738
G1 X167.2803 Y21.6555 E121.47011
G1 X167.4327 Y21.7275 E121.47285
G1 X167.5502 Y21.8037 E121.47512
G1 X167.7422 Y22.0113 E121.47971
G1 X167.7944 Y22.2877 E121.48427
G1 X167.8119 Y22.5684 E121.48883
G1 Y93.3702 E122.63752
G1 X167.8996 Y93.5155 E122.64027
G1 X168.0615 Y93.4835 E122.64295
G1 X168.2089 Y93.4093 E122.64563
G1 X168.3410 Y93.3185 E122.64823
G1 X168.5299 Y93.1059 E122.65284
G1 X168.5810 Y92.8277 E122.65743
G1 X168.5981 Y92.5454 E122.66202
G1 Y22.8379 E123.79296
G1 X168.6847 Y22.6972 E123.79564
G1 X168.8413 Y22.7324 E123.79824
G1 X168.9823 Y22.8089 E123.80084
G1 X169.1331 Y22.9200 E123.80388
G1 X169.3179 Y23.1385 E123.80853
G1 X169.3677 Y23.4190 E123.81315
G1 X169.3843 Y23.7033 E123.81777
G1 Y92.2689 E124.93018
G1 X169.4704 Y92.4079 E124.93283
G1 X169.6249 Y92.3715 E124.93541
G1 X169.7636 Y92.2942 E124.93798
G1 X169.9217 Y92.1746 E124.94120
G1 X170.1049 Y91.9538 E124.94585
G1 X170.1541 Y91.6726 E124.95048
G1 X170.1706 Y91.3876 E124.95512
G1 Y23.9961 E126.04847
G1 X170.2557 Y23.8605 E126.05107
G1 X170.5402 Y23.9778 E126.05607
G1 X170.7125 Y24.1147 E126.05964
G1 X170.8925 Y24.3398 E126.06431
G1 X170.9407 Y24.6226 E126.06897
G1 X170.9568 Y24.9090 E126.07362
G1 Y91.0596 E127.14685
G1 X171.0409 Y91.1918 E127.14939
G1 X171.3166 Y91.0712 E127.15427
G1 X171.5036 Y90.9151 E127.15822
G1 X171.6803 Y90.6858 E127.16292
G1 X171.7273 Y90.4015 E127.16760
G1 X171.7431 Y90.1137 E127.17227
G1 Y25.2750 E128.22421
G1 X171.8273 Y25.1426 E128.22676
G1 X172.1036 Y25.2629 E128.23165
G1 X172.2895 Y25.4176 E128.23557
G1 X172.4664 Y25.6466 E128.24027
G1 X172.5135 Y25.9308 E128.24494
G1 X172.5293 Y26.2185 E128.24962
G1 Y89.7304 E129.28003
G1 X172.6111 Y89.8554 E129.28246
G1 X172.8679 Y89.7291 E129.28710
G1 X173.0865 Y89.5268 E129.29193
G1 X173.2557 Y89.2888 E129.29667
G1 X173.3005 Y89.0014 E129.30139
G1 X173.3155 Y88.7108 E129.30611
G1 Y26.6530 E130.31294
G1 X173.3967 Y26.5295 E130.31533
G1 X173.6497 Y26.6568 E130.31993
G1 X173.8750 Y26.8696 E130.32496
G1 X174.0427 Y27.1094 E130.32970
G1 X174.0870 Y27.3974 E130.33443
G1 X174.1018 Y27.6885 E130.33916
G1 Y88.2602 E131.32188
G1 X174.3054 Y88.2789 E131.32519
G1 X174.4757 Y88.1687 E131.32848
G1 X174.6278 Y88.0346 E131.33177
G1 X174.6698 Y87.9917 E131.33275
G1 X174.8314 Y87.7456 E131.33752
G1 X174.8880 Y87.4567 E131.34230
G1 Y28.1995 E132.30369
G1 X175.0867 Y28.1836 E132.30692
G1 X175.2509 Y28.2938 E132.31013
G1 X175.3969 Y28.4271 E132.31334
G1 X175.4602 Y28.4943 E132.31484
G1 X175.6188 Y28.7433 E132.31963
G1 X175.6743 Y29.0333 E132.32442
G1 Y86.6226 E133.25875
G1 X175.8660 Y86.6348 E133.26186
G1 X176.0216 Y86.5249 E133.26495
G1 X176.1589 Y86.3929 E133.26804
G1 X176.2525 Y86.2883 E133.27032
G1 X176.4067 Y86.0353 E133.27513
G1 X176.4605 Y85.7438 E133.27994
G1 Y29.9117 E134.18576
G1 X176.6428 Y29.9041 E134.18872
G1 X176.7873 Y30.0130 E134.19165
G1 X176.9134 Y30.1427 E134.19459
G1 X177.0468 Y30.3026 E134.19797
G1 X177.1952 Y30.5609 E134.20280
G1 X177.2467 Y30.8542 E134.20763
G1 Y84.8014 E135.08287
G1 X177.4234 Y84.8065 E135.08574
G1 X177.5613 Y84.6984 E135.08858
G1 X177.6809 Y84.5704 E135.09142
G1 X177.8382 Y84.3737 E135.09551
G1 X177.9829 Y84.1124 E135.10035
G1 X178.0330 Y83.8180 E135.10520
G1 Y31.8380 E135.94852
G1 X178.2008 Y31.8366 E135.95124
G1 X178.3285 Y31.9430 E135.95394
G1 X178.4381 Y32.0679 E135.95664
G1 X178.6324 Y32.3280 E135.96190
G1 X178.7713 Y32.5938 E135.96677
G1 X178.8192 Y32.8899 E135.97164
G1 Y82.7663 E136.78083
G1 X178.9769 Y82.7641 E136.78339
G1 X179.0936 Y82.6601 E136.78593
G1 X179.1925 Y82.5391 E136.78846
G1 X179.4279 Y82.1990 E136.79517
G1 X179.5601 Y81.9283 E136.80006
G1 X179.6055 Y81.6305 E136.80495
G1 Y34.0247 E137.57730
G1 X179.8727 Y34.1230 E137.58192
G1 X180.2215 Y34.6586 E137.59229
G1 X180.3482 Y34.9330 E137.59720
G1 X180.3917 Y35.2321 E137.60210
G1 Y80.4233 E138.33528
G1 X180.6410 Y80.3249 E138.33963
G1 X181.0159 Y79.7077 E138.35135
G1 X181.1366 Y79.4295 E138.35627
G1 X181.1779 Y79.1290 E138.36119
G1 Y36.5266 E139.05237
G1 X181.4064 Y36.6242 E139.05640
G1 X181.8122 Y37.3517 E139.06991
G1 X181.9256 Y37.6342 E139.07485
G1 X181.9642 Y37.9362 E139.07979
G1 Y77.7204 E139.72525
G1 X182.1690 Y77.6250 E139.72892
G1 X182.6103 Y76.7468 E139.74486
G1 X182.7149 Y76.4596 E139.74982
G1 X182.7504 Y76.1560 E139.75478
G1 Y39.5618 E140.34848
G1 X182.9340 Y39.6541 E140.35182
G1 X183.4077 Y40.6972 E140.37040
G1 X183.5041 Y40.9884 E140.37538
G1 X183.5367 Y41.2933 E140.38036
G1 Y74.4186 E140.91778
G1 X183.6961 Y74.3314 E140.92073
G1 X184.2072 Y73.0520 E140.94308
G1 X184.2937 Y72.7567 E140.94807
G1 X184.3229 Y72.4503 E140.95307
G1 Y43.2062 E141.42752
G1 X184.4530 Y43.2850 E141.42999
G1 X185.0105 Y44.9596 E141.45863
G1 X185.0843 Y45.2596 E141.46364
G1 X185.1091 Y45.5676 E141.46865
G1 Y70.0880 E141.86647
G1 X185.2113 Y70.0198 E141.86846
G1 X185.8144 Y67.7754 E141.90617
G1 X185.8751 Y67.4714 E141.91120
G1 X185.8954 Y67.1621 E141.91623
G1 Y48.4936 E142.21910
G1 X185.9575 Y48.5415 E142.22038
G1 X186.6816 Y52.7405 E142.28951
G1 Y62.5027 E142.44789
G1 X186.7021 Y62.4840 E142.44834
G1 X186.9725 Y58.1267 E142.51917
G1 X186.9628 Y58.1349 E142.51922
G1 X186.2885 Y65.5665 E141.98734 F4800 ; AbsE -0.5319 (-5.70/-0.00 mm/s) 
G1 X186.0032 Y66.9823 E141.60958 F1080 ; AbsE -0.4012 (-5.00/-0.29 mm/s) 
G1 X186.0483 Y67.2190 E141.54656 ; AbsE -0.0669 (-5.00/-0.29 mm/s) 
; Shell
G1 X186.2554 Y67.3354 F4800 ;  Move Only (0.24 mm)
G1 X186.4810 Y67.4097 ;  Move Only (0.24 mm)
G1 X186.6734 Y67.5470 ;  Move Only (0.24 mm)
G1 X186.6863 Y67.7795 ;  Move Only (0.23 mm)
G1 X186.6529 Y68.0099 ;  Move Only (0.23 mm)
G1 X186.3158 Y69.3674 ;  Move Only (1.4 mm)
G1 X185.7636 Y71.2347 ;  Move Only (1.9 mm)
G1 X185.1304 Y73.0719 ;  Move Only (1.9 mm)
G1 X184.4149 Y74.8843 ;  Move Only (1.9 mm)
G1 X183.6209 Y76.6598 ;  Move Only (1.9 mm)
G1 X182.7490 Y78.3996 ;  Move Only (1.9 mm)
G1 X181.8003 Y80.1007 ;  Move Only (1.9 mm)
G1 X180.7795 Y81.7537 ;  Move Only (1.9 mm)
G1 X179.6844 Y83.3641 ;  Move Only (1.9 mm)
G1 X178.5183 Y84.9247 ;  Move Only (1.9 mm)
G1 X177.2893 Y86.4266 ;  Move Only (1.9 mm)
G1 X175.9877 Y87.8808 ;  Move Only (2 mm)
G1 X174.6293 Y89.2695 ;  Move Only (1.9 mm)
G1 X173.2080 Y90.5997 ;  Move Only (1.9 mm)
G1 X171.7290 Y91.8655 ;  Move Only (1.9 mm)
G1 X170.1984 Y93.0625 ;  Move Only (1.9 mm)
G1 X168.6126 Y94.1933 ;  Move Only (1.9 mm)
G1 X166.9789 Y95.2525 ;  Move Only (1.9 mm)
G1 X165.3019 Y96.2375 ;  Move Only (1.9 mm)
G1 X163.5834 Y97.1470 ;  Move Only (1.9 mm)
G1 X161.8216 Y97.9818 ;  Move Only (1.9 mm)
G1 X160.0304 Y98.7353 ;  Move Only (1.9 mm)
G1 X158.2083 Y99.4087 ;  Move Only (1.9 mm)
G1 X155.3497 Y100.2752 ;  Move Only (3 mm)
G1 X152.5711 Y100.9412 ;  Move Only (2.9 mm)
G1 X150.6600 Y101.2831 ;  Move Only (1.9 mm)
G1 X148.7303 Y101.5411 ;  Move Only (1.9 mm)
G1 X151.0687 Y118.2847 ;  Move Only (17 mm)
G1 X148.7303 Y101.5411 ;  Move Only (17 mm)
G1 X151.0255 Y117.9757 ;  Move Only (17 mm)
G1 X151.1425 Y118.2112 ;  Move Only (0.26 mm)
G1 X151.3839 Y118.3088 ;  Move Only (0.26 mm)
G1 X151.6378 Y118.3665 ;  Move Only (0.26 mm)
G1 X166.0577 Y120.4394 ;  Move Only (15 mm)
G1 X166.0140 Y120.3580 E141.56672 F1440 ; AbsE 0.0192 (5.00/-0.24 mm/s) 
G1 X164.5334 Y119.8298 E142.46100 F540 ; AbsE 0.8733 (5.00/-0.12 mm/s) 
G1 X164.3479 Y119.7753 E142.57100 ; AbsE 0.1074 (5.00/-0.12 mm/s) 
G1 X162.6635 Y119.2806 E142.59439 F1200
G1 X160.7637 Y118.8389 E142.62038
G1 X158.8439 Y118.5070 E142.64633
G1 X156.9087 Y118.2847 E142.67228
G1 X154.9624 Y118.1733 E142.69826
G1 X153.0150 E142.72420
G1 X151.0687 Y118.2847 E142.75017
G1 X149.1334 Y118.5070 E142.77612
G1 X147.2120 Y118.8392 E142.80210
G1 X145.3156 Y119.2801 E142.82804
G1 X143.4440 Y119.8298 E142.85403
G1 X141.6109 Y120.4838 E142.87996
G1 X139.8158 Y121.2424 E142.90592
G1 X138.0655 Y122.1029 E142.93191
G1 X136.3705 Y123.0603 E142.95784
G1 X134.7297 Y124.1145 E142.98382
G1 X133.1547 Y125.2591 E143.00976
G1 X131.6455 Y126.4930 E143.03573
G1 X130.2102 Y127.8104 E143.06169
G1 X128.8507 Y129.2091 E143.08768
G1 X127.5765 Y130.6799 E143.11360
G1 X126.3859 Y132.2239 E143.13958
G1 X125.2851 Y133.8337 E143.16556
G1 X124.2801 Y135.5008 E143.19149
G1 X123.3701 Y137.2246 E143.21746
G1 X122.5609 Y138.9967 E143.24341
G1 X121.8534 Y140.8135 E143.26939
G1 X121.2512 Y142.6672 E143.29536
G1 X120.7563 Y144.5501 E143.32129
G1 X120.3689 Y146.4626 E143.34729
G1 X120.0919 Y148.3872 E143.37319
G1 X119.9155 Y150.6713 E143.40372
G1 X119.8694 Y152.2790 E143.42514
G1 X119.9251 Y154.2269 E143.45110
G1 X120.0918 Y156.1676 E143.47705
G1 X120.3689 Y158.0948 E143.50299
G1 X120.7563 Y160.0072 E143.52899
G1 X121.2517 Y161.8917 E143.55495
G1 X121.8529 Y163.7422 E143.58087
G1 X122.5609 Y165.5605 E143.60687
G1 X123.3705 Y167.3332 E143.63283
G1 X124.2797 Y169.0560 E143.65878
G1 X125.2851 Y170.7236 E143.68473
G1 X126.3859 Y172.3334 E143.71071
G1 X127.5764 Y173.8774 E143.73668
G1 X128.8507 Y175.3482 E143.76261
G1 X130.2111 Y176.7477 E143.78861
G1 X131.6446 Y178.0635 E143.81453
G1 X133.1546 Y179.2982 E143.84052
G1 X134.7311 Y180.4435 E143.86648
G1 X136.3680 Y181.4955 E143.89240
G1 X138.0667 Y182.4547 E143.91839
G1 X139.8158 Y183.3146 E143.94436
G1 X141.6109 Y184.0734 E143.97032
G1 X143.4440 Y184.7276 E143.99625
G1 X145.3141 Y185.2765 E144.02222
G1 X147.2137 Y185.7182 E144.04820
G1 X149.1335 Y186.0504 E144.07416
G1 X151.0687 Y186.2726 E144.10011
G1 X153.0150 Y186.3839 E144.12608
G1 X154.9624 E144.15203
G1 X156.9087 Y186.2726 E144.17800
G1 X158.8438 Y186.0504 E144.20395
G1 X160.7636 Y185.7182 E144.22991
G1 X162.6633 Y185.2765 E144.25589
G1 X164.5334 Y184.7276 E144.28185
G1 X166.3665 Y184.0734 E144.30779
G1 X168.1631 Y183.3141 E144.33377
G1 X169.9092 Y182.4555 E144.35969
G1 X171.6081 Y181.4962 E144.38569
G1 X173.2475 Y180.4427 E144.41165
G1 X174.8227 Y179.2982 E144.43759
G1 X176.3317 Y178.0644 E144.46356
G1 X177.7672 Y176.7468 E144.48952
G1 X179.1265 Y175.3482 E144.51550
G1 X180.4010 Y173.8774 E144.54143
G1 X181.5916 Y172.3334 E144.56740
G1 X182.6922 Y170.7236 E144.59338
G1 X183.6978 Y169.0560 E144.61933
G1 X184.6068 Y167.3331 E144.64528
G1 X185.4165 Y165.5605 E144.67124
G1 X186.1238 Y163.7438 E144.69721
G1 X186.7260 Y161.8900 E144.72318
G1 X187.2209 Y160.0072 E144.74912
G1 X187.6085 Y158.0948 E144.77511
G1 X187.8857 Y156.1675 E144.80105
G1 X188.0524 Y154.2269 E144.82700
G1 X188.1080 Y152.2782 E144.85298
G1 X188.0524 Y150.3303 E144.87894
G1 X187.8856 Y148.3889 E144.90490
G1 X187.6085 Y146.4626 E144.93082
G1 X187.2207 Y144.5492 E144.95683
G1 X186.7260 Y142.6672 E144.98276
G1 X186.1238 Y140.8135 E145.00873
G1 X185.4165 Y138.9967 E145.03470
G1 X184.6069 Y137.2238 E145.06067
G1 X183.6974 Y135.5008 E145.08662
G1 X182.6922 Y133.8337 E145.11256
G1 X181.5911 Y132.2232 E145.13855
G1 X180.4009 Y130.6799 E145.16451
G1 X179.1265 Y129.2091 E145.19044
G1 X177.7672 Y127.8104 E145.21643
G1 X176.3317 Y126.4930 E145.24238
G1 X174.8227 Y125.2591 E145.26835
G1 X173.2475 Y124.1145 E145.29429
G1 X171.6068 Y123.0603 E145.32027
G1 X169.9104 Y122.1021 E145.34623
G1 X168.1631 Y121.2432 E145.37217
G1 X166.3665 Y120.4838 E145.39816
G1 X166.2528 Y120.7740 F4800 ;  Move Only (0.31 mm)
G1 X166.3665 Y120.4838 ;  Move Only (0.31 mm)
G1 X166.2005 Y120.6591 ;  Move Only (0.24 mm)
G1 X165.9627 Y120.6462 E145.40133 F1200
G1 X165.7318 Y120.5882 E145.40450
G1 X164.4379 Y120.1266 E145.42280
G1 X162.5834 Y119.5820 E145.44855
G1 X160.7000 Y119.1440 E145.47431
G1 X158.8011 Y118.8161 E145.49999
G1 X156.8805 Y118.5954 E145.52574
G1 X154.9535 Y118.4850 E145.55146
G1 X153.0236 E145.57717
G1 X151.0966 Y118.5954 E145.60288
G1 X149.1759 Y118.8161 E145.62864
G1 X147.2748 Y119.1447 E145.65434
G1 X145.3952 Y119.5815 E145.68005
G1 X143.5390 Y120.1266 E145.70582
G1 X141.7240 Y120.7740 E145.73150
G1 X139.9448 Y121.5261 E145.75723
G1 X138.2113 Y122.3785 E145.78297
G1 X136.5317 Y123.3270 E145.80867
G1 X134.9050 Y124.3723 E145.83443
G1 X133.3462 Y125.5051 E145.86010
G1 X131.8493 Y126.7289 E145.88586
G1 X130.4282 Y128.0332 E145.91155
G1 X129.0784 Y129.4217 E145.93735
G1 X127.8194 Y130.8752 E145.96297
G1 X126.6380 Y132.4073 E145.98875
G1 X125.5468 Y134.0034 E146.01451
G1 X124.5518 Y135.6537 E146.04018
G1 X123.6493 Y137.3632 E146.06593
G1 X122.8504 Y139.1129 E146.09156
G1 X122.8871 Y139.2352 E146.09326
G1 X122.9430 Y139.3083 E146.09449
G1 X122.9951 Y139.3557 E146.09542
G1 X123.0535 Y139.3462 E146.09621
G1 X125.4802 Y136.3921 E146.14715
G1 X125.6908 Y136.2796 E146.15033
G1 X125.9082 Y136.3698 E146.15346
G1 X126.1038 Y136.5006 E146.15660
G1 X141.4641 Y149.1181 E146.42142
G1 X141.7235 Y149.2651 E146.42540
G1 X142.0172 Y149.3161 E146.42937
G1 X154.6911 E146.59822
G1 X154.7854 Y149.2524 E146.59973
G1 X154.8313 Y149.1957 E146.60071
G1 X154.8590 Y149.1488 E146.60143
G1 X154.8485 Y149.0997 E146.60210
G1 X146.0384 Y140.6163 E146.76504
G1 X145.9429 Y140.3975 E146.76822
G1 X146.0499 Y140.1878 E146.77136
G1 X146.1957 Y140.0031 E146.77449
G1 X149.7070 Y136.3565 E146.84194
G1 X149.9258 Y136.2609 E146.84512
G1 X150.1354 Y136.3679 E146.84825
G1 X150.3201 Y136.5138 E146.85139
G1 X161.7908 Y147.5596 E147.06354
G1 X162.0181 Y147.6540 E147.06682
G1 X162.2374 Y147.5495 E147.07006
G1 X162.4336 Y147.4062 E147.07330
G1 X174.9368 Y136.3457 E147.29569
G1 X175.1626 Y136.2680 E147.29887
G1 X175.3630 Y136.3914 E147.30201
G1 X175.5355 Y136.5515 E147.30515
G1 X178.8902 Y140.3430 E147.37259
G1 X178.9679 Y140.5688 E147.37577
G1 X178.8445 Y140.7692 E147.37891
G1 X178.6844 Y140.9416 E147.38204
G1 X166.5312 Y151.6926 E147.59822
G1 X166.4341 Y151.9022 E147.60129
G1 X166.5420 Y152.1023 E147.60432
G1 X166.6886 Y152.2760 E147.60735
G1 X174.7726 Y160.0608 E147.75687
G1 X175.0199 Y160.2211 E147.76079
G1 X175.3093 Y160.2772 E147.76472
G1 X183.5440 E147.87443
G1 X183.7646 Y160.3686 E147.87761
G1 X183.8329 Y160.5938 E147.88075
G1 X183.8560 Y160.8280 E147.88388
G1 Y165.8901 E147.95132
G1 X183.7646 Y166.1107 E147.95450
G1 X183.5394 Y166.1790 E147.95764
G1 X183.3052 Y166.2021 E147.96077
G1 X181.3583 E147.98671
G1 X181.0712 Y166.2606 E147.99062
G1 X180.8394 Y166.4381 E147.99450
G1 X180.6266 Y166.6379 E147.99839
G1 X177.2028 Y170.1933 E148.06415
G1 X176.9840 Y170.2888 E148.06733
G1 X176.7744 Y170.1818 E148.07047
G1 X176.5897 Y170.0359 E148.07360
G1 X161.9098 Y155.8997 E148.34511
G1 X161.8252 Y155.8980 E148.34624
G1 X161.7663 Y155.9197 E148.34708
G1 X161.7249 Y155.9445 E148.34772
G1 X161.6868 Y155.9422 E148.34823
G1 X161.2731 Y155.4746 E148.35655
G1 X161.0388 Y155.3020 E148.36042
G1 X160.7527 Y155.2562 E148.36428
G1 X160.4633 Y155.2409 E148.36814
G1 X141.3413 E148.62290
G1 X141.0592 Y155.3042 E148.62675
G1 X140.8425 Y155.4935 E148.63057
G1 X140.6484 Y155.7049 E148.63440
G1 X140.6451 Y155.7089 E148.63447
G1 X140.4345 Y155.8215 E148.63765
G1 X140.2171 Y155.7313 E148.64078
G1 X140.0215 Y155.6005 E148.64392
G1 X122.3878 Y141.1163 E148.94794
G1 X122.1930 Y141.0765 E148.95058
G1 X122.0710 Y141.2279 E148.95317
G1 X121.9889 Y141.4042 E148.95577
G1 X121.5508 Y142.7536 E148.97467
G1 X121.0598 Y144.6216 E149.00040
G1 X120.6757 Y146.5170 E149.02616
G1 X120.4018 Y148.4204 E149.05178
G1 X120.2268 Y150.6879 E149.08208
G1 X120.1810 Y152.2790 E149.10329
G1 X120.2363 Y154.2089 E149.12901
G1 X120.4014 Y156.1324 E149.15473
G1 X120.6757 Y158.0401 E149.18041
G1 X121.0598 Y159.9353 E149.20617
G1 X121.5512 Y161.8049 E149.23192
G1 X122.1462 Y163.6368 E149.25758
G1 X122.8481 Y165.4383 E149.28334
G1 X123.6497 Y167.1948 E149.30906
G1 X124.5515 Y168.9029 E149.33480
G1 X125.5468 Y170.5534 E149.36048
G1 X126.6380 Y172.1496 E149.38624
G1 X127.8193 Y173.6817 E149.41201
G1 X129.0784 Y175.1350 E149.43763
G1 X130.4291 Y176.5246 E149.46344
G1 X131.8484 Y177.8272 E149.48911
G1 X133.3467 Y179.0525 E149.51490
G1 X134.9052 Y180.1848 E149.54056
G1 X136.5292 Y181.2282 E149.56628
G1 X138.2126 Y182.1788 E149.59203
G1 X139.9448 Y183.0305 E149.61775
G1 X141.7240 Y183.7827 E149.64348
G1 X143.5396 Y184.4305 E149.66917
G1 X145.3935 Y184.9746 E149.69491
G1 X147.2764 Y185.4124 E149.72066
G1 X149.1766 Y185.7411 E149.74635
G1 X151.0964 Y185.9617 E149.77210
G1 X153.0236 Y186.0721 E149.79782
G1 X154.9535 E149.82353
G1 X156.8805 Y185.9617 E149.84924
G1 X158.8001 Y185.7411 E149.87498
G1 X160.7004 Y185.4124 E149.90068
G1 X162.5833 Y184.9746 E149.92643
G1 X164.4378 Y184.4305 E149.95218
G1 X166.2528 Y183.7827 E149.97785
G1 X168.0337 Y183.0299 E150.00361
G1 X169.7630 Y182.1796 E150.02929
G1 X171.4465 Y181.2290 E150.05504
G1 X173.0728 Y180.1840 E150.08080
G1 X174.6300 Y179.0525 E150.10644
G1 X176.1275 Y177.8281 E150.13221
G1 X177.5497 Y176.5229 E150.15793
G1 X178.8967 Y175.1368 E150.18368
G1 X180.1585 Y173.6808 E150.20935
G1 X181.3399 Y172.1489 E150.23512
G1 X182.4293 Y170.5551 E150.26084
G1 X183.4262 Y168.9020 E150.28656
G1 X184.3267 Y167.1950 E150.31227
G1 X185.1288 Y165.4392 E150.33799
G1 X185.8301 Y163.6375 E150.36374
G1 X186.4268 Y161.8011 E150.38947
G1 X186.9168 Y159.9367 E150.41515
G1 X187.3011 Y158.0401 E150.44093
G1 X187.5757 Y156.1324 E150.46661
G1 X187.7408 Y154.2089 E150.49233
G1 X187.7959 Y152.2774 E150.51807
G1 X187.7408 Y150.3477 E150.54379
G1 X187.5756 Y148.4229 E150.56953
G1 X187.3012 Y146.5172 E150.59518
G1 X186.9166 Y144.6196 E150.62097
G1 X186.4259 Y142.7536 E150.64668
G1 X185.8301 Y140.9194 E150.67237
G1 X185.1288 Y139.1174 E150.69813
G1 X184.3268 Y137.3608 E150.72386
G1 X183.4254 Y135.6537 E150.74958
G1 X182.4298 Y134.0025 E150.77527
G1 X181.3387 Y132.4066 E150.80102
G1 X180.1583 Y130.8761 E150.82677
G1 X178.8975 Y129.4208 E150.85243
G1 X177.5488 Y128.0332 E150.87821
G1 X176.1275 Y126.7289 E150.90391
G1 X174.6309 Y125.5051 E150.92966
G1 X173.0719 Y124.3723 E150.95534
G1 X171.4453 Y123.3270 E150.98109
G1 X169.7641 Y122.3775 E151.00682
G1 X168.0337 Y121.5270 E151.03251
G1 X166.3896 Y120.8318 E151.05629
G1 X166.2770 Y120.8317 E151.05779
G1 X166.2527 Y120.8566 F4800 ;  Move Only (0.035 mm)
G1 X166.1920 Y120.9504 ;  Move Only (0.11 mm)
G1 X166.1548 Y121.0225 ;  Move Only (0.081 mm)
G1 X166.0962 Y121.0491 E151.05822 F1440
G1 X164.3427 Y120.4232 E151.08302 F1200
G1 X162.5034 Y119.8833 E151.10856
G1 X160.6380 Y119.4496 E151.13407
G1 X158.7566 Y119.1248 E151.15951
G1 X156.8522 Y118.9060 E151.18505
G1 X154.9444 Y118.7966 E151.21051
G1 X153.0322 E151.23598
G1 X151.1244 Y118.9060 E151.26144
G1 X149.2185 Y119.1252 E151.28700
G1 X147.3378 Y119.4501 E151.31243
G1 X145.4748 Y119.8829 E151.33791
G1 X143.6341 Y120.4232 E151.36346
G1 X141.8372 Y121.0642 E151.38888
G1 X140.0738 Y121.8098 E151.41439
G1 X138.3585 Y122.6534 E151.43985
G1 X136.6916 Y123.5946 E151.46536
G1 X135.0804 Y124.6300 E151.49087
G1 X133.5377 Y125.7510 E151.51628
G1 X132.0530 Y126.9647 E151.54183
G1 X130.6454 Y128.2568 E151.56728
G1 X129.3087 Y129.6314 E151.59283
G1 X128.0607 Y131.0724 E151.61822
G1 X126.8894 Y132.5914 E151.64378
G1 X125.8089 Y134.1722 E151.66929
G1 X124.8234 Y135.8065 E151.69471
G1 X124.2194 Y136.9507 E151.71195
G1 X124.2511 Y137.0756 E151.71367
G1 X124.3057 Y137.1526 E151.71493
G1 X124.3577 Y137.2031 E151.71589
G1 X124.4171 Y137.1942 E151.71669
G1 X125.4369 Y135.9531 E151.73809
G1 X125.6476 Y135.8406 E151.74127
G1 X125.8650 Y135.9308 E151.74441
G1 X126.0606 Y136.0616 E151.74754
G1 X141.5757 Y148.8061 E152.01504
G1 X141.8351 Y148.9531 E152.01901
G1 X142.1288 Y149.0041 E152.02298
G1 X153.9179 E152.18004
G1 X154.0122 Y148.9405 E152.18156
G1 X154.0581 Y148.8837 E152.18253
G1 X154.0857 Y148.8368 E152.18326
G1 X154.0752 Y148.7877 E152.18393
G1 X145.5974 Y140.6244 E152.34072
G1 X145.5019 Y140.4056 E152.34390
G1 X145.6089 Y140.1959 E152.34704
G1 X145.7547 Y140.0112 E152.35017
G1 X149.6983 Y135.9154 E152.42592
G1 X149.9171 Y135.8198 E152.42910
G1 X150.1267 Y135.9268 E152.43224
G1 X150.3114 Y136.0727 E152.43537
G1 X161.7994 Y147.1352 E152.64785
G1 X162.0267 Y147.2296 E152.65113
G1 X162.2460 Y147.1251 E152.65436
G1 X162.4422 Y146.9818 E152.65760
G1 X174.9635 Y135.9057 E152.88032
G1 X175.1893 Y135.8280 E152.88350
G1 X175.3897 Y135.9514 E152.88663
G1 X175.5622 Y136.1115 E152.88977
G1 X179.3301 Y140.3696 E152.96552
G1 X179.4079 Y140.5954 E152.96870
G1 X179.2845 Y140.7958 E152.97184
G1 X179.1244 Y140.9682 E152.97497
G1 X166.9907 Y151.7022 E153.19080
G1 X166.8936 Y151.9118 E153.19388
G1 X167.0015 Y152.1119 E153.19691
G1 X167.1481 Y152.2856 E153.19993
G1 X174.8978 Y159.7488 E153.34327
G1 X175.1451 Y159.9091 E153.34720
G1 X175.4345 Y159.9652 E153.35113
G1 X183.8556 E153.46332
G1 X184.0762 Y160.0566 E153.46650
G1 X184.1445 Y160.2818 E153.46963
G1 X184.1676 Y160.5160 E153.47277
G1 Y166.0813 E153.54691
G1 X184.2452 Y166.1776 E153.54856
G1 X184.3179 Y166.2225 E153.54970
G1 X184.3780 Y166.2467 E153.55056
G1 X184.4283 Y166.2215 E153.55131
G1 X184.8413 Y165.3175 E153.56455
G1 X185.5364 Y163.5317 E153.59008
G1 X186.1268 Y161.7142 E153.61554
G1 X186.6129 Y159.8647 E153.64102
G1 X186.9937 Y157.9855 E153.66656
G1 X187.2658 Y156.0967 E153.69199
G1 X187.4292 Y154.1910 E153.71747
G1 X187.4837 Y152.2770 E153.74298
G1 X187.4292 Y150.3653 E153.76846
G1 X187.2656 Y148.4571 E153.79397
G1 X186.9937 Y146.5717 E153.81935
G1 X186.6123 Y144.6887 E153.84495
G1 X186.1265 Y142.8412 E153.87040
G1 X185.5364 Y141.0247 E153.89584
G1 X184.8411 Y139.2381 E153.92138
G1 X184.0469 Y137.4986 E153.94686
G1 X183.1534 Y135.8065 E153.97235
G1 X182.1674 Y134.1713 E153.99779
G1 X181.0862 Y132.5900 E154.02331
G1 X179.9155 Y131.0724 E154.04885
G1 X178.6684 Y129.6323 E154.07423
G1 X177.3304 Y128.2560 E154.09980
G1 X175.9232 Y126.9647 E154.12524
G1 X174.4382 Y125.7504 E154.15080
G1 X172.8971 Y124.6305 E154.17618
G1 X171.2839 Y123.5938 E154.20173
G1 X169.6178 Y122.6529 E154.22722
G1 X167.9697 Y121.8430 E154.25168
G1 X167.9049 Y121.8111 E154.21251 F540 ; AbsE -0.0401 (-5.00/-0.12 mm/s) 
G1 X166.4258 Y121.1857 E153.34173 ; AbsE -0.8922 (-5.00/-0.12 mm/s) 
G1 X166.3070 Y121.2128 E153.27567 ; AbsE -0.0677 (-5.00/-0.12 mm/s) 
G1 X166.3562 Y121.4394 F4800 ;  Move Only (0.23 mm)
G1 X175.1438 Y136.5793 ;  Move Only (18 mm)
G1 X176.3365 Y137.9274 E154.29965 F540 ; AbsE 1.0000 (5.00/-0.12 mm/s) 
G1 X178.6568 Y140.5499 E154.34630 F1200
G1 X175.1438 Y136.5793 F4800 ;  Move Only (5.3 mm)
G1 X178.4501 Y140.3162 E154.41277 F1200
G1 X178.5278 Y140.5420 E154.41595
G1 X178.4044 Y140.7424 E154.41909
G1 X178.2443 Y140.9148 E154.42222
G1 X166.0718 Y151.6829 E154.63874
G1 X165.9747 Y151.8925 E154.64182
G1 X166.0826 Y152.0926 E154.64484
G1 X166.2292 Y152.2663 E154.64787
G1 X174.6473 Y160.3728 E154.80357
G1 X174.8946 Y160.5331 E154.80750
G1 X175.1840 Y160.5892 E154.81142
G1 X183.2324 E154.91865
G1 X183.4530 Y160.6806 E154.92183
G1 X183.5213 Y160.9058 E154.92497
G1 X183.5444 Y161.1400 E154.92810
G1 Y165.5786 E154.98723
G1 X183.4530 Y165.7992 E154.99042
G1 X183.2278 Y165.8675 E154.99355
G1 X182.9936 Y165.8906 E154.99669
G1 X180.7591 E155.02646
G1 X180.6649 Y165.9542 E155.02797
G1 X180.6190 Y166.0109 E155.02894
G1 X180.5914 Y166.0577 E155.02967
G1 X180.6019 Y166.1068 E155.03033
G1 X180.6039 Y166.2126 E155.03174
G1 X177.1947 Y169.7526 E155.09722
G1 X176.9759 Y169.8481 E155.10040
G1 X176.7663 Y169.7411 E155.10354
G1 X176.5815 Y169.5952 E155.10667
G1 X161.9107 Y155.4678 E155.37801
G1 X161.8368 Y155.4662 E155.37900
G1 X161.7854 Y155.4851 E155.37973
G1 X161.7492 Y155.5067 E155.38029
G1 X161.7160 Y155.5046 E155.38073
G1 X161.4138 Y155.1630 E155.38681
G1 X161.1796 Y154.9904 E155.39069
G1 X160.8935 Y154.9446 E155.39455
G1 X160.6041 Y154.9293 E155.39841
G1 X141.1939 E155.65700
G1 X140.9118 Y154.9926 E155.66085
G1 X140.8495 Y155.0413 E155.66191
G1 X140.6920 Y155.1788 E155.66469
G1 X140.5507 Y155.3328 E155.66748
G1 X140.3947 Y155.4161 E155.66983
G1 X140.2338 Y155.3493 E155.67215
G1 X140.0890 Y155.2525 E155.67447
G1 X122.5973 Y140.8848 E155.97604
G1 X122.4848 Y140.6742 E155.97922
G1 X122.5750 Y140.4568 E155.98236
G1 X122.7058 Y140.2612 E155.98549
G1 X125.5234 Y136.8310 E156.04463
G1 X125.7340 Y136.7185 E156.04782
G1 X125.9514 Y136.8087 E156.05095
G1 X126.1470 Y136.9395 E156.05409
G1 X141.3525 Y149.4299 E156.31625
G1 X141.6119 Y149.5769 E156.32022
G1 X141.9056 Y149.6279 E156.32419
G1 X155.4644 E156.50483
G1 X155.5587 Y149.5642 E156.50634
G1 X155.6046 Y149.5075 E156.50732
G1 X155.6323 Y149.4606 E156.50804
G1 X155.6218 Y149.4115 E156.50871
G1 X146.4795 Y140.6081 E156.67780
G1 X146.3840 Y140.3893 E156.68098
G1 X146.4910 Y140.1796 E156.68411
G1 X146.6368 Y139.9949 E156.68725
G1 X149.7156 Y136.7975 E156.74638
G1 X149.9344 Y136.7020 E156.74956
G1 X150.1440 Y136.8090 E156.75270
G1 X150.3287 Y136.9549 E156.75584
G1 X161.7821 Y147.9839 E156.96767
G1 X162.0094 Y148.0783 E156.97095
G1 X162.2287 Y147.9738 E156.97418
G1 X162.4249 Y147.8305 E156.97742
G1 X175.1438 Y136.5793 E157.20365
; Infill
G1 E156.20365 F300 ; AbsE -1.0000
G1 X178.6568 Y140.5499 F4800 ;  Move Only (5.3 mm)
G1 X175.1438 Y136.5793 ;  Move Only (5.3 mm)
G1 X178.4501 Y140.3162 ;  Move Only (5 mm)
G1 X178.6796 Y140.5153 ;  Move Only (0.3 mm)
G1 X178.9531 Y140.6477 ;  Move Only (0.3 mm)
G1 X179.3092 Y140.7652 ;  Move Only (0.38 mm)
G1 X179.5237 Y140.9222 ;  Move Only (0.27 mm)
G1 X179.5849 Y141.1782 E156.28107 F1080 ; AbsE 0.0731 (5.00/-0.29 mm/s) 
G1 X179.6055 Y141.4407 E156.35848 ; AbsE 0.0731 (5.00/-0.29 mm/s) 
G1 Y144.5141 E157.26206 ; AbsE 0.8537 (5.00/-0.29 mm/s) 
G1 Y159.4127 E157.50377 F1200
G1 X179.6969 Y159.6333 E157.50765
G1 X179.7089 Y159.6383 E157.50786
G1 X179.9218 Y159.7029 E157.51147
G1 X180.1433 Y159.7247 E157.51508
G1 X180.3189 Y159.6519 E157.51816
G1 X180.3733 Y159.4727 E157.52120
G1 X180.3917 Y159.2862 E157.52424
G1 Y132.3950 E157.96053
G1 X180.5576 Y132.3943 E157.96322
G1 X180.6832 Y132.5003 E157.96589
G1 X180.7908 Y132.6246 E157.96855
G1 X180.9928 Y132.8986 E157.97408
G1 X181.1304 Y133.1654 E157.97895
G1 X181.1779 Y133.4618 E157.98382
G1 Y159.4127 E158.40484
G1 X181.2693 Y159.6333 E158.40872
G1 X181.2812 Y159.6383 E158.40893
G1 X181.4942 Y159.7029 E158.41254
G1 X181.7158 Y159.7247 E158.41615
G1 X181.8914 Y159.6519 E158.41924
G1 X181.9458 Y159.4726 E158.42228
G1 X181.9642 Y159.2861 E158.42532
G1 Y134.6120 E158.82563
G1 X182.2117 Y134.7104 E158.82995
G1 X182.5893 Y135.3366 E158.84181
G1 X182.7094 Y135.6152 E158.84674
G1 X182.7504 Y135.9158 E158.85166
G1 Y159.4127 E159.23287
G1 X182.8418 Y159.6333 E159.23674
G1 X182.8537 Y159.6383 E159.23695
G1 X183.0667 Y159.7029 E159.24057
G1 X183.2883 Y159.7247 E159.24418
G1 X183.4639 Y159.6519 E159.24726
G1 X183.5183 Y159.4726 E159.25030
G1 X183.5367 Y159.2861 E159.25334
G1 Y137.3591 E159.60909
G1 X183.7321 Y137.4533 E159.61261
G1 X184.1877 Y138.4005 E159.62966
G1 X184.2889 Y138.6895 E159.63463
G1 X184.3239 Y138.9937 E159.63959
G1 X184.4077 Y165.6879 E160.07268
; Shell
G1 X184.3369 Y166.2048 F4800 ;  Move Only (0.52 mm)
G1 X184.2177 Y166.4258 ;  Move Only (0.25 mm)
G1 X183.9786 Y166.4917 E160.07599 F1200
G1 X183.7315 Y166.5139 E160.07929
G1 X181.4908 E160.10914
G1 X181.2037 Y166.5724 E160.11305
G1 X180.9719 Y166.7499 E160.11694
G1 X180.7591 Y166.9497 E160.12083
G1 X177.2109 Y170.6341 E160.18897
G1 X176.9921 Y170.7296 E160.19215
G1 X176.7825 Y170.6226 E160.19529
G1 X176.5978 Y170.4767 E160.19843
G1 X161.9094 Y156.3321 E160.47009
G1 X161.8140 Y156.3301 E160.47137
G1 X161.7476 Y156.3545 E160.47231
G1 X161.7009 Y156.3824 E160.47303
G1 X161.6579 Y156.3798 E160.47361
G1 X161.1325 Y155.7861 E160.48417
G1 X160.8982 Y155.6136 E160.48804
G1 X160.6121 Y155.5678 E160.49191
G1 X160.3227 Y155.5525 E160.49577
G1 X141.4886 E160.74668
G1 X141.2065 Y155.6158 E160.75054
G1 X140.9898 Y155.8051 E160.75437
G1 X140.7952 Y156.0170 E160.75820
G1 X140.6879 Y156.1477 E160.76046
G1 X140.4773 Y156.2602 E160.76364
G1 X140.2599 Y156.1700 E160.76677
G1 X140.0643 Y156.0392 E160.76991
G1 X122.5430 Y141.6473 E161.07199
G1 X122.3482 Y141.6075 E161.07464
G1 X122.2261 Y141.7589 E161.07723
G1 X122.1441 Y141.9352 E161.07982
G1 X121.8501 Y142.8406 E161.09250
G1 X121.3633 Y144.6933 E161.11802
G1 X120.9828 Y146.5713 E161.14355
G1 X120.7117 Y148.4536 E161.16888
G1 X120.5380 Y150.7045 E161.19896
G1 X120.4926 Y152.2790 E161.21995
G1 X120.5475 Y154.1910 E161.24543
G1 X120.7109 Y156.0972 E161.27092
G1 X120.9828 Y157.9854 E161.29633
G1 X121.3633 Y159.8634 E161.32186
G1 X121.8506 Y161.7181 E161.34741
G1 X122.4394 Y163.5315 E161.37281
G1 X123.1352 Y165.3160 E161.39833
G1 X123.9292 Y167.0565 E161.42381
G1 X124.8226 Y168.7488 E161.44931
G1 X125.8094 Y170.3849 E161.47476
G1 X126.8901 Y171.9659 E161.50028
G1 X128.0615 Y173.4853 E161.52584
G1 X129.3069 Y174.9229 E161.55118
G1 X130.6462 Y176.3005 E161.57677
G1 X132.0522 Y177.5911 E161.60220
G1 X133.5387 Y178.8067 E161.62778
G1 X135.0796 Y179.9261 E161.65316
G1 X136.6904 Y180.9609 E161.67866
G1 X138.3584 Y181.9028 E161.70418
G1 X140.0732 Y182.7460 E161.72964
G1 X141.8379 Y183.4921 E161.75517
G1 X143.6348 Y184.1333 E161.78058
G1 X145.4733 Y184.6729 E161.80611
G1 X147.3390 Y185.1067 E161.83163
G1 X149.2197 Y185.4319 E161.85706
G1 X151.1243 Y185.6508 E161.88260
G1 X153.0322 Y185.7601 E161.90806
G1 X154.9444 E161.93353
G1 X156.8522 Y185.6508 E161.95899
G1 X158.7565 Y185.4319 E161.98453
G1 X160.6390 Y185.1064 E162.00998
G1 X162.5019 Y184.6730 E162.03546
G1 X164.3419 Y184.1334 E162.06101
G1 X166.1384 Y183.4921 E162.08642
G1 X167.9049 Y182.7454 E162.11197
G1 X169.6164 Y181.9038 E162.13738
G1 X171.2856 Y180.9616 E162.16292
G1 X172.8981 Y179.9253 E162.18846
G1 X174.4375 Y178.8067 E162.21381
G1 X175.9232 Y177.5918 E162.23938
G1 X177.3313 Y176.2997 E162.26484
G1 X178.6679 Y174.9245 E162.29039
G1 X179.9170 Y173.4831 E162.31580
G1 X181.0874 Y171.9653 E162.34133
G1 X182.1664 Y170.3866 E162.36681
G1 X183.1546 Y168.7479 E162.39230
G1 X184.0466 Y167.0567 E162.41777
G1 X184.1649 Y166.7977 E162.42157
G1 X184.1427 Y166.6483 E162.42358
; Infill
G1 X183.8532 Y166.6536 F4800 ;  Move Only (0.29 mm)
G1 X183.8342 Y166.6596 ;  Move Only (0.02 mm)
G1 X183.6190 Y166.8141 ;  Move Only (0.26 mm)
G1 X183.5998 Y166.8729 E162.42458 F1200
G1 X183.5526 Y167.0683 E162.42784
G1 X183.5367 Y167.2687 E162.43111
G1 X183.5098 Y167.4851 E162.43464
G1 X183.4309 Y167.6884 E162.43818
G1 X182.8983 Y168.6777 E162.45641
G1 X182.7504 Y168.4879 E162.46031
G1 Y167.0658 E162.48339
G1 X182.6590 Y166.8452 E162.48726
G1 X182.6470 Y166.8402 E162.48747
G1 X182.4341 Y166.7756 E162.49108
G1 X182.2126 Y166.7538 E162.49469
G1 X182.0370 Y166.8266 E162.49778
G1 X181.9826 Y167.0058 E162.50082
G1 X181.9642 Y167.1923 E162.50386
G1 Y169.9442 E162.54850
G1 X181.9192 Y170.2423 E162.55339
G1 X181.7882 Y170.5138 E162.55828
G1 X181.3539 Y171.1495 E162.57077
G1 X181.2267 Y171.0591 E162.57331
G1 X181.1779 Y170.7548 E162.57831
G1 Y167.1723 E162.63643
G1 X180.9764 Y167.1548 E162.63971
G1 X180.8088 Y167.2650 E162.64297
G1 X180.6593 Y167.3988 E162.64622
G1 X180.6081 Y167.4520 E162.64742
G1 X180.4478 Y167.6993 E162.65220
G1 X180.3917 Y167.9887 E162.65698
G1 Y172.1620 E162.72469
G1 X180.3422 Y172.4569 E162.72954
G1 X180.1990 Y172.7194 E162.73439
G1 X179.7982 Y173.2301 E162.74492
G1 X179.6586 Y173.1257 E162.74775
G1 X179.6189 Y172.9576 E162.75055
G1 X179.6055 Y172.7854 E162.75336
G1 Y168.8051 E162.81793
G1 X179.4040 Y168.7876 E162.82121
G1 X179.2364 Y168.8978 E162.82447
G1 X179.0869 Y169.0316 E162.82772
G1 X179.0356 Y169.0849 E162.82892
G1 X178.8753 Y169.3322 E162.83370
G1 X178.8192 Y169.6216 E162.83849
G1 Y174.0710 E162.91067
G1 X178.7644 Y174.3615 E162.91547
G1 X178.6074 Y174.6121 E162.92027
G1 X178.2448 Y175.0040 E162.92893
G1 X178.0910 Y174.8815 E162.93212
G1 X178.0476 Y174.6914 E162.93528
G1 X178.0330 Y174.4969 E162.93845
G1 Y170.4380 E163.00430
G1 X177.8315 Y170.4205 E163.00758
G1 X177.6638 Y170.5307 E163.01084
G1 X177.5144 Y170.6645 E163.01409
G1 X177.4631 Y170.7177 E163.01529
G1 X177.3028 Y170.9650 E163.02007
G1 X177.2467 Y171.2544 E163.02485
G1 Y175.7300 E163.09747
G1 X177.1871 Y176.0160 E163.10221
G1 X177.0068 Y176.2445 E163.10693
G1 X176.8041 Y176.4532 E163.11165
G1 X176.6891 Y176.5601 E163.11420
G1 X176.5422 Y176.5852 E163.11661
G1 X176.4605 Y176.3115 E163.12125
G1 Y170.9901 E163.20758
G1 X176.4020 Y170.7030 E163.21234
G1 X176.2245 Y170.4712 E163.21707
G1 X176.0247 Y170.2584 E163.22181
G1 X175.8990 Y170.1374 E163.22464
G1 X175.7356 Y170.2735 E163.22809
G1 X175.6897 Y170.4795 E163.23151
G1 X175.6743 Y170.6899 E163.23494
G1 Y177.1730 E163.34012
G1 X175.6109 Y177.4549 E163.34481
G1 X175.4213 Y177.6713 E163.34947
G1 X175.2091 Y177.8654 E163.35414
G1 X175.1295 Y177.9305 E163.35581
G1 X174.9725 Y177.9496 E163.35837
G1 X174.8880 Y177.6579 E163.36330
G1 Y169.4757 E163.49605
G1 X174.8295 Y169.1886 E163.50080
G1 X174.6520 Y168.9568 E163.50554
G1 X174.4522 Y168.7440 E163.51027
G1 X174.3265 Y168.6230 E163.51310
G1 X174.1631 Y168.7591 E163.51655
G1 X174.1172 Y168.9651 E163.51998
G1 X174.1018 Y169.1755 E163.52340
G1 Y178.4418 E163.67374
G1 X174.0351 Y178.7198 E163.67838
G1 X173.8379 Y178.9248 E163.68299
G1 X173.6181 Y179.1052 E163.68760
G1 X173.5679 Y179.1416 E163.68861
G1 X173.4023 Y179.1547 E163.69130
G1 X173.3376 Y179.0068 E163.69392
G1 X173.3155 Y178.8469 E163.69654
G1 Y167.9614 E163.87315
G1 X173.2570 Y167.6743 E163.87790
G1 X173.0795 Y167.4425 E163.88264
G1 X172.8797 Y167.2297 E163.88737
G1 X172.7540 Y167.1087 E163.89020
G1 X172.5906 Y167.2448 E163.89366
G1 X172.5447 Y167.4508 E163.89708
G1 X172.5293 Y167.6612 E163.90050
G1 Y179.5645 E164.09362
G1 X172.4594 Y179.8383 E164.09821
G1 X172.2555 Y180.0316 E164.10276
G1 X172.0291 Y180.1979 E164.10732
G1 X172.0056 Y180.2130 E164.10778
G1 X171.8318 Y180.2192 E164.11060
G1 X171.7657 Y180.0635 E164.11334
G1 X171.7431 Y179.8958 E164.11609
G1 Y166.4472 E164.33428
G1 X171.6846 Y166.1601 E164.33903
G1 X171.5071 Y165.9283 E164.34377
G1 X171.3073 Y165.7155 E164.34850
G1 X171.1815 Y165.5944 E164.35133
G1 X171.0181 Y165.7305 E164.35479
G1 X170.9722 Y165.9365 E164.35821
G1 X170.9568 Y166.1469 E164.36163
G1 Y180.5591 E164.59546
G1 X170.8839 Y180.8285 E164.59998
G1 X170.6740 Y181.0097 E164.60448
G1 X170.4420 Y181.1617 E164.60898
G1 X170.2608 Y181.1604 E164.61192
G1 X170.1935 Y180.9971 E164.61479
G1 X170.1706 Y180.8220 E164.61765
G1 Y164.9329 E164.87544
G1 X170.1121 Y164.6458 E164.88019
G1 X169.9346 Y164.4140 E164.88493
G1 X169.7348 Y164.2012 E164.88966
G1 X169.6090 Y164.0800 E164.89250
G1 X169.4456 Y164.2161 E164.89595
G1 X169.3997 Y164.4221 E164.89937
G1 X169.3843 Y164.6325 E164.90279
G1 Y181.4382 E165.17545
G1 X169.3086 Y181.7031 E165.17992
G1 X169.3035 Y181.7076 E165.18003
G1 X169.0938 Y181.8724 E165.18436
G1 X168.8633 Y182.0064 E165.18868
G1 X168.6848 Y181.9975 E165.19158
G1 X168.6201 Y181.8356 E165.19441
G1 X168.5981 Y181.6627 E165.19724
G1 Y163.4185 E165.49323
G1 X168.5396 Y163.1314 E165.49798
G1 X168.3621 Y162.8996 E165.50272
G1 X168.1623 Y162.6868 E165.50746
G1 X168.0366 Y162.5658 E165.51029
G1 X167.8732 Y162.7019 E165.51374
G1 X167.8273 Y162.9079 E165.51716
G1 X167.8119 Y163.1183 E165.52058
G1 Y182.2114 E165.83035
G1 X167.7335 Y182.4715 E165.83476
G1 X167.7231 Y182.4802 E165.83498
G1 X167.5147 Y182.6288 E165.83913
G1 X167.2870 Y182.7455 E165.84328
G1 X167.1098 Y182.7291 E165.84617
G1 X167.0470 Y182.5669 E165.84899
G1 X167.0256 Y182.3944 E165.85181
G1 Y161.9042 E166.18424
G1 X166.9671 Y161.6171 E166.18900
G1 X166.7896 Y161.3853 E166.19373
G1 X166.5898 Y161.1725 E166.19847
G1 X166.4641 Y161.0515 E166.20130
G1 X166.3007 Y161.1876 E166.20475
G1 X166.2548 Y161.3936 E166.20817
G1 X166.2394 Y161.6040 E166.21160
G1 Y182.8763 E166.55672
G1 X166.1591 Y183.1325 E166.56108
G1 X166.1453 Y183.1433 E166.56136
G1 X165.9377 Y183.2805 E166.56540
G1 X165.7118 Y183.3848 E166.56943
G1 X165.5355 Y183.3626 E166.57232
G1 X165.4740 Y183.2000 E166.57514
G1 X165.4531 Y183.0274 E166.57796
G1 Y160.3899 E166.94523
G1 X165.3946 Y160.1028 E166.94998
G1 X165.2171 Y159.8710 E166.95472
G1 X165.0173 Y159.6582 E166.95946
G1 X164.8916 Y159.5372 E166.96229
G1 X164.7282 Y159.6733 E166.96574
G1 X164.6823 Y159.8793 E166.96916
G1 X164.6669 Y160.0897 E166.97258
G1 Y183.4499 E167.35158
G1 X164.5849 Y183.7024 E167.35589
G1 X164.5685 Y183.7143 E167.35621
G1 X164.3615 Y183.8414 E167.36016
G1 X164.1371 Y183.9345 E167.36410
G1 X163.9615 Y183.9067 E167.36698
G1 X163.9012 Y183.7434 E167.36981
G1 X163.8807 Y183.5705 E167.37263
G1 Y158.8756 E167.77328
G1 X163.8222 Y158.5885 E167.77804
G1 X163.6447 Y158.3567 E167.78277
G1 X163.4449 Y158.1439 E167.78751
G1 X163.3191 Y158.0228 E167.79034
G1 X163.1557 Y158.1589 E167.79379
G1 X163.1098 Y158.3649 E167.79721
G1 X163.0944 Y158.5753 E167.80064
G1 Y183.9367 E168.21210
G1 X163.0109 Y184.1856 E168.21636
G1 X162.9928 Y184.1980 E168.21672
G1 X162.7859 Y184.3160 E168.22058
G1 X162.5628 Y184.3992 E168.22444
G1 X162.3876 Y184.3663 E168.22734
G1 X162.3283 Y184.2020 E168.23017
G1 X162.3082 Y184.0285 E168.23300
G1 Y157.3613 E168.66565
G1 X162.2361 Y157.0906 E168.67020
G1 X162.0278 Y156.9060 E168.67471
G1 X161.7973 Y156.7501 E168.67923
G1 X161.7911 Y156.7465 E168.67934
G1 X161.6118 Y156.7456 E168.68225
G1 X161.5448 Y156.9069 E168.68509
G1 X161.5219 Y157.0801 E168.68792
G1 Y184.3423 E169.13022
G1 X161.4367 Y184.5866 E169.13442
G1 X161.4173 Y184.5989 E169.13479
G1 X161.2104 Y184.7067 E169.13858
G1 X160.9883 Y184.7784 E169.14236
G1 X160.8136 Y184.7391 E169.14527
G1 X160.7554 Y184.5733 E169.14812
G1 X160.7357 Y184.3987 E169.15097
G1 Y156.1044 E169.61002
G1 X160.6443 Y155.8838 E169.61389
G1 X160.6323 Y155.8788 E169.61410
G1 X160.4194 Y155.8142 E169.61771
G1 X160.1979 Y155.7924 E169.62132
G1 X160.0223 Y155.8652 E169.62441
G1 X159.9679 Y156.0444 E169.62745
G1 X159.9495 Y156.2309 E169.63049
G1 Y184.6697 E170.09188
G1 X159.8624 Y184.9084 E170.09600
G1 X159.8428 Y184.9196 E170.09637
G1 X159.6352 Y185.0157 E170.10008
G1 X159.4140 Y185.0742 E170.10379
G1 X159.2395 Y185.0269 E170.10672
G1 X159.1825 Y184.8587 E170.10961
G1 X159.1632 Y184.6821 E170.11249
G1 Y156.1044 E170.57613
G1 X159.0718 Y155.8838 E170.58001
G1 X159.0598 Y155.8788 E170.58022
G1 X158.8469 Y155.8142 E170.58383
G1 X158.6254 Y155.7924 E170.58744
G1 X158.4498 Y155.8652 E170.59052
G1 X158.3954 Y156.0444 E170.59356
G1 X158.3770 Y156.2309 E170.59660
G1 Y184.9215 E171.06208
G1 X158.2883 Y185.1544 E171.06612
G1 X158.2697 Y185.1640 E171.06646
G1 X158.0610 Y185.2492 E171.07012
G1 X157.8402 Y185.2953 E171.07378
G1 X157.6656 Y185.2400 E171.07675
G1 X157.6096 Y185.0688 E171.07967
G1 X157.5907 Y184.8897 E171.08259
G1 Y156.1044 E171.54961
G1 X157.4993 Y155.8838 E171.55348
G1 X157.4873 Y155.8788 E171.55369
G1 X157.2744 Y155.8142 E171.55730
G1 X157.0529 Y155.7924 E171.56091
G1 X156.8773 Y155.8652 E171.56400
G1 X156.8229 Y156.0444 E171.56704
G1 X156.8045 Y156.2309 E171.57007
G1 Y185.1009 E172.03846
G1 X156.7143 Y185.3277 E172.04242
G1 X156.6983 Y185.3352 E172.04271
G1 X156.4878 Y185.4099 E172.04633
G1 X156.2670 Y185.4437 E172.04996
G1 X156.0920 Y185.3798 E172.05298
G1 X156.0369 Y185.2050 E172.05595
G1 X156.0183 Y185.0226 E172.05893
G1 Y156.1044 E172.52810
G1 X155.9269 Y155.8838 E172.53197
G1 X155.9150 Y155.8788 E172.53218
G1 X155.7020 Y155.8142 E172.53579
G1 X155.4804 Y155.7924 E172.53940
G1 X155.3048 Y155.8652 E172.54249
G1 X155.2504 Y156.0445 E172.54553
G1 X155.2320 Y156.2310 E172.54857
G1 Y185.1909 E173.01841
G1 X155.1410 Y185.4139 E173.02232
G1 X155.1274 Y185.4198 E173.02256
G1 X154.9154 Y185.4882 E173.02618
G1 X154.6942 Y185.5145 E173.02979
G1 X154.5189 Y185.4451 E173.03285
G1 X154.4643 Y185.2676 E173.03586
G1 X154.4458 Y185.0828 E173.03888
G1 Y156.1044 E173.50902
G1 X154.3544 Y155.8838 E173.51289
G1 X154.3425 Y155.8788 E173.51310
G1 X154.1295 Y155.8142 E173.51672
G1 X153.9079 Y155.7924 E173.52033
G1 X153.7323 Y155.8652 E173.52341
G1 X153.6779 Y156.0445 E173.52645
G1 X153.6595 Y156.2310 E173.52949
G1 Y185.2078 E173.99961
G1 X153.5679 Y185.4271 E174.00347
G1 X153.5569 Y185.4315 E174.00366
G1 X153.3434 Y185.4940 E174.00727
G1 X153.1217 Y185.5133 E174.01088
G1 X152.9459 Y185.4386 E174.01398
G1 X152.8916 Y185.2583 E174.01704
G1 X152.8733 Y185.0708 E174.02009
G1 Y156.1044 E174.49004
G1 X152.7819 Y155.8838 E174.49392
G1 X152.7699 Y155.8788 E174.49413
G1 X152.5570 Y155.8142 E174.49774
G1 X152.3355 Y155.7924 E174.50135
G1 X152.1599 Y155.8652 E174.50443
G1 X152.1055 Y156.0444 E174.50747
G1 X152.0871 Y156.2309 E174.51051
G1 Y185.1533 E174.97975
G1 X151.9948 Y185.3675 E174.98353
G1 X151.9884 Y185.3699 E174.98364
G1 X151.7722 Y185.4246 E174.98726
G1 X151.5495 Y185.4345 E174.99088
G1 X151.3728 Y185.3523 E174.99404
G1 X151.3190 Y185.1677 E174.99716
G1 X151.3008 Y184.9763 E175.00028
G1 Y156.1044 E175.46870
G1 X151.2094 Y155.8838 E175.47257
G1 X151.1974 Y155.8788 E175.47278
G1 X150.9845 Y155.8142 E175.47639
G1 X150.7630 Y155.7924 E175.48000
G1 X150.5874 Y155.8652 E175.48309
G1 X150.5330 Y156.0444 E175.48613
G1 X150.5146 Y156.2309 E175.48917
G1 Y185.0269 E175.95635
G1 X150.4215 Y185.2345 E175.96004
G1 X150.2023 Y185.2793 E175.96367
G1 X149.9786 Y185.2772 E175.96730
G1 X149.8000 Y185.1845 E175.97057
G1 X149.7464 Y184.9931 E175.97379
G1 X149.7283 Y184.7952 E175.97702
G1 Y156.1044 E176.44250
G1 X149.6369 Y155.8838 E176.44637
G1 X149.6249 Y155.8788 E176.44658
G1 X149.4120 Y155.8142 E176.45019
G1 X149.1905 Y155.7924 E176.45380
G1 X149.0149 Y155.8652 E176.45689
G1 X148.9605 Y156.0444 E176.45993
G1 X148.9421 Y156.2309 E176.46297
G1 Y184.8279 E176.92692
G1 X148.8486 Y185.0288 E176.93052
G1 X148.6335 Y185.0625 E176.93405
G1 X148.4163 Y185.0489 E176.93758
G1 X148.2297 Y184.9418 E176.94108
G1 X148.1745 Y184.7364 E176.94453
G1 X148.1559 Y184.5245 E176.94798
G1 Y156.1044 E177.40906
G1 X148.0645 Y155.8838 E177.41294
G1 X148.0526 Y155.8788 E177.41315
G1 X147.8396 Y155.8142 E177.41676
G1 X147.6180 Y155.7924 E177.42037
G1 X147.4424 Y155.8652 E177.42346
G1 X147.3880 Y156.0445 E177.42650
G1 X147.3696 Y156.2310 E177.42954
G1 Y184.5550 E177.88907
G1 X147.2759 Y184.7490 E177.89256
G1 X147.0658 Y184.7720 E177.89599
G1 X146.8558 Y184.7475 E177.89942
G1 X146.6598 Y184.6235 E177.90318
G1 X146.6026 Y184.4012 E177.90691
G1 X146.5834 Y184.1725 E177.91063
G1 Y156.1044 E178.36601
G1 X146.4920 Y155.8838 E178.36988
G1 X146.4801 Y155.8788 E178.37009
G1 X146.2671 Y155.8142 E178.37370
G1 X146.0455 Y155.7924 E178.37731
G1 X145.8699 Y155.8652 E178.38040
G1 X145.8155 Y156.0445 E178.38344
G1 X145.7971 Y156.2310 E178.38648
G1 Y184.1894 E178.84008
G1 X145.7034 Y184.3787 E178.84351
G1 X145.4970 Y184.3949 E178.84686
G1 X145.2923 Y184.3636 E178.85022
G1 X145.0893 Y184.2268 E178.85419
G1 X145.0306 Y183.9917 E178.85813
G1 X145.0109 Y183.7502 E178.86206
G1 Y156.1044 E179.31058
G1 X144.9195 Y155.8838 E179.31446
G1 X144.9075 Y155.8788 E179.31467
G1 X144.6946 Y155.8142 E179.31828
G1 X144.4731 Y155.7924 E179.32189
G1 X144.2975 Y155.8652 E179.32497
G1 X144.2431 Y156.0444 E179.32801
G1 X144.2247 Y156.2309 E179.33105
G1 Y183.7440 E179.77743
G1 X144.1312 Y183.9285 E179.78078
G1 X143.9289 Y183.9379 E179.78407
G1 X143.7298 Y183.9000 E179.78735
G1 X143.5191 Y183.7490 E179.79156
G1 X143.4587 Y183.4994 E179.79573
G1 X143.4384 Y183.2433 E179.79990
G1 Y156.1044 E180.24020
G1 X143.3470 Y155.8838 E180.24407
G1 X143.3350 Y155.8788 E180.24428
G1 X143.1221 Y155.8142 E180.24789
G1 X142.9006 Y155.7924 E180.25150
G1 X142.7250 Y155.8652 E180.25459
G1 X142.6706 Y156.0444 E180.25763
G1 X142.6522 Y156.2309 E180.26067
G1 Y183.2156 E180.69847
G1 X142.5590 Y183.3948 E180.70174
G1 X142.3614 Y183.3973 E180.70495
G1 X142.1689 Y183.3528 E180.70816
G1 X142.1593 Y183.3493 E180.70832
G1 X141.9466 Y183.1866 E180.71267
G1 X141.8862 Y182.9281 E180.71697
G1 X141.8659 Y182.6634 E180.72128
G1 Y156.1044 E181.15217
G1 X141.7725 Y155.9211 E181.15551
G1 X141.5711 Y155.9133 E181.15878
G1 X141.3736 Y155.9527 E181.16205
G1 X141.1609 Y156.1073 E181.16632
G1 X141.1001 Y156.3606 E181.17054
G1 X141.0797 Y156.6203 E181.17477
G1 Y182.5987 E181.59624
G1 X140.9872 Y182.7711 E181.59942
G1 X140.7960 Y182.7653 E181.60252
G1 X140.6121 Y182.7130 E181.60562
G1 X140.5809 Y182.6998 E181.60617
G1 X140.3719 Y182.5263 E181.61058
G1 X140.3132 Y182.2634 E181.61495
G1 X140.2935 Y181.9947 E181.61932
G1 Y156.8506 E182.02726
G1 X140.2302 Y156.5685 E182.03195
G1 X140.0410 Y156.3517 E182.03662
G1 X139.8290 Y156.1571 E182.04128
G1 X139.7483 Y156.0908 E182.04298
G1 X139.5917 Y156.0715 E182.04554
G1 X139.5072 Y156.3626 E182.05046
G1 Y181.8880 E182.46458
G1 X139.4156 Y182.0529 E182.46764
G1 X139.2321 Y182.0388 E182.47063
G1 X139.0579 Y181.9791 E182.47362
G1 X139.0010 Y181.9511 E182.47465
G1 X138.7967 Y181.7663 E182.47911
G1 X138.7400 Y181.4987 E182.48355
G1 X138.7210 Y181.2259 E182.48799
G1 Y155.5590 E182.90441
G1 X138.6577 Y155.2769 E182.90910
G1 X138.4685 Y155.0601 E182.91377
G1 X138.2565 Y154.8655 E182.91844
G1 X138.1758 Y154.7991 E182.92013
G1 X138.0192 Y154.7798 E182.92269
G1 X137.9347 Y155.0709 E182.92761
G1 Y181.0757 E183.34951
G1 X137.8444 Y181.2330 E183.35245
G1 X137.6690 Y181.2113 E183.35532
G1 X137.5051 Y181.1451 E183.35819
G1 X137.4202 Y181.0971 E183.35977
G1 X137.2214 Y180.9012 E183.36430
G1 X137.1668 Y180.6293 E183.36880
G1 X137.1485 Y180.3526 E183.37330
G1 Y154.2673 E183.79651
G1 X137.0852 Y153.9852 E183.80120
G1 X136.8960 Y153.7684 E183.80586
G1 X136.6840 Y153.5738 E183.81053
G1 X136.6034 Y153.5075 E183.81223
G1 X136.4468 Y153.4882 E183.81479
G1 X136.3623 Y153.7793 E183.81971
G1 Y180.1526 E184.24759
G1 X136.2736 Y180.3021 E184.25041
G1 X136.1068 Y180.2736 E184.25315
G1 X135.9536 Y180.2019 E184.25590
G1 X135.8385 Y180.1280 E184.25812
G1 X135.6459 Y179.9211 E184.26270
G1 X135.5935 Y179.6451 E184.26726
G1 X135.5760 Y179.3647 E184.27182
G1 Y152.9756 E184.69995
G1 X135.5127 Y152.6935 E184.70464
G1 X135.3235 Y152.4767 E184.70931
G1 X135.1115 Y152.2821 E184.71398
G1 X135.0309 Y152.2158 E184.71567
G1 X134.8743 Y152.1965 E184.71823
G1 X134.7898 Y152.4876 E184.72315
G1 Y179.1065 E185.15502
G1 X134.7030 Y179.2482 E185.15771
G1 X134.5453 Y179.2136 E185.16033
G1 X134.4029 Y179.1376 E185.16295
G1 X134.2560 Y179.0309 E185.16590
G1 X134.0703 Y178.8136 E185.17054
G1 X134.0202 Y178.5336 E185.17515
G1 X134.0035 Y178.2497 E185.17976
G1 Y151.6839 E185.61077
G1 X133.9402 Y151.4018 E185.61546
G1 X133.7510 Y151.1850 E185.62013
G1 X133.5390 Y150.9904 E185.62480
G1 X133.4584 Y150.9241 E185.62649
G1 X133.3018 Y150.9048 E185.62905
G1 X133.2173 Y151.1959 E185.63397
G1 Y177.9218 E186.06757
G1 X133.1328 Y178.0554 E186.07013
G1 X132.8533 Y177.9362 E186.07506
G1 X132.6726 Y177.7884 E186.07885
G1 X132.4945 Y177.5608 E186.08354
G1 X132.4470 Y177.2771 E186.08821
G1 X132.4311 Y176.9899 E186.09287
G1 Y150.3923 E186.52439
G1 X132.3678 Y150.1102 E186.52908
G1 X132.1786 Y149.8934 E186.53375
G1 X131.9666 Y149.6988 E186.53842
G1 X131.8859 Y149.6324 E186.54011
G1 X131.7293 Y149.6131 E186.54268
G1 X131.6448 Y149.9042 E186.54759
G1 Y176.5792 E186.98037
G1 X131.5629 Y176.7047 E186.98280
G1 X131.3046 Y176.5788 E186.98746
G1 X131.0884 Y176.3803 E186.99222
G1 X130.9186 Y176.1429 E186.99696
G1 X130.8736 Y175.8557 E187.00167
G1 X130.8586 Y175.5654 E187.00639
G1 Y149.1007 E187.43575
G1 X130.7953 Y148.8186 E187.44045
G1 X130.6061 Y148.6018 E187.44511
G1 X130.3941 Y148.4072 E187.44978
G1 X130.3134 Y148.3408 E187.45148
G1 X130.1568 Y148.3215 E187.45404
G1 X130.0723 Y148.6126 E187.45896
G1 Y175.0536 E187.88794
G1 X129.8736 Y175.0695 E187.89117
G1 X129.7094 Y174.9593 E187.89438
G1 X129.5634 Y174.8260 E187.89759
G1 X129.5002 Y174.7590 E187.89908
G1 X129.3416 Y174.5100 E187.90387
G1 X129.2861 Y174.2200 E187.90866
G1 Y147.8090 E188.33715
G1 X129.2228 Y147.5269 E188.34184
G1 X129.0336 Y147.3101 E188.34651
G1 X128.8216 Y147.1155 E188.35118
G1 X128.7410 Y147.0492 E188.35287
G1 X128.5844 Y147.0299 E188.35543
G1 X128.4999 Y147.3210 E188.36035
G1 Y173.3125 E188.78204
G1 X128.3233 Y173.3176 E188.78490
G1 X128.1855 Y173.2095 E188.78775
G1 X128.0660 Y173.0815 E188.79059
G1 X127.9084 Y172.8843 E188.79468
G1 X127.7637 Y172.6230 E188.79953
G1 X127.7136 Y172.3286 E188.80437
G1 Y146.5173 E189.22314
G1 X127.6503 Y146.2352 E189.22783
G1 X127.4611 Y146.0184 E189.23249
G1 X127.2491 Y145.8238 E189.23716
G1 X127.1685 Y145.7575 E189.23886
G1 X127.0119 Y145.7382 E189.24142
G1 X126.9274 Y146.0293 E189.24633
G1 Y171.2829 E189.65605
G1 X126.7713 Y171.2801 E189.65858
G1 X126.5591 Y171.0563 E189.66359
G1 X126.3172 Y170.7025 E189.67054
G1 X126.1861 Y170.4310 E189.67543
G1 X126.1411 Y170.1329 E189.68032
G1 Y145.2256 E190.08442
G1 X126.0778 Y144.9435 E190.08911
G1 X125.8886 Y144.7267 E190.09378
G1 X125.6766 Y144.5321 E190.09845
G1 X125.5960 Y144.4658 E190.10014
G1 X125.4394 Y144.4465 E190.10270
G1 X125.3549 Y144.7376 E190.10762
G1 Y168.8546 E190.49889
G1 X125.1270 Y168.7570 E190.50291
G1 X124.7204 Y168.0264 E190.51648
G1 X124.6072 Y167.7438 E190.52142
G1 X124.5687 Y167.4418 E190.52636
G1 Y143.9340 E190.90775
G1 X124.5054 Y143.6519 E190.91244
G1 X124.3162 Y143.4351 E190.91711
G1 X124.1042 Y143.2405 E190.92178
G1 X124.0235 Y143.1741 E190.92347
G1 X123.8669 Y143.1548 E190.92603
G1 X123.7824 Y143.4459 E190.93095
G1 Y165.8447 E191.29435
G1 X123.6125 Y165.7551 E191.29746
G1 X123.1178 Y164.5861 E191.31806
G1 X123.0269 Y164.2926 E191.32304
G1 X122.9962 Y163.9868 E191.32803
G1 Y142.6423 E191.67432
G1 X122.9025 Y142.4477 E191.67783
G1 X122.6920 Y142.4240 E191.68126
G1 X122.4815 Y142.4477 E191.68470
G1 X122.2861 Y142.5704 E191.68844
G1 X122.2291 Y142.7914 E191.69215
G1 X122.2099 Y143.0189 E191.69585
G1 Y161.7347 E191.99950
G1 X122.1140 Y161.6693 E192.00138
G1 X121.5005 Y159.2549 E192.04179
G1 X121.4439 Y158.9501 E192.04682
G1 X121.4275 Y158.6405 E192.05185
G1 X121.5932 Y145.0607 E192.27219
G1 X121.5352 Y145.1051 E192.27337
G1 X120.9504 Y148.4787 E192.32892
G1 X120.7505 Y151.9671 E191.45343 F1080 ; AbsE -0.9322 (-4.80/-0.29 mm/s) 
G1 X120.6474 Y152.1885 E191.38957 ; AbsE -0.0678 (-5.00/-0.29 mm/s) 
; Shell
G1 X120.4162 Y152.2560 F4800 ;  Move Only (0.24 mm)
G1 X120.1764 Y152.2789 ;  Move Only (0.24 mm)
G1 X119.9625 Y152.1885 ;  Move Only (0.23 mm)
G1 X119.9012 Y151.9681 ;  Move Only (0.23 mm)
G1 X119.8849 Y151.7399 ;  Move Only (0.23 mm)
G1 X119.9155 Y150.6713 ;  Move Only (1.1 mm)
G1 X120.0919 Y148.3872 ;  Move Only (2.3 mm)
G1 X100.7342 Y147.8793 ;  Move Only (19 mm)
G1 X120.0919 Y148.3872 ;  Move Only (19 mm)
G1 X101.0461 Y147.8875 ;  Move Only (19 mm)
G1 X100.8136 Y147.9708 ;  Move Only (0.25 mm)
G1 X100.7202 Y148.1960 ;  Move Only (0.24 mm)
G1 X100.6699 Y148.4346 ;  Move Only (0.24 mm)
G1 X100.5437 Y149.5233 ;  Move Only (1.1 mm)
G1 X100.7342 Y147.8793 E192.33105 F540 ; AbsE 0.9194 (5.00/-0.12 mm/s) 
G1 X100.7442 Y147.7346 E192.41355 ; AbsE 0.0806 (5.00/-0.12 mm/s) 
G1 X100.8703 Y145.9182 E192.43781 F1200
G1 X100.9159 Y143.9495 E192.46405
G1 X100.8703 Y141.9808 E192.49028
G1 X100.7342 Y140.0203 E192.51646
G1 X100.5077 Y138.0657 E192.54268
G1 X100.1903 Y136.1219 E192.56892
G1 X99.7851 Y134.2011 E192.59507
G1 X99.2898 Y132.2937 E192.62133
G1 X98.7072 Y130.4134 E192.64755
G1 X98.0407 Y128.5665 E192.67371
G1 X97.2866 Y126.7458 E192.69996
G1 X96.4521 Y124.9682 E192.72613
G1 X95.5334 Y123.2254 E192.75237
G1 X94.5366 Y121.5289 E192.77859
G1 X93.4626 Y119.8808 E192.80480
G1 X92.3128 Y118.2831 E192.83102
G1 X91.0917 Y116.7414 E192.85722
G1 X89.8022 Y115.2596 E192.88339
G1 X88.4416 Y113.8346 E192.90964
G1 X87.0168 Y112.4745 E192.93588
G1 X85.5354 Y111.1852 E192.96205
G1 X83.9925 Y109.9628 E192.98827
G1 X82.3944 Y108.8130 E193.01450
G1 X80.7472 Y107.7397 E193.04069
G1 X79.0518 Y106.7434 E193.06689
G1 X77.3083 Y105.8243 E193.09315
G1 X75.5309 Y104.9901 E193.11931
G1 X73.7101 Y104.2358 E193.14556
G1 X71.8631 Y103.5692 E193.17172
G1 X69.9826 Y102.9865 E193.19795
G1 X68.0757 Y102.4914 E193.22420
G1 X66.1539 Y102.0860 E193.25037
G1 X64.2104 Y101.7690 E193.27660
G1 X62.2562 Y101.5423 E193.30281
G1 X60.2950 Y101.4062 E193.32900
G1 X58.3267 Y101.3607 E193.35523
G1 X56.3584 Y101.4062 E193.38146
G1 X54.3971 Y101.5423 E193.40765
G1 X52.4429 Y101.7690 E193.43386
G1 X50.4994 Y102.0860 E193.46010
G1 X48.5778 Y102.4914 E193.48626
G1 X46.6708 Y102.9865 E193.51251
G1 X44.7900 Y103.5692 E193.53874
G1 X42.9433 Y104.2358 E193.56490
G1 X41.1225 Y104.9901 E193.59116
G1 X39.3449 Y105.8243 E193.61732
G1 X37.6017 Y106.7434 E193.64357
G1 X35.9062 Y107.7397 E193.66977
G1 X34.2585 Y108.8134 E193.69597
G1 X32.6600 Y109.9636 E193.72221
G1 X31.1182 Y111.1845 E193.74841
G1 X29.6352 Y112.4755 E193.77460
G1 X28.2114 Y113.8351 E193.80083
G1 X26.8523 Y115.2584 E193.82705
G1 X25.5610 Y116.7419 E193.85325
G1 X24.3406 Y118.2831 E193.87944
G1 X23.1902 Y119.8814 E193.90568
G1 X22.1164 Y121.5295 E193.93188
G1 X21.1198 Y123.2255 E193.95809
G1 X20.2022 Y124.9665 E193.98431
G1 X19.3666 Y126.7467 E194.01051
G1 X18.6121 Y128.5672 E194.03677
G1 X17.9461 Y130.4134 E194.06291
G1 X17.3632 Y132.2944 E194.08915
G1 X16.8684 Y134.2005 E194.11538
G1 X16.4629 Y136.1231 E194.14156
G1 X16.1458 Y138.0665 E194.16779
G1 X15.9193 Y140.0191 E194.19398
G1 X15.7751 Y142.3250 E194.22476
G1 X15.7375 Y143.9503 E194.24642
G1 X15.7831 Y145.9181 E194.27265
G1 X15.9191 Y147.8793 E194.29884
G1 X16.1458 Y149.8330 E194.32504
G1 X16.4629 Y151.7766 E194.35128
G1 X16.8684 Y153.6991 E194.37745
G1 X17.3632 Y155.6053 E194.40369
G1 X17.9461 Y157.4863 E194.42992
G1 X18.6121 Y159.3324 E194.45607
G1 X19.3666 Y161.1533 E194.48233
G1 X20.2022 Y162.9332 E194.50853
G1 X21.1195 Y164.6736 E194.53474
G1 X22.1164 Y166.3703 E194.56095
G1 X23.1902 Y168.0181 E194.58716
G1 X24.3401 Y169.6160 E194.61338
G1 X25.5610 Y171.1579 E194.63959
G1 X26.8523 Y172.6412 E194.66579
G1 X28.2114 Y174.0645 E194.69201
G1 X29.6352 Y175.4242 E194.71823
G1 X31.1181 Y176.7151 E194.74443
G1 X32.6607 Y177.9364 E194.77064
G1 X34.2577 Y179.0858 E194.79685
G1 X35.9062 Y180.1602 E194.82307
G1 X37.6024 Y181.1569 E194.84928
G1 X39.3434 Y182.0744 E194.87550
G1 X41.1234 Y182.9100 E194.90169
G1 X42.9433 Y183.6639 E194.92794
G1 X44.7900 Y184.3307 E194.95410
G1 X46.6706 Y184.9132 E194.98032
G1 X48.5773 Y185.4081 E195.00657
G1 X50.4998 Y185.8137 E195.03274
G1 X52.4433 Y186.1307 E195.05898
G1 X54.3969 Y186.3575 E195.08518
G1 X56.3584 Y186.4935 E195.11138
G1 X58.3267 Y186.5390 E195.13761
G1 X60.2950 Y186.4935 E195.16384
G1 X62.2564 Y186.3575 E195.19003
G1 X64.2100 Y186.1307 E195.21623
G1 X66.1535 Y185.8137 E195.24247
G1 X68.0761 Y185.4081 E195.26864
G1 X69.9826 Y184.9132 E195.29489
G1 X71.8631 Y184.3307 E195.32111
G1 X73.7101 Y183.6639 E195.34727
G1 X75.5301 Y182.9100 E195.37352
G1 X77.3100 Y182.0744 E195.39971
G1 X79.0510 Y181.1569 E195.42593
G1 X80.7472 Y180.1602 E195.45214
G1 X82.3958 Y179.0858 E195.47836
G1 X83.9927 Y177.9364 E195.50457
G1 X85.5350 Y176.7151 E195.53078
G1 X87.0168 Y175.4255 E195.55695
G1 X88.4421 Y174.0645 E195.58321
G1 X89.8022 Y172.6402 E195.60945
G1 X91.0921 Y171.1578 E195.63562
G1 X92.3132 Y169.6160 E195.66183
G1 X93.4630 Y168.0181 E195.68805
G1 X94.5370 Y166.3703 E195.71426
G1 X95.5331 Y164.6751 E195.74045
G1 X96.4521 Y162.9315 E195.76671
G1 X97.2870 Y161.1534 E195.79288
G1 X98.0406 Y159.3332 E195.81913
G1 X98.7072 Y157.4863 E195.84529
G1 X99.2900 Y155.6053 E195.87152
G1 X99.7851 Y153.6984 E195.89777
G1 X100.1904 Y151.7771 E195.92393
G1 X100.5078 Y149.8332 E195.95017
G1 X100.1987 Y149.7899 F4800 ;  Move Only (0.31 mm)
G1 X100.5077 Y149.8332 ;  Move Only (0.31 mm)
G1 X100.2992 Y149.7122 ;  Move Only (0.24 mm)
G1 X100.2579 Y149.4782 E195.95334 F1200
G1 X100.2624 Y149.2405 E195.95650
G1 X100.4234 Y147.8510 E195.97514
G1 X100.5586 Y145.9034 E196.00115
G1 X100.6037 Y143.9491 E196.02719
G1 X100.5586 Y141.9946 E196.05324
G1 X100.4234 Y140.0482 E196.07923
G1 X100.1987 Y138.1085 E196.10524
G1 X99.8833 Y136.1775 E196.13131
G1 X99.4815 Y134.2727 E196.15725
G1 X98.9892 Y132.3767 E196.18334
G1 X98.4117 Y130.5134 E196.20933
G1 X97.7503 Y128.6798 E196.23530
G1 X96.9998 Y126.8687 E196.26142
G1 X96.1735 Y125.1082 E196.28733
G1 X95.2608 Y123.3769 E196.31340
G1 X94.2713 Y121.6930 E196.33942
G1 X93.2055 Y120.0575 E196.36543
G1 X92.0624 Y118.4695 E196.39150
G1 X90.8521 Y116.9410 E196.41747
G1 X89.5716 Y115.4699 E196.44346
G1 X88.2206 Y114.0546 E196.46952
G1 X86.8074 Y112.7057 E196.49555
G1 X85.3347 Y111.4239 E196.52156
G1 X83.8050 Y110.2123 E196.54756
G1 X82.2163 Y109.0690 E196.57364
G1 X80.5828 Y108.0047 E196.59961
G1 X78.8996 Y107.0154 E196.62562
G1 X77.1678 Y106.1026 E196.65170
G1 X75.4077 Y105.2766 E196.67761
G1 X73.5963 Y104.5260 E196.70373
G1 X71.7627 Y103.8642 E196.72970
G1 X69.8988 Y103.2866 E196.75570
G1 X68.0037 Y102.7947 E196.78178
G1 X66.0963 Y102.3925 E196.80775
G1 X64.1676 Y102.0780 E196.83378
G1 X62.2275 Y101.8526 E196.85981
G1 X60.2802 Y101.7175 E196.88581
G1 X58.3267 Y101.6725 E196.91184
G1 X56.3729 Y101.7175 E196.93788
G1 X54.4256 Y101.8526 E196.96389
G1 X52.4852 Y102.0780 E196.98991
G1 X50.5567 Y102.3925 E197.01594
G1 X48.6494 Y102.7947 E197.04191
G1 X46.7543 Y103.2866 E197.06800
G1 X44.8900 Y103.8642 E197.09400
G1 X43.0567 Y104.5260 E197.11996
G1 X41.2471 Y105.2757 E197.14606
G1 X39.4843 Y106.1030 E197.17200
G1 X37.7526 Y107.0160 E197.19808
G1 X36.0702 Y108.0047 E197.22408
G1 X34.4339 Y109.0710 E197.25010
G1 X32.8473 Y110.2127 E197.27614
G1 X31.3177 Y111.4238 E197.30214
G1 X29.8451 Y112.7057 E197.32815
G1 X28.4316 Y114.0556 E197.35419
G1 X27.0826 Y115.4685 E197.38021
G1 X25.8000 Y116.9420 E197.40624
G1 X24.5893 Y118.4708 E197.43222
G1 X23.4474 Y120.0573 E197.45826
G1 X22.3811 Y121.6935 E197.48428
G1 X21.3916 Y123.3778 E197.51030
G1 X20.4805 Y125.1065 E197.53634
G1 X19.6521 Y126.8717 E197.56232
G1 X18.9032 Y128.6783 E197.58837
G1 X18.2412 Y130.5142 E197.61437
G1 X17.6629 Y132.3793 E197.64039
G1 X17.1721 Y134.2715 E197.66643
G1 X16.7696 Y136.1801 E197.69242
G1 X16.4545 Y138.1093 E197.71846
G1 X16.2299 Y140.0469 E197.74444
G1 X16.0865 Y142.3381 E197.77503
G1 X16.0494 Y143.9499 E197.79651
G1 X16.0945 Y145.9032 E197.82254
G1 X16.2295 Y147.8506 E197.84854
G1 X16.4545 Y149.7898 E197.87455
G1 X16.7696 Y151.7190 E197.90060
G1 X17.1721 Y153.6274 E197.92658
G1 X17.6629 Y155.5198 E197.95263
G1 X18.2410 Y157.3852 E197.97864
G1 X18.9032 Y159.2213 E198.00465
G1 X19.6515 Y161.0268 E198.03069
G1 X20.4815 Y162.7942 E198.05670
G1 X21.3914 Y164.5209 E198.08270
G1 X22.3811 Y166.2058 E198.10873
G1 X23.4464 Y167.8406 E198.13473
G1 X24.5900 Y169.4294 E198.16081
G1 X25.8000 Y170.9576 E198.18678
G1 X27.0824 Y172.4305 E198.21280
G1 X28.4316 Y173.8435 E198.23883
G1 X29.8454 Y175.1938 E198.26487
G1 X31.3179 Y176.4758 E198.29088
G1 X32.8484 Y177.6872 E198.31689
G1 X34.4330 Y178.8280 E198.34290
G1 X36.0702 Y179.8950 E198.36893
G1 X37.7543 Y180.8846 E198.39496
G1 X39.4827 Y181.7951 E198.42098
G1 X41.2490 Y182.6244 E198.44698
G1 X43.0548 Y183.3727 E198.47302
G1 X44.8900 Y184.0353 E198.49902
G1 X46.7540 Y184.6126 E198.52501
G1 X48.6490 Y185.1042 E198.55110
G1 X50.5570 Y185.5070 E198.57708
G1 X52.4857 Y185.8214 E198.60311
G1 X54.4254 Y186.0467 E198.62913
G1 X56.3729 Y186.1818 E198.65513
G1 X58.3267 Y186.2268 E198.68117
G1 X60.2802 Y186.1818 E198.70720
G1 X62.2277 Y186.0467 E198.73321
G1 X64.1672 Y185.8214 E198.75922
G1 X66.0959 Y185.5070 E198.78526
G1 X68.0041 Y185.1042 E198.81124
G1 X69.8988 Y184.6126 E198.83732
G1 X71.7627 Y184.0353 E198.86331
G1 X73.5963 Y183.3734 E198.88929
G1 X75.4060 Y182.6236 E198.91538
G1 X77.1704 Y181.7951 E198.94135
G1 X78.8990 Y180.8846 E198.96738
G1 X80.5828 Y179.8950 E198.99340
G1 X82.2201 Y178.8280 E199.01944
G1 X83.8045 Y177.6872 E199.04545
G1 X85.3347 Y176.4755 E199.07145
G1 X86.8053 Y175.1960 E199.09742
G1 X88.2215 Y173.8435 E199.12351
G1 X89.5727 Y172.4285 E199.14958
G1 X90.8528 Y170.9574 E199.17556
G1 X92.0628 Y169.4294 E199.20152
G1 X93.2065 Y167.8406 E199.22760
G1 X94.2717 Y166.2058 E199.25360
G1 X95.2608 Y164.5229 E199.27961
G1 X96.1726 Y162.7927 E199.30566
G1 X97.0017 Y161.0269 E199.33165
G1 X97.7495 Y159.2204 E199.35770
G1 X98.4117 Y157.3861 E199.38368
G1 X98.9895 Y155.5213 E199.40969
G1 X99.4815 Y153.6264 E199.43577
G1 X99.8834 Y151.7198 E199.46173
G1 X100.1747 Y149.9366 E199.48580
G1 X100.1484 Y149.8269 E199.48730
G1 X100.1184 Y149.8090 F4800 ;  Move Only (0.035 mm)
G1 X99.9745 Y149.7581 ;  Move Only (0.15 mm)
G1 X99.8996 Y149.6610 E199.48812 F1440
G1 X100.1126 Y147.8226 E199.51278 F1200
G1 X100.2467 Y145.8885 E199.53861
G1 X100.2916 Y143.9486 E199.56446
G1 X100.2467 Y142.0085 E199.59031
G1 X100.1126 Y140.0760 E199.61612
G1 X99.8896 Y138.1513 E199.64193
G1 X99.5764 Y136.2338 E199.66782
G1 X99.1778 Y134.3443 E199.69355
G1 X98.6887 Y132.4605 E199.71947
G1 X98.1156 Y130.6120 E199.74526
G1 X97.4593 Y128.7920 E199.77103
G1 X96.7144 Y126.9947 E199.79695
G1 X95.8946 Y125.2476 E199.82266
G1 X94.9877 Y123.5276 E199.84857
G1 X94.0060 Y121.8570 E199.87438
G1 X92.9476 Y120.2327 E199.90021
G1 X91.8132 Y118.6570 E199.92608
G1 X90.6135 Y117.1417 E199.95183
G1 X89.3399 Y115.6788 E199.97767
G1 X87.9986 Y114.2737 E200.00355
G1 X86.5990 Y112.9379 E200.02932
G1 X85.1342 Y111.6628 E200.05520
G1 X83.6175 Y110.4615 E200.08097
G1 X82.0382 Y109.3250 E200.10690
G1 X80.4184 Y108.2697 E200.13265
G1 X78.7476 Y107.2878 E200.15847
G1 X77.0291 Y106.3817 E200.18435
G1 X75.2809 Y105.5616 E200.21008
G1 X73.4845 Y104.8170 E200.23599
G1 X71.6623 Y104.1594 E200.26179
G1 X69.8144 Y103.5867 E200.28757
G1 X67.9322 Y103.0984 E200.31347
G1 X66.0389 Y102.6990 E200.33925
G1 X64.1248 Y102.3868 E200.36509
G1 X62.1987 Y102.1630 E200.39092
G1 X60.2654 Y102.0290 E200.41674
G1 X58.3267 Y101.9841 E200.44258
G1 X56.3875 Y102.0290 E200.46842
G1 X54.4541 Y102.1630 E200.49424
G1 X52.5274 Y102.3868 E200.52008
G1 X50.6137 Y102.6990 E200.54591
G1 X48.7205 Y103.0984 E200.57169
G1 X46.8384 Y103.5867 E200.59760
G1 X44.9900 Y104.1594 E200.62338
G1 X43.1680 Y104.8170 E200.64918
G1 X41.3736 Y105.5605 E200.67506
G1 X39.6234 Y106.3817 E200.70082
G1 X37.9037 Y107.2887 E200.72672
G1 X36.2344 Y108.2697 E200.75251
G1 X34.6106 Y109.3275 E200.77833
G1 X33.0336 Y110.4625 E200.80422
G1 X31.5186 Y111.6622 E200.82996
G1 X30.0554 Y112.9358 E200.85581
G1 X28.6506 Y114.2770 E200.88168
G1 X27.3144 Y115.6771 E200.90747
G1 X26.0381 Y117.1434 E200.93336
G1 X24.8381 Y118.6583 E200.95911
G1 X23.7047 Y120.2332 E200.98496
G1 X22.6461 Y121.8577 E201.01079
G1 X21.6636 Y123.5299 E201.03663
G1 X20.7596 Y125.2449 E201.06246
G1 X19.9374 Y126.9976 E201.08825
G1 X19.1941 Y128.7901 E201.11411
G1 X18.5364 Y130.6144 E201.13994
G1 X17.9627 Y132.4647 E201.16575
G1 X17.4758 Y134.3419 E201.19159
G1 X17.0763 Y136.2370 E201.21739
G1 X16.7631 Y138.1528 E201.24325
G1 X16.5403 Y140.0747 E201.26903
G1 X16.3979 Y142.3513 E201.29942
G1 X16.3612 Y143.9494 E201.32071
G1 X16.4060 Y145.8882 E201.34655
G1 X16.5399 Y147.8204 E201.37235
G1 X16.7631 Y149.7461 E201.39818
G1 X17.0763 Y151.6617 E201.42404
G1 X17.4758 Y153.5564 E201.44984
G1 X17.9628 Y155.4345 E201.47569
G1 X18.5359 Y157.2835 E201.50148
G1 X19.1943 Y159.1100 E201.52734
G1 X19.9361 Y160.8998 E201.55315
G1 X20.7608 Y162.6551 E201.57899
G1 X21.6627 Y164.3671 E201.60477
G1 X22.6461 Y166.0413 E201.63064
G1 X23.7036 Y167.6643 E201.65645
G1 X24.8384 Y169.2407 E201.68232
G1 X26.0390 Y170.7573 E201.70809
G1 X27.3115 Y172.2188 E201.73391
G1 X28.6528 Y173.6235 E201.75979
G1 X30.0543 Y174.9624 E201.78561
G1 X31.5174 Y176.2359 E201.81145
G1 X33.0374 Y177.4390 E201.83728
G1 X34.6083 Y178.5701 E201.86307
G1 X36.2344 Y179.6297 E201.88892
G1 X37.9044 Y180.6110 E201.91473
G1 X39.6230 Y181.5164 E201.94061
G1 X41.3753 Y182.3393 E201.96640
G1 X43.1657 Y183.0810 E201.99222
G1 X44.9906 Y183.7400 E202.01807
G1 X46.8386 Y184.3123 E202.04384
G1 X48.7196 Y184.8001 E202.06973
G1 X50.6141 Y185.2001 E202.09553
G1 X52.5280 Y185.5123 E202.12136
G1 X54.4538 Y185.7359 E202.14719
G1 X56.3875 Y185.8701 E202.17301
G1 X58.3267 Y185.9146 E202.19886
G1 X60.2654 Y185.8701 E202.22469
G1 X62.1989 Y185.7359 E202.25051
G1 X64.1244 Y185.5123 E202.27634
G1 X66.0385 Y185.2001 E202.30217
G1 X67.9327 Y184.8002 E202.32797
G1 X69.8143 Y184.3121 E202.35386
G1 X71.6623 Y183.7400 E202.37964
G1 X73.4845 Y183.0822 E202.40545
G1 X75.2793 Y182.3385 E202.43133
G1 X77.0317 Y181.5155 E202.45712
G1 X78.7467 Y180.6123 E202.48295
G1 X80.4184 Y179.6297 E202.50878
G1 X82.0435 Y178.5706 E202.53462
G1 X83.6181 Y177.4371 E202.56047
G1 X85.1356 Y176.2350 E202.58626
G1 X86.5938 Y174.9663 E202.61201
G1 X88.0000 Y173.6235 E202.63792
G1 X89.3434 Y172.2165 E202.66383
G1 X90.6135 Y170.7567 E202.68961
G1 X91.8138 Y169.2412 E202.71537
G1 X92.9490 Y167.6643 E202.74125
G1 X94.0063 Y166.0414 E202.76706
G1 X94.9882 Y164.3707 E202.79288
G1 X95.8931 Y162.6537 E202.81873
G1 X96.7163 Y160.9002 E202.84454
G1 X97.4584 Y159.1076 E202.87039
G1 X98.1160 Y157.2858 E202.89619
G1 X98.6889 Y155.4372 E202.92198
G1 X99.1780 Y153.5536 E202.94790
G1 X99.5765 Y151.6631 E202.97364
G1 X99.8394 Y150.0540 E202.99536
G1 X99.7761 Y150.0890 E202.99560
; Infill
G1 X99.5071 Y150.9004 F4800 ;  Move Only (0.85 mm)
G1 X99.4605 Y150.8323 E202.99661 F1440
G1 X99.8021 Y148.4148 E203.03622 F1200
G1 X99.4195 Y137.0123 E203.22132
G1 X99.4090 Y137.0230 E203.22156
G1 Y150.8846 E203.44645
